P3
 200 200 
255
220 235 255
220 235 255
220 235 255
220 235 255
220 235 255
220 235 255
220 235 255
220 235 255
220 235 255
220 235 255
220 235 255
220 235 255
220 235 255
220 235 255
220 235 255
220 235 255
220 235 255
220 235 255
220 235 255
220 235 255
220 235 255
220 235 255
220 235 255
220 235 255
220 235 255
220 235 255
220 235 255
220 235 255
220 235 255
220 235 255
220 235 255
220 235 255
220 235 255
220 235 255
220 235 255
220 235 255
220 235 255
220 235 255
220 235 255
220 235 255
220 235 255
220 235 255
220 235 255
220 235 255
220 235 255
220 235 255
220 235 255
220 235 255
220 235 255
220 235 255
220 235 255
220 235 255
220 235 255
220 235 255
220 235 255
220 235 255
220 235 255
220 235 255
220 235 255
220 235 255
220 235 255
220 235 255
220 235 255
220 235 255
220 235 255
220 235 255
220 235 255
220 235 255
220 235 255
220 235 255
220 235 255
220 235 255
220 235 255
220 235 255
220 235 255
220 235 255
220 235 255
220 235 255
220 235 255
220 235 255
220 235 255
220 235 255
220 235 255
220 235 255
220 235 255
220 235 255
220 235 255
220 235 255
220 235 255
220 235 255
220 235 255
220 235 255
220 235 255
220 235 255
220 235 255
220 235 255
220 235 255
220 235 255
220 235 255
220 235 255
220 235 255
220 235 255
220 235 255
220 235 255
220 235 255
220 235 255
220 235 255
220 235 255
220 235 255
220 235 255
220 235 255
220 235 255
220 235 255
220 235 255
220 235 255
220 235 255
220 235 255
220 235 255
220 235 255
220 235 255
220 235 255
220 235 255
220 235 255
220 235 255
220 235 255
220 235 255
220 235 255
220 235 255
220 235 255
220 235 255
220 235 255
220 235 255
220 235 255
220 235 255
220 235 255
220 235 255
220 235 255
220 235 255
220 235 255
220 235 255
220 235 255
220 235 255
220 235 255
220 235 255
220 235 255
220 235 255
220 235 255
220 235 255
220 235 255
220 235 255
220 235 255
220 235 255
220 235 255
220 235 255
220 235 255
220 235 255
220 235 255
220 235 255
220 235 255
220 235 255
220 235 255
220 235 255
220 235 255
220 235 255
220 235 255
220 235 255
220 235 255
220 235 255
220 235 255
220 235 255
220 235 255
220 235 255
220 235 255
220 235 255
220 235 255
220 235 255
220 235 255
220 235 255
220 235 255
220 235 255
220 235 255
220 235 255
220 235 255
220 235 255
220 235 255
220 235 255
220 235 255
220 235 255
220 235 255
220 235 255
220 235 255
220 235 255
220 235 255
220 235 255
220 235 255
220 235 255
220 235 255
220 235 255
220 235 255
220 235 255
220 235 255
220 235 255
220 235 255
220 235 255
220 235 255
220 235 255
220 235 255
220 235 255
220 235 255
220 235 255
220 235 255
220 235 255
220 235 255
220 235 255
220 235 255
220 235 255
220 235 255
220 235 255
220 235 255
220 235 255
221 235 255
220 235 255
220 235 255
220 235 255
220 235 255
220 235 255
220 235 255
220 235 255
220 235 255
220 235 255
220 235 255
220 235 255
220 235 255
220 235 255
220 235 255
220 235 255
220 235 255
220 235 255
220 235 255
221 235 255
220 235 255
220 235 255
220 235 255
220 235 255
220 235 255
220 235 255
220 235 255
220 235 255
220 235 255
221 235 255
220 235 255
220 235 255
220 235 255
220 235 255
220 235 255
220 235 255
220 235 255
220 235 255
220 235 255
220 235 255
220 235 255
220 235 255
220 235 255
220 235 255
220 235 255
220 235 255
220 235 255
220 235 255
220 235 255
220 235 255
220 235 255
220 235 255
220 235 255
220 235 255
220 235 255
220 235 255
220 235 255
220 235 255
220 235 255
221 235 255
221 235 255
220 235 255
220 235 255
220 235 255
220 235 255
220 235 255
220 235 255
220 235 255
220 235 255
220 235 255
220 235 255
220 235 255
220 235 255
220 235 255
220 235 255
220 235 255
220 235 255
221 235 255
220 235 255
220 235 255
220 235 255
220 235 255
220 235 255
220 235 255
220 235 255
220 235 255
220 235 255
220 235 255
220 235 255
220 235 255
220 235 255
220 235 255
220 235 255
220 235 255
220 235 255
220 235 255
220 235 255
220 235 255
220 235 255
220 235 255
220 235 255
221 235 255
220 235 255
220 235 255
220 235 255
220 235 255
220 235 255
220 235 255
220 235 255
220 235 255
220 235 255
220 235 255
220 235 255
220 235 255
220 235 255
220 235 255
220 235 255
220 235 255
220 235 255
220 235 255
220 235 255
220 235 255
220 235 255
220 235 255
220 235 255
220 235 255
220 235 255
220 235 255
220 235 255
220 235 255
220 235 255
220 235 255
220 235 255
220 235 255
220 235 255
220 235 255
220 235 255
220 235 255
220 235 255
220 235 255
220 235 255
220 235 255
220 235 255
220 235 255
220 235 255
220 235 255
220 235 255
220 235 255
220 235 255
220 235 255
220 235 255
220 235 255
220 235 255
220 235 255
220 235 255
220 235 255
220 235 255
220 235 255
220 235 255
221 235 255
220 235 255
220 235 255
220 235 255
220 235 255
220 235 255
220 235 255
220 235 255
220 235 255
220 235 255
220 235 255
220 235 255
220 235 255
221 235 255
220 235 255
220 235 255
220 235 255
220 235 255
220 235 255
220 235 255
221 235 255
221 235 255
221 235 255
220 235 255
221 235 255
220 235 255
220 235 255
221 235 255
220 235 255
221 235 255
220 235 255
220 235 255
220 235 255
220 235 255
221 235 255
220 235 255
220 235 255
220 235 255
220 235 255
220 235 255
221 235 255
220 235 255
220 235 255
221 235 255
220 235 255
221 235 255
220 235 255
220 235 255
220 235 255
220 235 255
221 235 255
220 235 255
220 235 255
220 235 255
220 235 255
220 235 255
221 235 255
220 235 255
220 235 255
220 235 255
220 235 255
221 235 255
220 235 255
220 235 255
220 235 255
220 235 255
220 235 255
220 235 255
220 235 255
220 235 255
220 235 255
220 235 255
220 235 255
220 235 255
221 235 255
220 235 255
220 235 255
220 235 255
220 235 255
220 235 255
220 235 255
221 235 255
220 235 255
220 235 255
221 235 255
220 235 255
220 235 255
220 235 255
220 235 255
220 235 255
220 235 255
220 235 255
220 235 255
221 235 255
221 235 255
220 235 255
221 235 255
220 235 255
220 235 255
220 235 255
220 235 255
220 235 255
220 235 255
221 235 255
220 235 255
220 235 255
220 235 255
220 235 255
220 235 255
220 235 255
220 235 255
220 235 255
220 235 255
220 235 255
220 235 255
220 235 255
220 235 255
221 235 255
220 235 255
220 235 255
220 235 255
220 235 255
220 235 255
221 235 255
220 235 255
220 235 255
221 235 255
221 235 255
221 235 255
220 235 255
220 235 255
220 235 255
221 235 255
220 235 255
220 235 255
220 235 255
220 235 255
220 235 255
221 235 255
220 235 255
220 235 255
220 235 255
221 235 255
220 235 255
220 235 255
220 235 255
220 235 255
221 235 255
220 235 255
220 235 255
220 235 255
220 235 255
220 235 255
221 235 255
220 235 255
220 235 255
220 235 255
221 235 255
220 235 255
220 235 255
220 235 255
220 235 255
220 235 255
220 235 255
220 235 255
220 235 255
220 235 255
220 235 255
220 235 255
220 235 255
220 235 255
221 235 255
220 235 255
220 235 255
220 235 255
220 235 255
220 235 255
221 235 255
220 235 255
220 235 255
220 235 255
220 235 255
220 235 255
221 235 255
221 235 255
220 235 255
220 235 255
220 235 255
221 235 255
220 235 255
220 235 255
220 235 255
220 235 255
220 235 255
221 235 255
220 235 255
221 235 255
220 235 255
220 235 255
220 235 255
221 235 255
220 235 255
221 235 255
220 235 255
220 235 255
220 235 255
220 235 255
220 235 255
220 235 255
221 235 255
220 235 255
220 235 255
220 235 255
220 235 255
221 235 255
221 235 255
221 235 255
220 235 255
220 235 255
221 235 255
220 235 255
220 235 255
220 235 255
221 235 255
220 235 255
221 235 255
220 235 255
220 235 255
221 235 255
220 235 255
221 235 255
220 235 255
220 235 255
220 235 255
221 235 255
220 235 255
221 235 255
220 235 255
220 235 255
221 235 255
220 235 255
220 235 255
220 235 255
221 235 255
220 235 255
220 235 255
221 235 255
220 235 255
220 235 255
220 235 255
220 235 255
221 235 255
220 235 255
221 235 255
221 235 255
220 235 255
221 235 255
220 235 255
220 235 255
220 235 255
220 235 255
220 235 255
221 235 255
220 235 255
221 235 255
220 235 255
220 235 255
220 235 255
221 235 255
221 235 255
220 235 255
220 235 255
221 235 255
221 235 255
220 235 255
221 235 255
220 235 255
220 235 255
220 235 255
221 235 255
220 235 255
221 235 255
220 235 255
220 235 255
220 235 255
221 235 255
220 235 255
220 235 255
220 235 255
220 235 255
221 235 255
221 235 255
220 235 255
220 235 255
221 235 255
221 235 255
220 235 255
220 235 255
221 235 255
221 235 255
220 235 255
220 235 255
220 235 255
221 235 255
220 235 255
220 235 255
221 235 255
220 235 255
221 235 255
221 235 255
220 235 255
220 235 255
220 235 255
220 235 255
220 235 255
220 235 255
221 235 255
221 235 255
221 235 255
220 235 255
220 235 255
220 235 255
220 235 255
221 235 255
220 235 255
220 235 255
220 235 255
220 235 255
221 235 255
221 235 255
220 235 255
220 235 255
220 235 255
220 235 255
221 235 255
220 235 255
220 235 255
220 235 255
221 235 255
220 235 255
220 235 255
220 235 255
221 235 255
220 235 255
220 235 255
220 235 255
220 235 255
221 235 255
221 235 255
220 235 255
221 235 255
220 235 255
221 235 255
221 235 255
220 235 255
221 235 255
221 235 255
221 235 255
220 235 255
220 235 255
220 235 255
220 235 255
221 235 255
220 235 255
221 235 255
220 235 255
221 235 255
221 235 255
221 235 255
220 235 255
220 235 255
220 235 255
220 235 255
221 235 255
220 235 255
220 235 255
221 235 255
221 235 255
221 235 255
221 235 255
221 235 255
220 235 255
221 235 255
221 235 255
221 235 255
221 235 255
220 235 255
220 235 255
220 235 255
221 235 255
220 235 255
220 235 255
221 235 255
220 235 255
221 235 255
220 235 255
221 235 255
220 235 255
220 235 255
221 235 255
221 235 255
221 235 255
221 235 255
221 235 255
220 235 255
221 235 255
220 235 255
221 235 255
220 235 255
221 235 255
220 235 255
220 235 255
221 235 255
220 235 255
220 235 255
221 235 255
220 235 255
220 235 255
220 235 255
221 235 255
220 235 255
221 235 255
221 235 255
221 235 255
220 235 255
220 235 255
221 235 255
221 235 255
221 235 255
220 235 255
220 235 255
220 235 255
221 235 255
221 235 255
220 235 255
220 235 255
221 235 255
221 235 255
220 235 255
220 235 255
221 235 255
221 235 255
220 235 255
221 235 255
221 235 255
220 235 255
220 235 255
220 235 255
220 235 255
221 235 255
220 235 255
220 235 255
220 235 255
220 235 255
221 235 255
220 235 255
220 235 255
221 235 255
221 235 255
221 235 255
221 235 255
221 235 255
221 235 255
221 235 255
221 235 255
220 235 255
221 235 255
221 235 255
221 235 255
221 235 255
221 235 255
220 235 255
221 235 255
220 235 255
220 235 255
221 235 255
220 235 255
221 235 255
221 235 255
220 235 255
221 235 255
221 235 255
221 235 255
221 235 255
221 235 255
221 235 255
221 235 255
221 235 255
221 235 255
220 235 255
221 235 255
221 235 255
220 235 255
221 235 255
221 235 255
221 235 255
221 235 255
221 235 255
221 235 255
220 235 255
220 235 255
221 235 255
220 235 255
220 235 255
220 235 255
221 235 255
220 235 255
220 235 255
221 235 255
221 235 255
221 235 255
221 235 255
220 235 255
221 235 255
220 235 255
221 235 255
220 235 255
221 235 255
220 235 255
220 235 255
221 235 255
220 235 255
220 235 255
221 235 255
221 235 255
221 235 255
221 235 255
220 235 255
221 235 255
221 235 255
221 235 255
221 235 255
221 235 255
221 235 255
221 235 255
221 235 255
221 235 255
221 235 255
220 235 255
221 235 255
221 235 255
221 235 255
220 235 255
220 235 255
221 235 255
221 235 255
220 235 255
220 235 255
220 235 255
221 235 255
220 235 255
220 235 255
220 235 255
220 235 255
220 235 255
221 235 255
221 235 255
221 235 255
221 235 255
221 235 255
221 235 255
221 235 255
220 235 255
221 235 255
220 235 255
220 235 255
221 235 255
221 235 255
220 235 255
220 235 255
221 235 255
221 235 255
220 235 255
220 235 255
221 235 255
221 235 255
221 235 255
220 235 255
221 235 255
221 235 255
221 235 255
221 235 255
220 235 255
221 235 255
221 235 255
221 235 255
221 235 255
220 235 255
221 235 255
221 235 255
221 235 255
221 235 255
221 235 255
220 235 255
220 235 255
221 235 255
220 235 255
220 235 255
220 235 255
220 235 255
221 235 255
221 235 255
220 235 255
220 235 255
221 235 255
221 235 255
221 235 255
220 235 255
221 235 255
221 235 255
221 235 255
221 235 255
221 235 255
220 235 255
221 235 255
221 235 255
220 235 255
220 235 255
220 235 255
221 235 255
221 235 255
221 235 255
221 235 255
220 235 255
221 235 255
221 235 255
221 235 255
221 235 255
221 235 255
221 235 255
221 235 255
221 235 255
221 235 255
221 235 255
221 235 255
221 235 255
221 235 255
221 235 255
221 235 255
220 235 255
221 235 255
221 235 255
221 235 255
221 235 255
221 235 255
221 235 255
220 235 255
221 235 255
220 235 255
221 235 255
221 235 255
221 235 255
220 235 255
221 235 255
221 235 255
221 235 255
221 235 255
221 235 255
221 235 255
221 235 255
221 235 255
221 235 255
221 235 255
221 235 255
221 235 255
221 235 255
220 235 255
220 235 255
220 235 255
221 235 255
221 235 255
221 235 255
221 235 255
221 235 255
221 235 255
221 235 255
221 235 255
221 235 255
220 235 255
221 235 255
221 235 255
221 235 255
221 235 255
220 235 255
221 235 255
220 235 255
221 235 255
221 235 255
221 235 255
221 235 255
221 235 255
220 235 255
221 235 255
220 235 255
220 235 255
221 235 255
221 235 255
221 235 255
221 235 255
221 235 255
221 235 255
220 235 255
220 235 255
221 235 255
221 235 255
220 235 255
221 235 255
221 235 255
221 235 255
220 235 255
221 235 255
221 235 255
220 235 255
221 235 255
221 235 255
221 235 255
221 235 255
220 235 255
221 235 255
221 235 255
220 235 255
221 235 255
221 235 255
221 235 255
220 235 255
220 235 255
221 235 255
221 235 255
221 235 255
221 235 255
220 235 255
221 235 255
221 235 255
221 235 255
221 235 255
221 235 255
221 235 255
220 235 255
221 235 255
221 235 255
221 235 255
221 235 255
221 235 255
221 235 255
221 235 255
221 235 255
221 235 255
221 235 255
221 235 255
221 235 255
221 235 255
221 235 255
221 235 255
221 235 255
220 235 255
221 235 255
221 235 255
221 235 255
221 235 255
221 235 255
221 235 255
221 235 255
221 235 255
221 235 255
221 235 255
221 235 255
220 235 255
221 235 255
221 235 255
220 235 255
221 235 255
221 235 255
220 235 255
221 235 255
221 235 255
221 235 255
220 235 255
221 235 255
220 235 255
220 235 255
220 235 255
221 235 255
221 235 255
221 235 255
221 235 255
220 235 255
221 235 255
220 235 255
221 235 255
221 235 255
220 235 255
220 235 255
221 235 255
221 235 255
221 235 255
221 235 255
221 235 255
221 235 255
221 235 255
221 235 255
221 235 255
221 235 255
221 235 255
221 235 255
220 235 255
221 235 255
221 235 255
221 235 255
221 235 255
220 235 255
221 235 255
221 235 255
221 235 255
221 235 255
221 235 255
220 235 255
221 235 255
221 235 255
221 235 255
221 235 255
220 235 255
221 235 255
221 235 255
220 235 255
221 235 255
221 235 255
220 235 255
221 235 255
221 235 255
221 235 255
221 235 255
221 235 255
221 235 255
221 235 255
221 235 255
221 235 255
221 235 255
221 235 255
221 235 255
221 235 255
221 235 255
221 235 255
221 235 255
221 235 255
221 235 255
221 235 255
221 235 255
221 235 255
221 235 255
221 235 255
221 235 255
221 235 255
221 235 255
221 235 255
221 235 255
221 235 255
221 235 255
221 235 255
221 235 255
221 235 255
220 235 255
221 235 255
221 235 255
221 235 255
221 235 255
221 235 255
221 235 255
221 235 255
221 235 255
221 235 255
221 235 255
221 235 255
221 235 255
221 235 255
221 235 255
221 235 255
221 235 255
221 235 255
221 235 255
221 235 255
221 235 255
220 235 255
221 235 255
221 235 255
221 235 255
221 235 255
221 235 255
221 235 255
221 235 255
221 235 255
221 235 255
221 235 255
221 235 255
221 235 255
220 235 255
221 235 255
221 235 255
221 235 255
221 235 255
221 235 255
221 235 255
221 235 255
221 235 255
221 235 255
221 235 255
221 235 255
221 235 255
221 235 255
221 235 255
221 235 255
221 235 255
221 235 255
221 235 255
221 235 255
221 235 255
221 235 255
221 235 255
221 235 255
221 235 255
221 235 255
221 235 255
221 235 255
221 235 255
221 235 255
221 235 255
221 235 255
221 235 255
221 235 255
221 235 255
221 235 255
221 235 255
221 235 255
221 235 255
221 235 255
221 235 255
221 235 255
221 235 255
220 235 255
221 235 255
221 235 255
221 235 255
221 235 255
221 235 255
221 235 255
221 235 255
221 235 255
221 235 255
221 235 255
221 235 255
221 235 255
221 235 255
220 235 255
221 235 255
221 235 255
221 235 255
221 235 255
221 235 255
221 235 255
220 235 255
221 235 255
221 235 255
221 235 255
221 235 255
221 235 255
221 235 255
221 235 255
220 235 255
221 235 255
221 235 255
220 235 255
221 235 255
221 235 255
221 235 255
221 235 255
221 235 255
221 235 255
221 235 255
221 235 255
221 235 255
221 235 255
221 235 255
221 235 255
221 235 255
221 235 255
221 235 255
221 235 255
221 235 255
221 235 255
221 235 255
221 235 255
221 235 255
221 235 255
221 235 255
221 235 255
221 235 255
221 235 255
221 235 255
221 235 255
221 235 255
221 235 255
221 235 255
221 235 255
221 235 255
221 235 255
221 235 255
221 235 255
221 235 255
221 235 255
221 235 255
221 235 255
221 235 255
221 235 255
221 235 255
221 235 255
221 235 255
221 235 255
221 235 255
221 235 255
221 235 255
221 235 255
221 235 255
221 235 255
221 235 255
221 235 255
221 235 255
221 235 255
221 235 255
221 235 255
221 235 255
221 235 255
221 235 255
221 235 255
221 235 255
221 235 255
221 235 255
221 235 255
221 235 255
221 235 255
221 235 255
221 235 255
221 235 255
221 235 255
221 235 255
221 235 255
221 235 255
221 235 255
221 235 255
221 235 255
221 235 255
221 235 255
221 235 255
221 235 255
221 235 255
221 235 255
221 235 255
221 235 255
221 235 255
221 235 255
221 235 255
221 235 255
221 235 255
221 235 255
221 235 255
221 235 255
221 235 255
221 235 255
221 235 255
221 235 255
221 235 255
221 235 255
221 235 255
221 235 255
221 235 255
221 235 255
221 235 255
221 235 255
221 235 255
221 235 255
221 235 255
221 235 255
221 235 255
221 235 255
221 235 255
221 235 255
221 235 255
221 235 255
221 235 255
221 235 255
221 235 255
221 235 255
221 235 255
221 235 255
221 235 255
221 235 255
221 235 255
221 235 255
221 235 255
221 235 255
221 235 255
221 235 255
221 235 255
221 235 255
221 235 255
221 235 255
221 235 255
221 235 255
221 235 255
221 235 255
221 235 255
221 235 255
221 235 255
221 235 255
221 235 255
221 235 255
221 235 255
221 235 255
221 235 255
221 235 255
221 235 255
221 235 255
221 235 255
221 235 255
221 235 255
221 235 255
221 235 255
221 235 255
221 235 255
221 235 255
221 235 255
221 235 255
221 235 255
221 235 255
221 235 255
221 235 255
221 235 255
221 235 255
221 235 255
221 235 255
221 235 255
221 235 255
221 235 255
221 235 255
221 235 255
221 235 255
221 235 255
221 235 255
221 235 255
221 235 255
221 235 255
221 235 255
221 235 255
221 235 255
221 235 255
221 235 255
221 235 255
221 235 255
221 235 255
221 235 255
221 235 255
221 235 255
221 235 255
221 235 255
221 235 255
221 235 255
221 235 255
221 235 255
221 235 255
221 235 255
221 235 255
221 235 255
221 235 255
221 235 255
221 235 255
221 235 255
221 235 255
221 235 255
221 235 255
221 235 255
221 235 255
221 235 255
221 235 255
221 235 255
221 235 255
221 235 255
221 235 255
221 235 255
221 235 255
221 235 255
221 235 255
221 235 255
221 235 255
221 235 255
221 235 255
221 235 255
221 235 255
221 235 255
221 235 255
221 235 255
221 235 255
221 235 255
221 235 255
221 235 255
221 235 255
221 235 255
221 235 255
221 235 255
221 235 255
221 235 255
221 235 255
221 235 255
221 235 255
221 235 255
221 235 255
221 235 255
221 235 255
221 235 255
221 235 255
221 235 255
221 235 255
221 235 255
221 235 255
221 235 255
221 235 255
221 235 255
221 235 255
221 235 255
221 235 255
221 235 255
221 235 255
221 235 255
221 235 255
221 235 255
221 235 255
221 235 255
221 235 255
221 235 255
221 235 255
221 235 255
221 235 255
221 235 255
221 235 255
221 235 255
221 235 255
221 235 255
221 235 255
221 235 255
221 235 255
221 235 255
221 235 255
221 235 255
221 235 255
221 235 255
221 235 255
221 235 255
221 235 255
221 235 255
221 235 255
221 235 255
221 235 255
221 235 255
221 235 255
221 235 255
221 235 255
221 235 255
221 235 255
221 235 255
221 235 255
221 235 255
221 235 255
221 235 255
221 235 255
221 235 255
221 235 255
221 235 255
221 235 255
221 235 255
221 235 255
221 235 255
221 235 255
221 235 255
221 235 255
221 235 255
221 235 255
221 235 255
221 235 255
221 235 255
221 235 255
221 235 255
221 235 255
221 235 255
221 235 255
221 235 255
221 235 255
221 235 255
221 235 255
221 235 255
221 235 255
221 235 255
221 235 255
221 235 255
221 235 255
221 235 255
221 235 255
221 235 255
221 235 255
221 235 255
221 235 255
221 235 255
221 235 255
221 235 255
221 235 255
221 235 255
221 235 255
221 235 255
221 235 255
221 235 255
221 235 255
221 235 255
221 235 255
221 235 255
221 235 255
221 235 255
221 235 255
221 235 255
221 235 255
221 235 255
221 235 255
221 235 255
221 235 255
221 235 255
221 235 255
221 235 255
221 235 255
221 235 255
221 235 255
221 235 255
221 235 255
221 235 255
221 235 255
221 235 255
221 235 255
221 235 255
221 235 255
221 235 255
221 235 255
221 235 255
221 235 255
221 235 255
221 235 255
221 235 255
221 235 255
221 235 255
221 235 255
221 235 255
221 235 255
221 235 255
221 235 255
221 235 255
221 235 255
221 235 255
221 235 255
221 235 255
221 235 255
221 235 255
221 235 255
221 235 255
221 235 255
221 235 255
221 235 255
221 235 255
221 235 255
221 235 255
221 235 255
221 235 255
221 235 255
221 235 255
221 235 255
221 235 255
221 235 255
221 235 255
221 235 255
221 235 255
221 235 255
221 235 255
221 235 255
221 235 255
221 235 255
221 235 255
221 235 255
221 235 255
221 235 255
221 235 255
221 235 255
221 235 255
221 235 255
221 235 255
221 235 255
221 235 255
221 235 255
221 235 255
221 235 255
221 235 255
221 235 255
221 235 255
221 235 255
221 235 255
221 235 255
221 235 255
221 235 255
221 235 255
221 235 255
221 235 255
221 235 255
221 235 255
221 235 255
221 235 255
221 235 255
221 235 255
221 235 255
221 235 255
221 235 255
221 235 255
221 235 255
221 235 255
221 235 255
221 235 255
221 235 255
221 235 255
221 235 255
221 235 255
221 235 255
221 235 255
221 235 255
221 235 255
221 235 255
221 235 255
221 235 255
221 235 255
221 235 255
221 235 255
221 235 255
221 235 255
221 235 255
221 235 255
221 235 255
221 235 255
221 235 255
221 235 255
221 235 255
221 235 255
221 235 255
221 235 255
221 235 255
221 235 255
221 235 255
221 235 255
221 235 255
221 235 255
221 235 255
221 235 255
221 235 255
221 235 255
221 235 255
221 235 255
221 235 255
221 235 255
221 235 255
221 235 255
221 235 255
221 235 255
221 235 255
221 235 255
221 235 255
221 235 255
221 235 255
221 235 255
221 235 255
221 235 255
221 235 255
221 235 255
221 235 255
221 235 255
221 235 255
221 235 255
221 235 255
221 235 255
221 235 255
221 235 255
221 235 255
221 235 255
221 235 255
221 235 255
221 235 255
221 235 255
221 235 255
221 235 255
221 235 255
221 235 255
221 235 255
221 235 255
221 235 255
221 235 255
221 235 255
221 235 255
221 235 255
221 235 255
221 235 255
221 235 255
221 235 255
221 235 255
221 235 255
221 235 255
221 235 255
221 235 255
221 235 255
221 235 255
221 235 255
221 235 255
221 235 255
221 235 255
221 235 255
221 235 255
221 235 255
221 235 255
221 235 255
221 235 255
221 235 255
221 235 255
221 235 255
221 235 255
221 235 255
221 235 255
221 235 255
221 235 255
221 235 255
221 235 255
221 235 255
221 235 255
221 235 255
221 235 255
221 235 255
221 235 255
221 235 255
221 235 255
221 235 255
221 235 255
221 235 255
221 235 255
221 235 255
221 235 255
221 235 255
221 235 255
221 235 255
221 235 255
221 235 255
221 235 255
221 235 255
221 235 255
221 235 255
221 235 255
221 235 255
221 235 255
221 235 255
221 235 255
221 235 255
221 235 255
221 235 255
221 235 255
221 235 255
221 235 255
221 235 255
221 235 255
221 235 255
221 235 255
221 235 255
221 235 255
221 235 255
221 235 255
221 235 255
221 235 255
221 235 255
221 235 255
221 235 255
221 235 255
221 235 255
221 235 255
221 235 255
221 235 255
221 235 255
221 235 255
221 235 255
221 235 255
221 235 255
221 235 255
221 235 255
221 235 255
221 235 255
221 235 255
221 235 255
221 235 255
221 235 255
221 235 255
221 235 255
221 235 255
221 235 255
221 235 255
221 235 255
221 235 255
221 235 255
221 235 255
221 235 255
221 235 255
221 235 255
221 235 255
221 235 255
221 235 255
221 235 255
221 235 255
221 235 255
221 235 255
221 235 255
221 235 255
221 235 255
221 235 255
221 235 255
221 235 255
221 235 255
221 235 255
221 235 255
221 235 255
221 235 255
221 235 255
221 235 255
221 235 255
221 235 255
221 235 255
221 235 255
221 235 255
221 235 255
221 235 255
221 235 255
221 235 255
221 235 255
221 235 255
221 235 255
221 235 255
221 235 255
221 235 255
221 235 255
221 235 255
221 235 255
221 235 255
221 235 255
221 235 255
221 235 255
221 235 255
221 235 255
221 235 255
221 235 255
221 235 255
221 235 255
221 235 255
221 235 255
221 235 255
221 235 255
221 235 255
221 235 255
221 235 255
221 235 255
221 235 255
221 235 255
221 235 255
221 235 255
221 235 255
221 235 255
221 235 255
221 235 255
221 235 255
221 235 255
221 235 255
221 235 255
221 235 255
221 235 255
221 235 255
221 235 255
221 235 255
221 235 255
221 235 255
221 235 255
221 235 255
221 235 255
221 235 255
221 235 255
221 235 255
221 235 255
221 235 255
221 235 255
221 235 255
221 235 255
221 235 255
221 235 255
221 235 255
221 235 255
221 235 255
221 235 255
221 235 255
221 235 255
221 235 255
221 235 255
221 235 255
221 235 255
221 235 255
221 235 255
221 235 255
221 235 255
221 235 255
221 235 255
221 235 255
221 235 255
221 235 255
221 235 255
221 235 255
221 235 255
221 235 255
221 235 255
221 235 255
221 235 255
221 235 255
221 235 255
221 235 255
221 235 255
221 235 255
221 235 255
221 235 255
221 235 255
221 235 255
221 235 255
221 235 255
221 235 255
221 235 255
221 235 255
221 235 255
221 235 255
221 235 255
221 235 255
221 235 255
221 235 255
221 235 255
221 235 255
221 235 255
221 235 255
221 235 255
221 235 255
221 235 255
221 235 255
221 235 255
221 235 255
221 235 255
221 235 255
221 235 255
221 235 255
221 235 255
221 235 255
221 235 255
221 235 255
221 235 255
221 235 255
221 235 255
221 235 255
221 235 255
221 235 255
221 235 255
221 235 255
221 235 255
221 235 255
221 235 255
221 235 255
221 235 255
221 235 255
221 235 255
221 235 255
221 235 255
221 235 255
221 235 255
221 235 255
221 235 255
221 235 255
221 235 255
221 235 255
221 235 255
221 235 255
221 235 255
221 235 255
221 235 255
221 235 255
221 235 255
221 235 255
221 235 255
221 235 255
221 235 255
221 235 255
221 235 255
221 235 255
221 235 255
221 235 255
221 235 255
221 235 255
221 235 255
221 235 255
221 235 255
221 235 255
221 235 255
221 235 255
221 235 255
221 235 255
221 235 255
221 235 255
221 235 255
221 235 255
221 235 255
221 235 255
221 235 255
221 235 255
221 235 255
221 235 255
221 235 255
221 235 255
221 235 255
221 235 255
221 235 255
221 235 255
221 235 255
221 235 255
221 235 255
221 235 255
221 235 255
221 235 255
221 235 255
221 235 255
221 235 255
221 235 255
221 235 255
221 235 255
221 235 255
221 235 255
221 235 255
221 235 255
221 235 255
221 235 255
221 235 255
221 235 255
221 235 255
221 235 255
221 235 255
221 235 255
221 235 255
221 235 255
221 235 255
221 235 255
221 235 255
221 235 255
221 235 255
221 235 255
221 235 255
221 235 255
221 235 255
221 235 255
221 235 255
221 235 255
221 235 255
221 235 255
221 235 255
221 235 255
221 235 255
221 235 255
221 235 255
221 236 255
221 235 255
221 235 255
221 235 255
221 235 255
221 235 255
221 235 255
221 235 255
221 235 255
221 235 255
221 235 255
221 235 255
221 235 255
221 235 255
221 235 255
221 235 255
221 235 255
221 235 255
221 235 255
221 235 255
221 235 255
221 235 255
221 235 255
221 235 255
221 235 255
221 235 255
221 235 255
221 235 255
221 235 255
221 235 255
221 235 255
221 235 255
221 235 255
221 235 255
221 235 255
221 235 255
221 235 255
221 235 255
221 235 255
221 235 255
221 235 255
221 235 255
221 235 255
221 235 255
221 235 255
221 235 255
221 235 255
221 235 255
221 235 255
221 235 255
221 235 255
221 235 255
221 235 255
221 235 255
221 235 255
221 235 255
221 235 255
221 235 255
221 235 255
221 235 255
221 235 255
221 235 255
221 235 255
221 235 255
221 235 255
221 235 255
221 235 255
221 235 255
221 235 255
221 235 255
221 235 255
221 235 255
221 235 255
221 235 255
221 235 255
221 235 255
221 235 255
221 235 255
221 235 255
221 235 255
221 235 255
221 235 255
221 235 255
221 235 255
221 235 255
221 235 255
221 235 255
221 235 255
221 235 255
221 235 255
221 235 255
221 235 255
221 235 255
221 235 255
221 235 255
221 235 255
221 235 255
221 235 255
221 235 255
221 235 255
221 235 255
221 235 255
221 235 255
221 235 255
221 235 255
221 235 255
221 235 255
221 235 255
221 235 255
221 235 255
221 235 255
221 235 255
221 235 255
221 235 255
221 235 255
221 235 255
221 235 255
221 235 255
221 235 255
221 235 255
221 235 255
221 235 255
221 235 255
221 235 255
221 235 255
221 235 255
221 235 255
221 235 255
221 235 255
221 235 255
221 235 255
221 235 255
221 235 255
221 235 255
221 235 255
221 235 255
221 235 255
221 235 255
221 235 255
221 235 255
221 235 255
221 235 255
221 235 255
221 235 255
221 235 255
221 235 255
221 235 255
221 235 255
221 235 255
221 236 255
221 236 255
221 235 255
221 235 255
221 236 255
221 235 255
221 235 255
221 235 255
221 235 255
221 236 255
221 235 255
221 236 255
221 235 255
221 235 255
221 235 255
221 235 255
221 236 255
221 235 255
221 235 255
221 235 255
221 235 255
221 235 255
221 235 255
221 236 255
221 235 255
221 235 255
221 235 255
221 235 255
221 235 255
221 235 255
221 235 255
221 236 255
221 235 255
221 235 255
221 235 255
221 235 255
221 235 255
221 235 255
221 235 255
221 235 255
221 235 255
221 235 255
221 235 255
221 236 255
221 235 255
221 235 255
221 235 255
221 235 255
221 235 255
221 236 255
221 235 255
221 235 255
221 235 255
221 235 255
221 235 255
221 235 255
221 235 255
221 235 255
221 236 255
221 235 255
221 235 255
221 235 255
221 235 255
221 235 255
221 235 255
221 235 255
221 235 255
221 235 255
221 235 255
221 235 255
221 236 255
221 235 255
221 235 255
221 235 255
221 235 255
221 235 255
221 235 255
221 235 255
221 235 255
221 236 255
221 236 255
221 235 255
221 235 255
221 235 255
221 235 255
221 235 255
221 235 255
221 235 255
221 235 255
221 235 255
221 235 255
221 235 255
221 235 255
221 235 255
221 235 255
221 235 255
221 235 255
221 235 255
221 235 255
221 235 255
221 235 255
221 235 255
221 235 255
221 235 255
221 235 255
221 235 255
221 235 255
221 235 255
221 235 255
221 235 255
221 235 255
221 235 255
221 235 255
221 235 255
221 235 255
221 235 255
221 235 255
221 236 255
221 235 255
221 235 255
221 235 255
221 235 255
221 235 255
221 235 255
221 236 255
221 235 255
221 235 255
221 235 255
221 235 255
221 235 255
221 235 255
221 235 255
221 235 255
221 235 255
221 235 255
221 235 255
221 236 255
221 235 255
221 235 255
221 235 255
221 235 255
221 235 255
221 235 255
221 235 255
221 235 255
221 235 255
221 235 255
221 235 255
221 235 255
221 235 255
221 235 255
221 235 255
221 235 255
221 235 255
221 235 255
221 235 255
221 235 255
221 235 255
221 235 255
221 236 255
221 235 255
221 235 255
221 235 255
221 235 255
221 235 255
221 235 255
221 236 255
221 235 255
221 235 255
221 235 255
221 235 255
221 236 255
221 236 255
221 235 255
221 236 255
221 235 255
221 235 255
221 235 255
221 236 255
221 236 255
221 235 255
221 235 255
221 236 255
221 235 255
221 235 255
221 235 255
221 235 255
221 235 255
221 235 255
221 235 255
221 235 255
221 235 255
221 235 255
221 235 255
221 235 255
221 235 255
221 235 255
221 235 255
221 235 255
221 236 255
221 235 255
221 236 255
221 236 255
221 235 255
221 236 255
221 235 255
221 235 255
221 236 255
221 235 255
221 235 255
221 235 255
221 235 255
221 236 255
221 235 255
221 236 255
221 235 255
221 235 255
221 236 255
221 235 255
221 235 255
221 235 255
221 236 255
221 235 255
221 235 255
221 235 255
221 236 255
221 235 255
221 236 255
221 236 255
221 236 255
221 235 255
221 235 255
221 235 255
221 235 255
221 235 255
221 235 255
221 236 255
221 235 255
221 235 255
221 236 255
221 235 255
221 235 255
221 236 255
221 236 255
221 235 255
221 235 255
221 235 255
221 236 255
221 236 255
221 236 255
221 236 255
221 235 255
221 236 255
221 235 255
221 236 255
221 236 255
221 236 255
221 235 255
221 235 255
221 236 255
221 236 255
221 236 255
221 235 255
221 235 255
221 235 255
221 235 255
221 235 255
221 236 255
221 235 255
221 235 255
221 236 255
221 235 255
221 235 255
221 236 255
221 235 255
221 235 255
221 235 255
221 236 255
221 235 255
221 236 255
221 235 255
221 235 255
221 235 255
221 236 255
221 235 255
221 235 255
221 236 255
221 235 255
221 235 255
221 235 255
221 235 255
221 235 255
221 236 255
221 236 255
221 235 255
221 235 255
221 235 255
221 235 255
221 236 255
221 235 255
221 235 255
221 235 255
221 235 255
221 236 255
221 236 255
221 235 255
221 235 255
221 235 255
221 235 255
221 235 255
221 236 255
221 235 255
221 235 255
221 235 255
221 235 255
221 235 255
221 235 255
221 236 255
221 235 255
221 236 255
221 235 255
221 235 255
221 235 255
221 236 255
221 235 255
221 235 255
221 235 255
221 235 255
221 235 255
221 235 255
221 235 255
221 235 255
221 235 255
221 235 255
221 235 255
221 235 255
221 235 255
221 236 255
221 235 255
221 236 255
221 235 255
221 235 255
221 235 255
221 236 255
221 236 255
221 235 255
221 236 255
221 235 255
221 235 255
221 235 255
221 235 255
221 236 255
221 235 255
221 235 255
221 235 255
221 235 255
221 236 255
221 235 255
221 235 255
221 235 255
221 235 255
221 235 255
221 235 255
221 236 255
221 235 255
221 236 255
221 235 255
221 235 255
221 235 255
221 236 255
221 235 255
221 235 255
221 236 255
221 235 255
221 235 255
221 236 255
221 236 255
221 235 255
221 235 255
221 235 255
221 236 255
221 235 255
221 235 255
221 236 255
221 235 255
221 235 255
221 235 255
221 236 255
221 236 255
221 235 255
221 235 255
221 235 255
221 235 255
221 235 255
221 235 255
221 235 255
221 236 255
221 236 255
221 236 255
221 235 255
221 235 255
221 235 255
221 236 255
221 236 255
221 236 255
221 236 255
221 235 255
221 236 255
221 236 255
221 235 255
221 235 255
221 235 255
221 235 255
221 235 255
221 236 255
221 235 255
221 235 255
221 236 255
221 236 255
221 236 255
221 235 255
221 235 255
221 236 255
221 236 255
221 235 255
221 235 255
221 236 255
221 235 255
221 235 255
221 236 255
221 235 255
221 236 255
221 236 255
221 236 255
221 236 255
221 235 255
221 236 255
221 235 255
221 236 255
221 235 255
221 235 255
221 236 255
221 235 255
221 235 255
221 235 255
221 236 255
221 235 255
221 235 255
221 236 255
221 235 255
221 235 255
221 235 255
221 235 255
221 235 255
221 235 255
221 235 255
221 235 255
221 236 255
221 236 255
221 236 255
221 235 255
221 235 255
221 235 255
221 235 255
124 99 80
221 235 255
221 236 255
221 236 255
221 235 255
221 235 255
221 236 255
221 235 255
221 235 255
221 236 255
221 236 255
221 235 255
221 236 255
221 236 255
221 235 255
221 235 255
221 235 255
221 235 255
221 236 255
221 236 255
221 235 255
221 235 255
221 236 255
221 236 255
221 235 255
221 236 255
221 236 255
221 236 255
221 236 255
221 235 255
221 235 255
221 235 255
221 235 255
221 235 255
221 235 255
218 234 255
221 235 255
221 236 255
221 236 255
221 236 255
221 235 255
221 236 255
221 235 255
221 236 255
221 236 255
221 236 255
221 235 255
221 236 255
221 236 255
221 235 255
221 236 255
221 236 255
221 235 255
221 235 255
221 235 255
221 236 255
221 235 255
221 236 255
221 236 255
221 236 255
221 235 255
221 236 255
221 235 255
221 235 255
221 235 255
221 236 255
221 235 255
221 236 255
221 235 255
221 235 255
221 235 255
221 236 255
221 236 255
221 236 255
221 236 255
221 235 255
221 235 255
221 235 255
221 235 255
221 235 255
221 235 255
221 236 255
221 236 255
221 236 255
221 236 255
221 235 255
221 235 255
221 236 255
221 236 255
221 235 255
221 235 255
221 235 255
221 235 255
221 236 255
221 236 255
221 236 255
221 236 255
221 235 255
221 235 255
221 235 255
221 236 255
221 236 255
221 235 255
221 235 255
221 235 255
221 235 255
221 235 255
221 236 255
221 236 255
221 235 255
221 236 255
221 235 255
221 236 255
221 236 255
221 235 255
221 235 255
221 235 255
221 235 255
221 235 255
221 236 255
221 236 255
221 235 255
221 236 255
221 236 255
221 236 255
221 236 255
221 236 255
221 236 255
221 235 255
221 235 255
221 235 255
221 235 255
221 236 255
221 236 255
221 236 255
221 235 255
221 235 255
221 235 255
221 236 255
221 235 255
221 236 255
221 236 255
221 236 255
221 236 255
221 236 255
221 236 255
221 235 255
221 235 255
221 236 255
221 235 255
221 235 255
221 236 255
221 236 255
221 236 255
221 236 255
221 236 255
221 236 255
221 235 255
221 235 255
221 236 255
221 235 255
221 236 255
221 236 255
221 236 255
221 236 255
221 235 255
221 236 255
221 235 255
221 236 255
221 236 255
221 235 255
221 235 255
221 236 255
221 236 255
221 236 255
221 236 255
221 235 255
221 236 255
221 235 255
221 235 255
221 236 255
221 236 255
221 235 255
221 236 255
221 235 255
221 235 255
221 236 255
221 236 255
221 236 255
221 235 255
221 236 255
221 236 255
122 98 80
221 235 255
127 100 80
221 235 255
221 235 255
137 104 80
122 98 80
129 101 80
115 96 80
126 100 80
119 97 80
221 235 255
221 235 255
221 235 255
221 235 255
118 97 80
221 236 255
120 97 80
221 236 255
221 235 255
221 236 255
221 236 255
221 236 255
221 236 255
221 236 255
221 235 255
221 236 255
221 236 255
221 236 255
221 235 255
221 235 255
221 236 255
221 235 255
214 231 255
221 236 255
145 160 181
133 154 181
130 152 181
209 229 255
205 227 255
49 84 84
57 84 56
206 227 255
130 152 181
142 159 181
148 162 181
210 230 255
140 157 181
221 236 255
221 235 255
221 235 255
221 236 255
221 236 255
221 236 255
221 236 255
221 235 255
221 236 255
221 236 255
221 236 255
221 236 255
221 236 255
221 236 255
221 236 255
221 235 255
221 235 255
221 236 255
221 236 255
221 236 255
221 236 255
221 236 255
221 236 255
221 236 255
221 236 255
221 236 255
221 236 255
221 235 255
221 235 255
221 236 255
221 236 255
221 236 255
221 236 255
221 236 255
221 235 255
221 236 255
221 235 255
182 181 181
221 236 255
179 179 181
221 235 255
178 179 181
180 180 181
221 236 255
181 180 181
177 178 181
182 181 181
179 179 181
180 180 181
181 180 181
221 236 255
221 236 255
221 236 255
177 178 181
179 179 181
221 236 255
221 236 255
221 236 255
221 236 255
221 236 255
221 235 255
221 235 255
221 236 255
221 236 255
221 236 255
221 235 255
221 235 255
221 235 255
221 236 255
221 235 255
221 235 255
221 236 255
221 236 255
221 236 255
221 236 255
221 235 255
221 236 255
221 236 255
221 236 255
221 235 255
221 236 255
221 235 255
221 236 255
221 236 255
221 236 255
221 236 255
221 236 255
221 236 255
221 235 255
221 236 255
221 236 255
221 236 255
221 236 255
221 236 255
221 236 255
221 236 255
221 236 255
221 235 255
221 236 255
221 236 255
221 236 255
221 236 255
221 236 255
221 236 255
221 236 255
221 236 255
221 236 255
221 236 255
221 235 255
221 236 255
221 236 255
221 236 255
221 236 255
221 236 255
221 236 255
221 236 255
221 236 255
221 236 255
221 236 255
221 236 255
221 236 255
221 236 255
221 236 255
221 236 255
221 236 255
221 236 255
221 236 255
221 236 255
221 236 255
221 236 255
221 236 255
221 236 255
221 235 255
221 236 255
221 236 255
221 236 255
221 236 255
221 236 255
221 236 255
221 236 255
221 236 255
221 236 255
221 236 255
221 236 255
221 236 255
221 236 255
221 236 255
221 236 255
221 236 255
221 236 255
221 236 255
122 98 80
221 236 255
116 96 80
87 46 25
221 235 255
118 97 80
115 96 80
138 104 80
130 101 80
135 103 80
117 97 80
130 101 80
128 100 80
137 104 80
120 97 80
32 9 2
135 103 80
221 236 255
114 95 80
116 96 80
221 236 255
221 236 255
115 96 80
221 236 255
221 236 255
221 236 255
221 236 255
221 236 255
221 235 255
169 90 167
210 229 255
147 161 181
205 227 255
135 155 181
208 228 255
129 151 181
200 224 255
0 0 0
134 154 181
136 155 181
151 163 181
208 228 255
141 158 181
183 215 255
128 151 181
204 226 255
141 158 181
206 227 255
152 164 181
144 160 181
149 162 181
221 235 255
215 232 255
221 236 255
221 236 255
221 236 255
221 236 255
221 236 255
221 236 255
221 236 255
221 236 255
221 236 255
221 236 255
221 236 255
221 236 255
221 236 255
221 236 255
221 236 255
221 236 255
221 236 255
221 236 255
221 236 255
221 236 255
221 236 255
221 236 255
221 235 255
221 236 255
221 236 255
221 236 255
221 235 255
221 236 255
221 236 255
184 182 181
181 180 181
182 181 181
177 178 181
176 178 181
177 178 181
171 175 181
176 177 181
170 175 181
172 176 181
174 176 181
170 175 181
172 176 181
170 175 181
171 175 181
172 176 181
170 175 181
171 175 181
172 176 181
171 175 181
173 176 181
174 177 181
175 177 181
175 177 181
176 178 181
178 179 181
180 180 181
221 236 255
221 236 255
221 236 255
221 236 255
221 236 255
221 236 255
221 236 255
221 235 255
221 236 255
221 235 255
221 236 255
221 236 255
221 236 255
221 235 255
221 236 255
221 236 255
221 236 255
221 236 255
221 235 255
221 236 255
221 236 255
221 236 255
221 236 255
221 236 255
221 236 255
221 236 255
221 236 255
221 236 255
221 236 255
221 235 255
221 236 255
221 236 255
221 236 255
221 236 255
221 236 255
221 236 255
221 236 255
221 236 255
221 236 255
221 236 255
221 235 255
221 236 255
221 236 255
221 236 255
221 236 255
221 236 255
221 236 255
221 236 255
222 236 255
221 236 255
221 236 255
221 236 255
221 236 255
221 236 255
221 236 255
222 236 255
221 236 255
221 236 255
222 236 255
221 236 255
221 236 255
221 236 255
221 236 255
221 236 255
222 236 255
221 236 255
221 236 255
221 236 255
221 236 255
221 236 255
221 236 255
221 236 255
222 236 255
221 236 255
221 236 255
221 236 255
221 236 255
221 236 255
221 236 255
221 236 255
221 236 255
221 236 255
222 236 255
221 236 255
221 236 255
222 236 255
221 236 255
119 97 80
221 236 255
125 99 80
221 236 255
130 101 80
133 102 80
135 103 80
119 97 80
121 98 80
114 95 80
128 101 80
117 96 80
120 97 80
118 97 80
117 96 80
115 96 80
118 97 80
123 99 80
128 101 80
126 100 80
127 100 80
137 104 80
114 95 80
130 101 80
118 97 80
135 103 80
221 236 255
121 98 80
117 96 80
221 236 255
69 119 119
150 163 181
215 232 255
220 235 255
138 156 181
135 155 181
197 222 255
198 223 255
128 151 181
196 222 255
101 112 127
130 152 181
154 165 181
130 152 181
129 152 181
146 161 181
194 221 255
121 120 141
132 153 181
131 153 181
84 68 57
145 160 181
202 225 255
147 161 181
146 161 181
129 152 181
139 157 181
206 227 255
214 232 255
221 236 255
221 236 255
221 236 255
221 236 255
221 236 255
221 236 255
221 236 255
221 236 255
221 236 255
221 236 255
221 236 255
221 236 255
221 236 255
221 236 255
221 236 255
221 236 255
221 236 255
221 236 255
221 236 255
221 236 255
221 236 255
221 236 255
180 180 181
181 180 181
175 177 181
181 180 181
172 176 181
175 177 181
173 176 181
171 175 181
172 176 181
171 175 181
171 175 181
170 175 181
168 174 181
167 173 181
167 173 181
166 173 181
170 175 181
166 173 181
169 174 181
167 173 181
169 174 181
169 174 181
170 174 181
168 174 181
169 174 181
169 174 181
168 174 181
169 174 181
173 176 181
170 175 181
175 177 181
175 177 181
175 177 181
176 178 181
177 178 181
221 236 255
221 236 255
221 236 255
221 236 255
221 236 255
221 236 255
222 236 255
221 236 255
221 236 255
221 236 255
221 236 255
221 236 255
221 236 255
221 236 255
221 236 255
221 236 255
221 236 255
221 236 255
221 236 255
222 236 255
221 236 255
221 236 255
221 236 255
221 236 255
221 236 255
221 236 255
221 236 255
221 236 255
221 236 255
221 236 255
221 236 255
221 236 255
222 236 255
221 236 255
221 236 255
221 236 255
222 236 255
221 236 255
221 236 255
221 236 255
221 236 255
221 236 255
221 236 255
221 236 255
221 236 255
221 236 255
221 236 255
222 236 255
221 236 255
221 236 255
221 236 255
221 236 255
221 236 255
221 236 255
221 236 255
221 236 255
222 236 255
221 236 255
221 236 255
221 236 255
221 236 255
221 236 255
221 236 255
221 236 255
221 236 255
221 236 255
221 236 255
222 236 255
221 236 255
221 236 255
221 236 255
222 236 255
221 236 255
221 236 255
221 236 255
221 236 255
222 236 255
221 236 255
221 236 255
222 236 255
221 236 255
221 236 255
221 236 255
119 97 80
0 0 0
140 105 80
115 96 80
129 101 80
139 105 80
133 103 80
138 105 80
131 102 80
0 0 0
117 96 80
131 101 80
122 98 80
121 98 80
130 101 80
115 96 80
126 100 80
132 102 80
136 104 80
128 100 80
131 102 80
122 98 80
138 104 80
135 103 80
116 96 80
120 97 80
82 68 57
125 99 80
221 236 255
221 236 255
37 45 44
128 151 181
131 153 181
133 154 181
48 83 84
120 119 141
199 223 255
143 159 181
148 162 181
136 155 181
131 153 181
193 220 255
194 221 255
128 151 181
191 219 255
194 221 255
58 84 56
139 157 181
196 222 255
191 219 255
94 109 127
137 156 181
124 141 74
138 157 181
121 120 141
139 157 181
144 160 181
128 151 181
138 156 181
55 18 74
149 162 181
138 156 181
221 236 255
222 236 255
153 165 181
221 236 255
222 236 255
221 236 255
221 236 255
221 236 255
221 236 255
221 236 255
222 236 255
221 236 255
221 236 255
221 236 255
222 236 255
222 236 255
221 236 255
221 236 255
222 236 255
180 180 181
176 178 181
174 177 181
175 177 181
170 175 181
172 176 181
170 175 181
168 174 181
169 174 181
167 173 181
166 173 181
167 173 181
165 172 181
166 173 181
166 173 181
165 172 181
165 172 181
164 172 181
164 172 181
164 172 181
163 171 181
166 173 181
164 172 181
165 172 181
166 173 181
166 173 181
166 173 181
166 173 181
167 173 181
167 173 181
166 173 181
168 174 181
167 173 181
170 175 181
170 175 181
171 175 181
173 176 181
175 177 181
221 236 255
177 178 181
221 236 255
221 236 255
221 236 255
222 236 255
221 236 255
222 236 255
221 236 255
222 236 255
221 236 255
221 236 255
221 236 255
221 236 255
221 236 255
222 236 255
221 236 255
221 236 255
221 236 255
221 236 255
221 236 255
222 236 255
222 236 255
222 236 255
221 236 255
221 236 255
221 236 255
221 236 255
222 236 255
221 236 255
221 236 255
222 236 255
222 236 255
222 236 255
221 236 255
221 236 255
222 236 255
222 236 255
222 236 255
222 236 255
222 236 255
222 236 255
221 236 255
222 236 255
222 236 255
221 236 255
222 236 255
221 236 255
222 236 255
221 236 255
221 236 255
221 236 255
222 236 255
222 236 255
222 236 255
222 236 255
221 236 255
221 236 255
221 236 255
222 236 255
221 236 255
222 236 255
221 236 255
222 236 255
222 236 255
222 236 255
222 236 255
222 236 255
221 236 255
221 236 255
222 236 255
222 236 255
221 236 255
222 236 255
221 236 255
222 236 255
221 236 255
221 236 255
221 236 255
221 236 255
128 100 80
124 99 80
128 101 80
115 96 80
131 102 80
117 96 80
122 98 80
126 100 80
57 75 68
127 100 80
115 96 80
81 67 57
127 100 80
117 96 80
121 98 80
115 96 80
117 96 80
134 103 80
123 99 80
122 98 80
134 103 80
136 104 80
127 100 80
127 100 80
120 97 80
120 98 80
125 99 80
126 100 80
127 100 80
130 152 181
153 165 181
132 153 181
141 158 181
137 156 181
138 156 181
132 153 181
153 164 181
151 164 181
137 156 181
139 157 181
148 162 181
152 164 181
132 153 181
128 151 181
147 161 181
151 163 181
135 155 181
152 164 181
129 152 181
188 217 255
133 154 181
134 154 181
133 154 181
137 156 181
135 155 181
147 161 181
132 153 181
130 152 181
199 223 255
70 99 121
136 155 181
136 156 181
209 228 255
206 227 255
133 154 181
208 228 255
222 236 255
217 233 255
221 236 255
221 236 255
222 236 255
221 236 255
222 236 255
222 236 255
221 236 255
221 236 255
222 236 255
221 236 255
181 180 181
180 180 181
176 178 181
174 176 181
174 177 181
170 175 181
169 174 181
169 174 181
167 173 181
167 173 181
167 173 181
166 173 181
164 172 181
166 173 181
165 172 181
164 172 181
164 172 181
164 172 181
163 171 181
163 171 181
163 171 181
162 171 181
162 171 181
162 171 181
161 170 181
162 171 181
163 171 181
163 171 181
162 171 181
163 171 181
164 172 181
164 172 181
163 171 181
165 172 181
166 173 181
165 172 181
166 173 181
167 173 181
167 173 181
169 174 181
169 174 181
169 174 181
173 176 181
175 177 181
174 176 181
175 177 181
182 181 181
181 180 181
222 236 255
222 236 255
221 236 255
221 236 255
222 236 255
222 236 255
221 236 255
221 236 255
222 236 255
221 236 255
221 236 255
221 236 255
221 236 255
221 236 255
221 236 255
222 236 255
222 236 255
221 236 255
222 236 255
221 236 255
221 236 255
222 236 255
221 236 255
222 236 255
222 236 255
222 236 255
222 236 255
221 236 255
221 236 255
222 236 255
221 236 255
222 236 255
222 236 255
222 236 255
221 236 255
221 236 255
222 236 255
222 236 255
222 236 255
221 236 255
222 236 255
222 236 255
222 236 255
222 236 255
222 236 255
222 236 255
222 236 255
222 236 255
222 236 255
221 236 255
222 236 255
222 236 255
222 236 255
221 236 255
221 236 255
222 236 255
221 236 255
222 236 255
221 236 255
221 236 255
222 236 255
222 236 255
222 236 255
221 236 255
221 236 255
222 236 255
222 236 255
222 236 255
221 236 255
222 236 255
222 236 255
222 236 255
118 97 80
221 236 255
120 98 80
124 99 80
139 105 80
117 96 80
86 69 57
134 103 80
117 97 80
139 105 80
130 101 80
120 97 80
125 100 80
125 99 80
83 68 57
139 105 80
130 101 80
0 0 0
116 96 80
119 97 80
124 99 80
65 41 79
123 99 80
129 101 80
132 102 80
118 97 80
134 103 80
130 101 80
219 234 255
138 156 181
145 160 181
128 151 181
201 225 255
129 152 181
198 223 255
94 109 127
42 150 143
64 37 21
54 131 139
70 84 33
129 152 181
148 162 181
143 159 181
103 114 127
137 156 181
129 152 181
131 153 181
94 79 14
132 153 181
89 70 57
129 152 181
130 152 181
129 152 181
128 151 181
133 154 181
146 161 181
190 219 255
139 157 181
131 153 181
136 156 181
42 56 68
147 161 181
135 155 181
136 156 181
129 152 181
79 87 123
140 157 181
133 154 181
132 153 181
221 236 255
131 153 181
222 236 255
222 236 255
222 236 255
222 236 255
222 236 255
222 236 255
222 236 255
222 236 255
178 179 181
174 177 181
172 176 181
171 175 181
170 175 181
168 174 181
168 173 181
169 174 181
167 173 181
165 172 181
165 172 181
164 172 181
163 171 181
163 171 181
163 171 181
163 171 181
161 170 181
161 170 181
160 170 181
160 170 181
161 170 181
160 170 181
161 170 181
160 170 181
161 170 181
160 170 181
159 169 181
161 170 181
161 170 181
160 170 181
160 170 181
161 170 181
162 171 181
162 170 181
163 171 181
162 171 181
163 171 181
165 172 181
163 171 181
165 172 181
166 173 181
167 173 181
169 174 181
170 175 181
170 175 181
171 175 181
175 177 181
173 176 181
181 180 181
182 181 181
222 236 255
221 236 255
221 236 255
221 236 255
222 236 255
221 236 255
222 236 255
222 236 255
222 236 255
222 236 255
222 236 255
221 236 255
222 236 255
222 236 255
221 236 255
221 236 255
221 236 255
221 236 255
222 236 255
222 236 255
221 236 255
222 236 255
222 236 255
222 236 255
222 236 255
221 236 255
222 236 255
222 236 255
222 236 255
221 236 255
222 236 255
222 236 255
222 236 255
222 236 255
222 236 255
221 236 255
222 236 255
222 236 255
222 236 255
222 236 255
222 236 255
222 236 255
222 236 255
222 236 255
222 236 255
222 236 255
222 236 255
222 236 255
222 236 255
222 236 255
222 236 255
222 236 255
221 236 255
222 236 255
222 236 255
222 236 255
222 236 255
222 236 255
222 236 255
222 236 255
222 236 255
222 236 255
222 236 255
222 236 255
221 236 255
222 236 255
222 236 255
222 236 255
222 236 255
221 236 255
222 236 255
221 236 255
114 95 80
137 104 80
120 97 80
122 98 80
124 99 80
137 104 80
119 97 80
114 95 80
135 103 80
118 97 80
139 105 80
134 103 80
134 103 80
131 102 80
118 97 80
136 104 80
122 98 80
130 101 80
128 101 80
121 98 80
120 97 80
3 0 0
131 102 80
122 98 80
123 99 80
132 153 181
215 232 255
139 157 181
142 159 181
201 224 255
131 153 181
149 163 181
43 52 37
218 234 255
132 153 181
111 115 141
147 161 181
129 152 181
137 156 181
150 163 181
43 41 55
133 154 181
128 151 181
130 152 181
133 154 181
133 154 181
135 155 181
130 152 181
135 155 181
131 153 181
139 157 181
5 37 27
134 154 181
144 160 181
128 151 181
144 159 181
135 155 181
190 219 255
129 152 181
0 0 0
132 153 181
194 221 255
37 63 81
195 221 255
129 152 181
128 151 181
133 154 181
131 153 181
221 236 255
143 159 181
0 0 0
222 236 255
222 236 255
222 236 255
222 236 255
182 181 181
175 177 181
173 176 181
175 177 181
172 176 181
169 174 181
169 174 181
167 173 181
167 173 181
164 172 181
164 172 181
164 172 181
163 171 181
163 171 181
162 171 181
161 170 181
161 170 181
161 170 181
160 170 181
159 169 181
160 170 181
159 169 181
159 169 181
159 169 181
158 169 181
158 169 181
158 169 181
158 169 181
158 169 181
158 169 181
158 169 181
159 169 181
159 169 181
160 169 181
160 170 181
160 170 181
160 170 181
160 170 181
161 170 181
161 170 181
163 171 181
163 171 181
164 171 181
164 172 181
165 172 181
165 172 181
167 173 181
167 173 181
169 174 181
171 175 181
172 176 181
174 177 181
174 177 181
180 180 181
181 180 181
222 236 255
222 236 255
222 236 255
222 236 255
222 236 255
222 236 255
222 236 255
222 236 255
222 236 255
222 236 255
222 236 255
221 236 255
222 236 255
222 236 255
221 236 255
222 236 255
222 236 255
221 236 255
222 236 255
222 236 255
222 236 255
222 236 255
222 236 255
222 236 255
222 236 255
222 236 255
222 236 255
222 236 255
222 236 255
222 236 255
222 236 255
222 236 255
222 236 255
222 236 255
222 236 255
222 236 255
222 236 255
222 236 255
222 236 255
222 236 255
222 236 255
222 236 255
222 236 255
222 236 255
222 236 255
222 236 255
222 236 255
222 236 255
222 236 255
222 236 255
222 236 255
222 236 255
222 236 255
222 236 255
222 236 255
222 236 255
222 236 255
222 236 255
222 236 255
222 236 255
222 236 255
222 236 255
222 236 255
222 236 255
222 236 255
222 236 255
126 100 80
124 99 80
222 236 255
134 103 80
136 104 80
120 98 80
118 97 80
123 99 80
137 104 80
120 97 80
136 104 80
128 100 80
130 101 80
117 96 80
127 100 80
140 105 80
114 95 80
136 104 80
137 104 80
133 102 80
0 0 0
135 103 80
126 100 80
125 99 80
125 99 80
139 105 80
80 30 45
121 120 141
133 154 181
206 227 255
132 153 181
0 0 0
140 158 181
149 163 181
139 157 181
149 163 181
148 162 181
194 221 255
191 219 255
136 156 181
143 159 181
134 155 181
132 153 181
131 153 181
131 153 181
136 155 181
94 51 109
132 153 181
137 156 181
184 215 255
134 154 181
67 51 40
129 152 181
146 161 181
135 155 181
133 154 181
131 153 181
25 17 26
132 153 181
142 158 181
128 151 181
189 218 255
145 160 181
134 154 181
91 129 82
131 153 181
146 161 181
130 152 181
147 161 181
128 151 181
199 224 255
43 20 32
108 145 172
0 0 0
133 154 181
213 231 255
214 231 255
222 236 255
177 178 181
175 177 181
174 177 181
171 175 181
171 175 181
168 173 181
168 174 181
166 173 181
166 173 181
164 172 181
164 172 181
162 171 181
163 171 181
161 170 181
161 170 181
161 170 181
159 169 181
160 170 181
159 169 181
159 169 181
158 169 181
159 169 181
157 168 181
157 168 181
158 169 181
157 168 181
157 168 181
157 168 181
158 169 181
156 168 181
157 168 181
157 168 181
158 169 181
158 169 181
158 169 181
158 169 181
158 169 181
159 169 181
159 169 181
160 170 181
160 170 181
160 170 181
160 170 181
161 170 181
162 171 181
163 171 181
164 171 181
164 172 181
164 172 181
167 173 181
166 173 181
169 174 181
170 175 181
173 176 181
175 177 181
174 177 181
177 178 181
222 236 255
222 236 255
222 236 255
222 236 255
222 236 255
222 236 255
222 236 255
222 236 255
222 236 255
222 236 255
222 236 255
222 236 255
222 236 255
222 236 255
222 236 255
222 236 255
222 236 255
222 236 255
222 236 255
222 236 255
222 236 255
222 236 255
222 236 255
222 236 255
222 236 255
222 236 255
222 236 255
222 236 255
222 236 255
222 236 255
222 236 255
222 236 255
222 236 255
222 236 255
222 236 255
222 236 255
222 236 255
222 236 255
222 236 255
222 236 255
222 236 255
222 236 255
222 236 255
222 236 255
222 236 255
222 236 255
222 236 255
222 236 255
222 236 255
222 236 255
222 236 255
222 236 255
222 236 255
222 236 255
222 236 255
222 236 255
222 236 255
222 236 255
222 236 255
222 236 255
222 236 255
222 236 255
222 236 255
222 236 255
222 236 255
125 99 80
129 101 80
120 98 80
123 99 80
124 99 80
37 13 31
114 95 80
116 96 80
121 98 80
121 98 80
15 42 70
41 54 48
129 101 80
121 98 80
85 69 57
117 96 80
139 105 80
131 102 80
120 97 80
135 103 80
136 104 80
128 101 80
126 100 80
116 96 80
41 29 20
130 101 80
87 70 57
131 153 181
207 228 255
143 159 181
129 152 181
82 83 100
79 81 100
196 222 255
131 153 181
145 160 181
134 154 181
135 155 181
148 162 181
133 154 181
130 152 181
134 154 181
130 152 181
137 156 181
146 161 181
137 156 181
143 159 181
131 153 181
129 152 181
133 154 181
131 153 181
131 153 181
129 152 181
77 81 100
108 114 141
133 154 181
145 160 181
133 154 181
31 30 62
37 109 98
129 152 181
133 154 181
138 157 181
134 154 181
54 33 81
88 50 109
143 159 181
193 220 255
146 146 126
131 153 181
196 222 255
133 154 181
135 155 181
149 162 181
129 152 181
183 181 181
177 178 181
181 180 181
173 176 181
171 175 181
171 175 181
168 174 181
168 174 181
166 172 181
165 172 181
164 172 181
163 171 181
163 171 181
162 171 181
161 170 181
161 170 181
160 170 181
159 169 181
159 169 181
158 169 181
158 169 181
157 168 181
158 169 181
157 168 181
156 168 181
157 168 181
156 168 181
157 168 181
156 168 181
157 168 181
156 168 181
156 168 181
156 168 181
156 168 181
155 168 181
157 168 181
156 168 181
156 168 181
157 168 181
157 168 181
157 168 181
158 169 181
158 169 181
158 169 181
158 169 181
160 170 181
160 170 181
160 170 181
161 170 181
162 171 181
162 171 181
165 172 181
163 171 181
166 173 181
166 173 181
168 174 181
168 174 181
169 174 181
170 175 181
172 175 181
173 176 181
175 177 181
182 181 181
222 236 255
222 236 255
222 236 255
222 236 255
222 236 255
222 236 255
222 236 255
222 236 255
222 236 255
222 236 255
222 236 255
222 236 255
222 236 255
222 236 255
222 236 255
222 236 255
222 236 255
222 236 255
222 236 255
222 236 255
222 236 255
222 236 255
222 236 255
222 236 255
222 236 255
222 236 255
222 236 255
222 236 255
222 236 255
222 236 255
222 236 255
222 236 255
222 236 255
222 236 255
222 236 255
222 236 255
222 236 255
222 236 255
222 236 255
222 236 255
222 236 255
222 236 255
222 236 255
222 236 255
222 236 255
222 236 255
222 236 255
222 236 255
222 236 255
222 236 255
222 236 255
222 236 255
222 236 255
222 236 255
222 236 255
222 236 255
222 236 255
222 236 255
222 236 255
222 236 255
222 236 255
137 104 80
120 97 80
121 98 80
124 99 80
46 40 11
123 99 80
122 98 80
132 102 80
121 98 80
124 99 80
119 97 80
130 101 80
83 68 57
131 102 80
126 100 80
123 99 80
117 96 80
116 96 80
120 97 80
122 98 80
123 99 80
130 101 80
117 96 80
119 97 80
141 105 80
127 100 80
135 155 181
213 231 255
139 157 181
207 228 255
73 79 100
146 161 181
128 151 181
194 220 255
82 83 100
133 154 181
137 156 181
190 219 255
130 152 181
143 159 181
186 217 255
152 164 181
142 159 181
62 49 40
132 153 181
141 158 181
131 153 181
129 152 181
131 152 181
129 152 181
27 13 47
130 152 181
136 156 181
135 155 181
131 153 181
144 160 181
2 1 8
12 11 34
142 158 181
137 156 181
142 159 181
130 152 181
5 38 27
38 40 79
134 154 181
130 152 181
128 151 181
38 40 79
130 152 181
191 219 255
145 160 181
129 152 181
68 97 121
60 48 40
198 223 255
178 178 181
176 178 181
174 177 181
172 176 181
171 175 181
169 174 181
168 174 181
166 173 181
165 172 181
164 172 181
163 171 181
162 171 181
161 170 181
160 170 181
161 170 181
160 170 181
159 169 181
159 169 181
159 169 181
158 169 181
157 168 181
157 168 181
156 168 181
156 168 181
156 168 181
156 168 181
155 167 181
155 167 181
154 167 181
155 167 181
155 167 181
155 167 181
155 167 181
154 167 181
155 167 181
154 167 181
155 167 181
155 167 181
155 167 181
156 168 181
156 168 181
157 168 181
156 168 181
156 168 181
157 168 181
157 168 181
158 169 181
159 169 181
159 169 181
159 169 181
161 170 181
161 170 181
161 170 181
162 171 181
165 172 181
163 171 181
164 172 181
166 172 181
168 173 181
171 175 181
170 175 181
172 175 181
176 178 181
179 179 181
182 181 181
222 236 255
222 236 255
222 236 255
222 236 255
222 236 255
222 236 255
222 236 255
222 236 255
222 236 255
222 236 255
222 236 255
222 236 255
222 236 255
222 236 255
222 236 255
222 236 255
222 236 255
222 236 255
222 236 255
222 236 255
222 236 255
222 236 255
222 236 255
222 236 255
222 236 255
222 236 255
222 236 255
222 236 255
222 236 255
222 236 255
222 236 255
222 236 255
222 236 255
222 236 255
222 236 255
222 236 255
222 236 255
222 236 255
222 236 255
222 236 255
222 236 255
222 236 255
222 236 255
222 236 255
222 236 255
222 236 255
222 236 255
222 236 255
222 236 255
222 236 255
222 236 255
222 236 255
222 236 255
222 236 255
222 236 255
222 236 255
222 236 255
222 236 255
222 236 255
222 236 255
133 102 80
137 104 80
86 69 57
124 99 80
126 100 80
83 68 57
117 97 80
126 100 80
117 96 80
128 101 80
132 102 80
123 99 80
121 98 80
127 100 80
119 97 80
122 98 80
135 103 80
122 98 80
115 96 80
118 97 80
118 97 80
132 102 80
134 103 80
81 68 57
28 15 34
122 98 80
138 157 181
147 161 181
156 166 181
75 80 100
149 162 181
129 152 181
126 123 141
18 13 17
131 153 181
131 153 181
131 153 181
139 157 181
133 154 181
149 162 181
59 48 40
137 156 181
57 48 40
147 161 181
183 215 255
128 151 181
131 153 181
132 153 181
55 57 112
130 152 181
130 152 181
131 153 181
133 154 181
93 72 57
60 49 40
90 71 57
38 40 79
148 162 181
134 154 181
130 152 181
135 155 181
43 31 73
132 153 181
0 0 0
12 11 34
132 153 181
65 45 103
133 154 181
141 158 181
148 162 181
31 59 81
192 220 255
147 161 181
179 179 181
178 179 181
175 177 181
173 176 181
171 175 181
168 174 181
167 173 181
167 173 181
166 173 181
165 172 181
163 171 181
163 171 181
162 171 181
161 170 181
161 170 181
160 170 181
160 169 181
159 169 181
158 169 181
157 168 181
157 168 181
156 168 181
156 168 181
156 168 181
156 168 181
155 167 181
155 167 181
154 167 181
155 167 181
154 167 181
154 167 181
154 167 181
154 167 181
154 167 181
154 167 181
154 167 181
154 167 181
154 167 181
154 167 181
154 167 181
154 167 181
155 167 181
155 167 181
155 167 181
156 168 181
156 168 181
157 168 181
157 168 181
157 168 181
157 169 181
158 169 181
159 169 181
159 169 181
160 170 181
160 170 181
162 171 181
163 171 181
163 171 181
164 172 181
165 172 181
166 172 181
168 173 181
168 174 181
171 175 181
171 175 181
175 177 181
173 176 181
179 179 181
184 182 181
222 236 255
222 236 255
222 236 255
222 236 255
222 236 255
222 236 255
222 236 255
222 236 255
222 236 255
222 236 255
222 236 255
222 236 255
222 236 255
222 236 255
222 236 255
222 236 255
222 236 255
222 236 255
222 236 255
222 236 255
222 236 255
222 236 255
222 236 255
222 236 255
222 236 255
222 236 255
222 236 255
222 236 255
222 236 255
222 236 255
222 236 255
222 236 255
222 236 255
222 236 255
222 236 255
222 236 255
222 236 255
222 236 255
222 236 255
222 236 255
222 236 255
222 236 255
222 236 255
222 236 255
222 236 255
222 236 255
222 236 255
222 236 255
222 236 255
222 236 255
222 236 255
222 236 255
222 236 255
222 236 255
222 236 255
222 236 255
222 236 255
131 102 80
116 96 80
122 98 80
138 104 80
118 97 80
117 96 80
82 68 57
129 101 80
83 68 57
119 97 80
117 96 80
77 97 25
118 97 80
77 55 40
116 96 80
134 103 80
120 97 80
84 68 57
135 103 80
133 103 80
82 68 57
125 99 80
139 105 80
129 101 80
138 104 80
218 234 255
139 157 181
204 226 255
39 62 66
21 11 0
126 123 141
148 162 181
140 158 181
150 163 181
72 118 119
130 152 181
37 15 46
135 155 181
58 48 40
141 158 181
144 160 181
133 154 181
144 160 181
137 156 181
143 159 181
132 153 181
182 215 255
137 156 181
131 153 181
132 153 181
147 161 181
40 41 79
152 164 181
181 214 255
142 158 181
131 153 181
132 153 181
11 10 34
9 49 15
39 41 79
0 0 2
135 155 181
140 157 181
8 23 26
42 42 79
45 31 73
59 60 112
86 27 57
49 12 51
40 0 8
21 26 53
132 53 137
131 153 181
183 181 181
178 179 181
177 178 181
173 176 181
170 175 181
168 174 181
166 173 181
167 173 181
165 172 181
165 172 181
163 171 181
163 171 181
162 171 181
160 170 181
160 170 181
159 169 181
159 169 181
158 169 181
158 169 181
158 169 181
156 168 181
156 168 181
156 168 181
155 167 181
155 167 181
155 167 181
154 167 181
154 167 181
154 167 181
154 167 181
153 166 181
153 167 181
153 166 181
153 166 181
153 166 181
153 166 181
153 166 181
153 166 181
153 166 181
154 167 181
153 166 181
154 167 181
154 167 181
154 167 181
154 167 181
155 167 181
154 167 181
156 168 181
155 167 181
157 168 181
157 168 181
158 169 181
158 169 181
158 169 181
159 169 181
159 169 181
160 170 181
160 170 181
161 170 181
161 170 181
163 171 181
164 172 181
164 172 181
167 173 181
167 173 181
169 174 181
170 175 181
174 177 181
175 177 181
178 179 181
179 179 181
222 236 255
222 236 255
222 236 255
222 236 255
222 236 255
222 236 255
222 236 255
222 236 255
222 236 255
222 236 255
222 236 255
222 236 255
222 236 255
222 236 255
222 236 255
222 236 255
222 236 255
222 236 255
222 236 255
222 236 255
222 236 255
222 236 255
222 236 255
222 236 255
222 236 255
222 236 255
222 236 255
222 236 255
222 236 255
222 236 255
222 236 255
222 236 255
222 236 255
222 236 255
222 236 255
222 236 255
222 236 255
222 236 255
222 236 255
222 236 255
222 236 255
222 236 255
222 236 255
222 236 255
222 236 255
222 236 255
222 236 255
222 236 255
222 236 255
222 236 255
222 236 255
222 236 255
222 236 255
119 97 80
222 236 255
128 100 80
81 67 57
0 0 0
132 102 80
115 96 80
115 96 80
116 96 80
120 97 80
124 99 80
125 99 80
120 97 80
125 99 80
118 97 80
119 97 80
0 0 0
122 98 80
87 70 57
127 100 80
89 70 57
131 102 80
51 27 36
117 97 80
133 103 80
130 101 80
115 96 80
143 159 181
130 152 181
149 162 181
142 158 181
163 166 200
167 168 200
199 223 255
81 82 100
131 153 181
193 220 255
53 37 31
136 155 181
98 74 57
134 154 181
143 159 181
50 34 36
140 158 181
129 151 181
136 155 181
46 80 98
132 153 181
151 164 181
42 34 28
139 157 181
131 153 181
150 163 181
142 159 181
133 154 181
133 154 181
132 153 181
15 5 4
38 59 33
136 155 181
56 58 112
131 153 181
40 41 79
132 153 181
55 57 112
55 58 112
59 60 112
61 60 112
56 58 112
71 17 65
186 216 255
143 159 181
141 158 181
101 141 172
1 0 2
177 178 181
176 178 181
176 178 181
174 177 181
169 174 181
170 175 181
167 173 181
166 173 181
165 172 181
163 171 181
163 171 181
162 171 181
161 170 181
160 170 181
160 170 181
160 170 181
158 169 181
158 169 181
157 168 181
156 168 181
156 168 181
156 168 181
155 167 181
155 167 181
154 167 181
154 167 181
154 167 181
153 167 181
153 166 181
154 167 181
153 166 181
153 166 181
153 166 181
152 166 181
153 166 181
153 166 181
153 166 181
152 166 181
153 166 181
153 166 181
153 166 181
153 166 181
153 167 181
153 166 181
154 167 181
154 167 181
154 167 181
155 167 181
155 167 181
155 167 181
155 167 181
156 168 181
156 168 181
156 168 181
157 168 181
158 169 181
158 169 181
159 169 181
160 170 181
161 170 181
161 170 181
161 170 181
163 171 181
164 172 181
165 172 181
165 172 181
167 173 181
168 174 181
170 175 181
171 175 181
174 177 181
176 178 181
177 178 181
183 181 181
222 236 255
222 236 255
222 236 255
222 236 255
222 236 255
222 236 255
222 236 255
222 236 255
222 236 255
222 236 255
222 236 255
222 236 255
222 236 255
222 236 255
222 236 255
222 236 255
222 236 255
222 236 255
222 236 255
222 236 255
222 236 255
222 236 255
222 236 255
222 236 255
222 236 255
222 236 255
222 236 255
222 236 255
222 236 255
222 236 255
222 236 255
222 236 255
222 236 255
222 236 255
222 236 255
222 236 255
222 236 255
222 236 255
222 236 255
222 236 255
222 236 255
222 236 255
222 236 255
222 236 255
222 236 255
222 236 255
222 236 255
222 236 255
222 236 255
222 236 255
222 236 255
222 236 255
222 236 255
83 68 57
117 96 80
138 104 80
96 73 57
7 9 2
124 99 80
135 103 80
87 70 57
129 101 80
115 96 80
134 103 80
118 97 80
15 5 13
126 100 80
117 96 80
83 68 57
127 100 80
119 97 80
130 101 80
84 86 77
125 99 80
123 99 80
122 98 80
126 100 80
120 97 80
212 230 255
43 41 55
132 133 174
65 61 78
60 59 78
150 163 181
106 113 141
144 159 181
137 156 181
152 164 181
132 153 181
61 49 40
149 162 181
132 153 181
147 161 181
138 157 181
31 31 27
185 216 255
131 153 181
131 153 181
0 0 0
129 152 181
131 153 181
131 153 181
0 0 0
181 214 255
131 153 181
134 154 181
141 158 181
181 214 255
147 161 181
133 154 181
145 160 181
181 214 255
134 154 181
75 80 158
55 57 112
84 84 158
85 85 158
85 85 158
81 83 158
10 9 41
54 57 112
0 0 0
60 60 112
31 38 75
1 1 1
178 179 181
178 179 181
174 176 181
171 175 181
169 174 181
168 174 181
167 173 181
165 172 181
164 172 181
164 172 181
163 171 181
161 170 181
160 170 181
160 170 181
160 170 181
159 169 181
158 169 181
158 169 181
157 168 181
156 168 181
156 168 181
156 168 181
155 167 181
154 167 181
154 167 181
154 167 181
154 167 181
153 167 181
153 166 181
153 166 181
152 166 181
152 166 181
152 166 181
152 166 181
152 166 181
152 166 181
152 166 181
152 166 181
152 166 181
152 166 181
152 166 181
152 166 181
152 166 181
153 166 181
152 166 181
153 166 181
153 167 181
153 167 181
154 167 181
154 167 181
154 167 181
154 167 181
155 167 181
156 168 181
156 168 181
156 168 181
157 168 181
157 168 181
158 169 181
159 169 181
160 170 181
160 170 181
161 170 181
162 171 181
163 171 181
164 172 181
165 172 181
166 173 181
167 173 181
168 174 181
169 174 181
171 175 181
173 176 181
175 177 181
178 179 181
180 180 181
222 236 255
222 236 255
222 236 255
222 236 255
222 236 255
222 236 255
222 236 255
222 236 255
222 236 255
222 236 255
222 236 255
222 236 255
222 236 255
222 236 255
222 236 255
222 236 255
222 236 255
222 236 255
222 236 255
222 236 255
222 236 255
222 236 255
222 236 255
222 236 255
222 236 255
222 236 255
222 236 255
222 236 255
222 236 255
222 236 255
222 236 255
222 236 255
222 236 255
222 236 255
222 236 255
222 236 255
222 236 255
222 236 255
222 236 255
222 236 255
222 236 255
222 236 255
222 236 255
222 236 255
222 236 255
222 236 255
222 236 255
222 236 255
222 236 255
222 236 255
121 98 80
123 99 80
81 68 57
118 97 80
138 104 80
117 96 80
128 100 80
119 97 80
122 98 80
88 70 57
131 102 80
116 96 80
114 95 80
125 99 80
133 102 80
123 99 80
136 104 80
7 20 35
62 60 51
119 97 80
135 103 80
123 98 80
134 103 80
117 96 80
115 96 80
145 160 181
132 153 181
81 82 100
98 89 110
0 0 0
105 112 141
197 222 255
154 162 200
196 222 255
132 153 181
192 219 255
139 157 181
134 154 181
132 153 181
39 41 79
139 157 181
134 155 181
143 159 181
93 72 57
134 154 181
132 153 181
183 215 255
133 154 181
57 48 40
141 158 181
128 151 181
131 153 181
65 43 84
149 163 181
39 22 49
130 152 181
60 49 40
43 16 24
136 155 181
137 156 181
132 153 181
52 39 106
88 86 158
89 87 158
76 80 158
86 85 158
55 57 112
77 81 158
81 83 158
86 86 158
10 3 51
109 118 127
53 57 112
179 179 181
174 177 181
174 176 181
173 176 181
169 174 181
168 174 181
167 173 181
166 173 181
165 172 181
164 172 181
163 171 181
162 170 181
161 170 181
160 169 181
159 169 181
158 169 181
158 169 181
157 168 181
157 168 181
157 168 181
156 168 181
155 167 181
155 167 181
154 167 181
154 167 181
154 167 181
153 167 181
153 167 181
153 166 181
153 166 181
152 166 181
153 166 181
152 166 181
152 166 181
152 166 181
152 166 181
152 166 181
152 166 181
152 166 181
152 166 181
152 166 181
152 166 181
152 166 181
152 166 181
152 166 181
152 166 181
152 166 181
153 166 181
153 166 181
153 167 181
153 167 181
154 167 181
154 167 181
154 167 181
155 167 181
156 168 181
156 168 181
156 168 181
157 168 181
157 168 181
158 169 181
159 169 181
160 170 181
160 170 181
162 171 181
162 170 181
162 171 181
164 172 181
164 172 181
165 172 181
167 173 181
169 174 181
171 175 181
170 175 181
173 176 181
175 177 181
175 177 181
180 180 181
222 236 255
222 236 255
222 236 255
222 236 255
222 236 255
222 236 255
222 236 255
222 236 255
222 236 255
222 236 255
222 236 255
222 236 255
222 236 255
222 236 255
222 236 255
222 236 255
222 236 255
222 236 255
222 236 255
222 236 255
222 236 255
222 236 255
222 236 255
222 236 255
222 236 255
222 236 255
222 236 255
222 236 255
222 236 255
222 236 255
222 236 255
222 236 255
222 236 255
222 236 255
222 236 255
222 236 255
222 236 255
222 236 255
222 236 255
222 236 255
222 236 255
222 236 255
222 236 255
222 236 255
222 236 255
222 236 255
222 236 255
133 102 80
222 236 255
68 44 66
134 103 80
126 100 80
137 104 80
128 101 80
117 97 80
130 101 80
81 67 57
52 38 28
129 101 80
84 69 57
124 99 80
89 85 36
133 102 80
125 99 80
81 67 57
127 100 80
136 104 80
117 96 80
116 96 80
127 100 80
131 102 80
133 102 80
117 96 51
51 44 39
150 163 181
130 152 181
208 228 255
105 112 141
170 170 200
177 173 200
107 113 141
129 152 181
131 153 181
131 153 181
131 153 181
133 154 181
131 153 181
188 218 255
117 118 141
144 160 181
148 162 181
81 82 100
141 158 181
59 48 40
131 153 181
132 153 181
118 89 94
89 70 57
8 81 88
135 155 181
68 77 117
131 153 181
133 154 181
62 49 40
132 153 181
130 152 181
130 152 181
24 40 16
135 155 181
97 74 57
129 152 181
86 85 158
81 83 158
79 82 158
77 81 158
140 157 181
85 85 158
80 83 158
54 57 112
77 81 158
113 120 127
176 178 181
176 178 181
173 176 181
170 175 181
169 174 181
167 173 181
167 173 181
165 172 181
164 172 181
164 172 181
163 171 181
161 170 181
161 170 181
160 170 181
159 169 181
159 169 181
158 169 181
157 168 181
157 168 181
156 168 181
156 168 181
156 168 181
155 167 181
154 167 181
154 167 181
154 167 181
153 167 181
153 166 181
153 166 181
152 166 181
152 166 181
152 166 181
152 166 181
152 166 181
152 166 181
151 166 181
151 166 181
151 166 181
151 166 181
151 166 181
152 166 181
151 166 181
152 166 181
152 166 181
152 166 181
152 166 181
152 166 181
152 166 181
152 166 181
153 166 181
153 166 181
153 166 181
153 167 181
154 167 181
154 167 181
155 167 181
155 167 181
156 168 181
156 168 181
157 168 181
157 168 181
158 169 181
158 169 181
159 169 181
160 170 181
160 170 181
161 170 181
161 170 181
163 171 181
164 171 181
165 172 181
166 173 181
167 173 181
169 174 181
169 174 181
171 175 181
172 176 181
173 176 181
177 178 181
178 179 181
182 181 181
222 236 255
222 236 255
222 236 255
222 236 255
222 236 255
222 236 255
222 236 255
222 236 255
222 236 255
222 236 255
222 236 255
222 236 255
222 236 255
222 236 255
222 236 255
222 236 255
222 236 255
222 236 255
222 236 255
222 236 255
222 236 255
222 236 255
222 236 255
222 236 255
222 236 255
222 236 255
222 236 255
222 236 255
222 236 255
222 236 255
222 236 255
222 236 255
222 236 255
222 236 255
222 236 255
222 236 255
222 236 255
222 236 255
222 236 255
222 236 255
222 236 255
222 236 255
222 236 255
222 236 255
222 236 255
222 236 255
123 99 80
141 106 80
78 80 36
133 102 80
127 100 80
123 99 80
131 102 80
0 0 0
116 96 80
124 99 80
124 99 80
92 71 57
132 102 80
128 101 80
75 66 69
140 105 80
126 100 80
134 103 80
121 98 80
136 103 80
138 104 80
116 96 80
84 69 57
127 100 80
216 233 255
213 231 255
137 156 181
205 227 255
207 227 255
51 12 51
173 171 200
74 41 142
110 115 141
136 155 181
143 159 181
146 161 181
131 153 181
129 152 181
133 154 181
128 151 181
131 153 181
147 161 181
132 153 181
143 159 181
131 153 181
134 155 181
62 49 40
143 159 181
0 0 0
135 155 181
142 159 181
59 48 40
130 152 181
97 73 57
150 163 181
141 158 181
137 156 181
132 153 181
128 151 181
150 163 181
61 49 40
8 53 39
56 129 74
91 88 158
55 58 112
87 86 158
83 84 158
81 83 158
83 84 158
76 81 158
79 82 158
180 180 181
177 178 181
174 177 181
174 177 181
170 174 181
170 175 181
168 174 181
168 173 181
166 173 181
165 172 181
164 172 181
163 171 181
162 171 181
161 170 181
160 170 181
160 169 181
159 169 181
158 169 181
158 169 181
157 168 181
157 168 181
156 168 181
155 167 181
155 167 181
155 167 181
154 167 181
154 167 181
153 167 181
153 166 181
153 166 181
152 166 181
152 166 181
152 166 181
152 166 181
152 166 181
152 166 181
151 166 181
151 166 181
151 166 181
151 166 181
151 166 181
151 166 181
151 166 181
151 166 181
151 166 181
151 166 181
151 166 181
152 166 181
152 166 181
152 166 181
152 166 181
152 166 181
152 166 181
153 166 181
153 166 181
153 166 181
154 167 181
154 167 181
155 167 181
155 167 181
155 168 181
156 168 181
157 168 181
157 168 181
158 169 181
159 169 181
159 169 181
160 170 181
160 170 181
161 170 181
162 170 181
163 171 181
164 172 181
166 172 181
165 172 181
167 173 181
168 174 181
170 174 181
171 175 181
174 177 181
175 177 181
176 178 181
180 180 181
183 181 181
222 236 255
222 236 255
222 236 255
222 236 255
222 236 255
222 236 255
222 236 255
222 236 255
222 236 255
222 236 255
222 236 255
222 236 255
222 236 255
222 236 255
222 236 255
222 236 255
222 236 255
222 236 255
222 236 255
222 236 255
222 236 255
222 236 255
222 236 255
222 236 255
222 236 255
222 236 255
222 236 255
222 236 255
222 236 255
222 236 255
222 236 255
222 236 255
222 236 255
222 236 255
222 236 255
222 236 255
222 236 255
222 236 255
222 236 255
222 236 255
222 236 255
222 236 255
222 236 255
222 236 255
24 6 1
53 52 52
119 97 80
80 89 74
73 69 38
115 96 80
125 100 80
126 100 80
27 56 55
28 28 8
115 95 80
137 104 80
117 97 80
55 39 15
118 97 80
20 48 32
91 75 52
124 99 80
121 98 80
115 96 80
0 0 0
119 97 80
115 96 80
116 96 80
0 0 0
132 153 181
131 153 181
144 159 181
175 172 200
148 159 200
146 158 200
115 117 141
133 154 181
146 161 181
134 154 181
131 153 181
91 71 57
130 152 181
129 152 181
136 155 181
137 156 181
132 153 181
136 155 181
130 152 181
39 90 52
130 152 181
82 30 103
131 153 181
133 154 181
59 48 40
147 161 181
37 26 35
64 140 130
143 159 181
49 14 52
75 123 119
94 72 57
136 155 181
135 73 154
133 154 181
146 160 181
48 119 74
59 48 40
131 153 181
132 153 181
130 152 181
91 88 158
77 81 158
78 81 158
83 84 158
86 85 158
178 179 181
176 177 181
176 178 181
173 176 181
171 175 181
170 175 181
168 174 181
167 173 181
166 173 181
165 172 181
164 172 181
163 171 181
162 171 181
161 170 181
161 170 181
159 169 181
159 169 181
158 169 181
158 169 181
157 168 181
157 168 181
156 168 181
156 168 181
155 167 181
155 167 181
154 167 181
154 167 181
154 167 181
153 166 181
153 166 181
153 166 181
152 166 181
152 166 181
152 166 181
152 166 181
151 166 181
151 166 181
151 166 181
151 166 181
151 165 181
151 165 181
151 165 181
151 165 181
151 165 181
151 165 181
151 166 181
151 166 181
151 166 181
152 166 181
152 166 181
152 166 181
152 166 181
152 166 181
152 166 181
153 166 181
153 166 181
153 167 181
153 167 181
154 167 181
154 167 181
155 167 181
155 167 181
156 168 181
156 168 181
157 168 181
157 168 181
158 169 181
158 169 181
159 169 181
160 170 181
161 170 181
161 170 181
162 171 181
163 171 181
164 172 181
165 172 181
166 173 181
168 173 181
168 174 181
170 175 181
171 175 181
172 176 181
174 177 181
178 179 181
222 236 255
185 183 181
222 236 255
222 236 255
223 236 255
222 236 255
223 236 255
222 236 255
223 236 255
222 236 255
222 236 255
222 236 255
222 236 255
222 236 255
222 236 255
222 236 255
222 236 255
222 236 255
222 236 255
222 236 255
222 236 255
222 236 255
222 236 255
222 236 255
222 236 255
222 236 255
222 236 255
222 236 255
222 236 255
222 236 255
223 236 255
222 236 255
222 236 255
222 236 255
223 236 255
222 236 255
222 236 255
222 236 255
222 236 255
222 236 255
222 236 255
222 236 255
222 236 255
222 236 255
222 236 255
121 98 80
48 14 28
84 69 57
114 95 80
130 101 80
127 100 80
117 96 80
118 97 80
120 98 80
123 99 80
114 95 80
124 99 80
98 74 57
126 100 80
123 98 80
132 102 80
124 99 80
0 0 0
127 100 80
121 98 80
83 68 57
93 72 57
138 105 80
141 158 181
216 233 255
132 153 181
133 154 181
158 164 200
156 162 200
174 172 200
167 168 200
105 75 63
120 120 141
59 60 112
149 162 181
128 151 181
136 155 181
146 161 181
192 219 255
133 154 181
143 159 181
15 11 15
5 38 27
134 154 181
0 0 0
151 164 181
130 152 181
129 152 181
140 157 181
37 88 52
141 158 181
146 161 181
130 152 181
150 163 181
150 163 181
145 160 181
34 84 52
133 154 181
183 215 255
129 152 181
131 153 181
93 72 57
52 124 74
70 0 22
129 152 181
147 161 181
60 57 113
86 85 158
77 81 158
55 58 112
75 68 112
177 178 181
176 178 181
173 176 181
172 176 181
170 175 181
169 174 181
167 173 181
166 173 181
165 172 181
164 172 181
163 171 181
163 171 181
162 170 181
161 170 181
161 170 181
159 169 181
159 169 181
158 169 181
158 169 181
157 168 181
156 168 181
156 168 181
155 167 181
155 167 181
154 167 181
154 167 181
154 167 181
153 167 181
153 166 181
153 166 181
152 166 181
152 166 181
152 166 181
152 166 181
152 166 181
151 166 181
151 166 181
151 166 181
151 165 181
151 165 181
151 165 181
151 165 181
151 165 181
151 165 181
151 165 181
151 165 181
151 165 181
151 166 181
151 166 181
152 166 181
152 166 181
152 166 181
152 166 181
152 166 181
153 166 181
153 166 181
153 166 181
153 167 181
154 167 181
154 167 181
155 167 181
155 167 181
155 168 181
156 168 181
156 168 181
157 168 181
158 169 181
158 169 181
159 169 181
159 169 181
160 170 181
161 170 181
162 170 181
162 171 181
163 171 181
164 172 181
165 172 181
167 173 181
168 174 181
168 174 181
170 175 181
172 176 181
172 176 181
175 177 181
178 179 181
183 181 181
222 236 255
222 236 255
222 236 255
222 236 255
222 236 255
222 236 255
222 236 255
222 236 255
222 236 255
222 236 255
222 236 255
222 236 255
222 236 255
222 236 255
222 236 255
222 236 255
222 236 255
223 236 255
222 236 255
222 236 255
222 236 255
222 236 255
222 236 255
222 236 255
222 236 255
222 236 255
222 236 255
222 236 255
223 236 255
222 236 255
222 236 255
222 236 255
222 236 255
223 236 255
222 236 255
222 236 255
223 236 255
222 236 255
223 236 255
222 236 255
222 236 255
122 93 39
122 98 80
132 102 80
90 71 57
131 102 80
120 97 80
136 104 80
83 68 57
129 101 80
91 91 78
114 95 80
129 101 80
120 98 80
124 99 80
123 98 80
87 70 57
130 101 80
13 1 0
136 104 80
123 99 80
124 99 80
82 68 57
110 70 77
140 105 80
131 102 80
218 234 255
132 153 181
62 50 40
132 153 181
151 160 200
153 161 200
120 120 141
95 71 63
131 153 181
130 152 181
136 155 181
133 154 181
128 151 181
135 155 181
115 136 74
192 220 255
191 219 255
152 164 181
147 161 181
149 162 181
0 3 2
152 164 181
149 162 181
57 130 74
131 153 181
137 156 181
66 115 86
139 157 181
143 159 181
64 50 40
133 154 181
138 156 181
8 53 39
184 215 255
184 215 255
58 48 40
129 152 181
130 152 181
137 156 181
79 67 18
132 153 181
61 49 40
138 156 181
184 216 255
91 88 158
0 0 0
182 181 181
177 178 181
177 178 181
173 176 181
172 175 181
171 175 181
169 174 181
167 173 181
167 173 181
166 173 181
165 172 181
164 172 181
162 171 181
162 171 181
161 170 181
161 170 181
160 170 181
159 169 181
158 169 181
158 169 181
157 168 181
157 168 181
156 168 181
156 168 181
155 167 181
155 167 181
154 167 181
154 167 181
153 167 181
153 167 181
153 166 181
153 166 181
153 166 181
152 166 181
152 166 181
152 166 181
152 166 181
151 166 181
151 166 181
151 166 181
151 165 181
151 165 181
151 165 181
151 165 181
151 165 181
151 165 181
151 165 181
151 165 181
151 166 181
151 166 181
151 166 181
152 166 181
152 166 181
152 166 181
152 166 181
152 166 181
153 166 181
153 166 181
153 166 181
154 167 181
154 167 181
154 167 181
154 167 181
155 167 181
155 167 181
156 168 181
156 168 181
157 168 181
157 168 181
158 169 181
158 169 181
159 169 181
160 170 181
160 170 181
161 170 181
162 171 181
163 171 181
164 172 181
164 172 181
165 172 181
167 173 181
167 173 181
169 174 181
170 175 181
172 176 181
172 176 181
177 178 181
177 178 181
223 236 255
222 236 255
223 236 255
222 236 255
222 236 255
222 236 255
223 236 255
222 236 255
223 236 255
222 236 255
223 236 255
222 236 255
222 236 255
222 236 255
223 236 255
223 236 255
222 236 255
222 236 255
222 236 255
223 236 255
222 236 255
222 236 255
222 236 255
222 236 255
223 236 255
222 236 255
222 236 255
222 236 255
223 236 255
223 236 255
222 236 255
222 236 255
222 236 255
223 236 255
222 236 255
222 236 255
222 236 255
223 236 255
223 236 255
223 236 255
125 99 80
223 236 255
83 68 57
121 98 80
81 67 57
135 103 80
119 97 80
135 103 80
116 96 80
28 61 34
124 99 80
124 99 80
117 96 80
114 92 67
134 103 80
91 75 77
135 103 80
128 100 80
134 103 80
97 73 57
132 102 80
0 0 0
69 26 63
81 67 57
84 69 57
219 235 255
130 152 181
210 229 255
150 160 200
152 161 200
205 226 255
80 26 105
154 162 200
99 73 63
131 153 181
81 67 57
131 153 181
110 122 174
136 156 181
134 154 181
121 120 141
147 161 181
144 160 181
140 157 181
129 151 181
130 152 181
0 0 0
89 70 57
131 153 181
134 154 181
60 49 40
0 0 0
129 151 181
58 48 40
143 159 181
95 73 57
137 156 181
149 162 181
0 0 0
143 159 181
130 152 181
135 155 181
59 48 40
43 23 12
35 85 52
0 0 0
130 152 181
186 216 255
11 4 2
134 154 181
54 126 74
76 81 158
179 179 181
178 179 181
173 176 181
172 176 181
170 175 181
169 174 181
168 174 181
167 173 181
166 173 181
165 172 181
164 172 181
163 171 181
162 171 181
161 170 181
161 170 181
160 170 181
159 169 181
159 169 181
158 169 181
158 169 181
157 168 181
156 168 181
156 168 181
156 168 181
155 167 181
155 167 181
154 167 181
154 167 181
154 167 181
153 167 181
153 166 181
153 166 181
153 166 181
152 166 181
152 166 181
152 166 181
152 166 181
152 166 181
151 166 181
151 166 181
151 166 181
151 166 181
151 165 181
151 165 181
151 165 181
151 165 181
151 165 181
151 166 181
151 166 181
151 166 181
151 166 181
152 166 181
152 166 181
152 166 181
152 166 181
152 166 181
153 166 181
153 166 181
153 166 181
153 167 181
154 167 181
154 167 181
154 167 181
155 167 181
155 167 181
156 168 181
156 168 181
156 168 181
157 168 181
158 169 181
158 169 181
159 169 181
159 169 181
160 170 181
161 170 181
162 171 181
162 171 181
163 171 181
164 172 181
165 172 181
166 173 181
167 173 181
168 174 181
169 174 181
171 175 181
172 176 181
174 177 181
176 177 181
179 179 181
181 180 181
223 236 255
223 236 255
223 236 255
223 236 255
223 236 255
223 236 255
223 236 255
223 236 255
223 236 255
223 236 255
223 236 255
222 236 255
222 236 255
223 236 255
222 236 255
223 236 255
223 236 255
222 236 255
223 236 255
223 236 255
222 236 255
223 236 255
223 236 255
223 236 255
222 236 255
223 236 255
223 236 255
223 236 255
223 236 255
222 236 255
222 236 255
223 236 255
223 236 255
223 236 255
223 236 255
223 236 255
223 236 255
223 236 255
223 236 255
130 101 80
121 98 80
124 99 80
100 73 64
85 69 57
126 100 80
116 96 80
115 96 80
130 101 80
116 96 80
138 104 80
93 57 66
123 99 80
119 97 80
123 98 80
116 96 80
126 100 80
95 73 57
125 99 80
126 100 80
115 96 80
83 68 57
0 24 0
132 153 181
218 233 255
129 152 181
133 154 181
148 159 200
159 164 200
206 227 255
170 169 200
78 61 66
130 152 181
6 17 10
133 154 181
131 153 181
143 159 181
132 153 181
0 0 0
131 153 181
153 165 181
129 152 181
128 151 181
130 152 181
145 160 181
37 67 24
108 117 127
189 218 255
128 151 181
136 155 181
133 154 181
62 49 40
62 49 40
135 155 181
30 16 9
99 74 57
131 153 181
149 163 181
144 159 181
0 0 0
131 153 181
130 152 181
58 48 40
0 0 0
15 26 11
66 51 40
58 48 40
59 48 40
142 158 181
182 181 181
180 180 181
177 178 181
175 177 181
173 176 181
170 175 181
170 175 181
168 174 181
167 173 181
167 173 181
166 172 181
164 172 181
164 172 181
163 171 181
162 171 181
161 170 181
161 170 181
160 170 181
159 169 181
158 169 181
158 169 181
158 169 181
157 168 181
157 168 181
156 168 181
156 168 181
155 167 181
155 167 181
154 167 181
154 167 181
154 167 181
154 167 181
153 166 181
153 166 181
153 166 181
152 166 181
152 166 181
152 166 181
152 166 181
152 166 181
151 166 181
151 166 181
151 166 181
151 166 181
151 166 181
151 166 181
151 166 181
151 166 181
151 166 181
151 166 181
151 166 181
151 166 181
152 166 181
152 166 181
152 166 181
152 166 181
152 166 181
152 166 181
153 166 181
153 166 181
153 166 181
153 167 181
154 167 181
154 167 181
154 167 181
155 167 181
155 168 181
156 168 181
156 168 181
157 168 181
157 168 181
158 169 181
158 169 181
159 169 181
159 169 181
160 170 181
160 170 181
161 170 181
163 171 181
163 171 181
164 172 181
165 172 181
166 173 181
166 173 181
167 173 181
169 174 181
170 175 181
171 175 181
172 176 181
175 177 181
176 178 181
178 179 181
223 236 255
223 236 255
223 236 255
223 236 255
222 236 255
223 236 255
223 236 255
223 236 255
223 236 255
223 236 255
223 236 255
222 236 255
222 236 255
223 236 255
223 236 255
223 236 255
223 236 255
223 236 255
223 236 255
223 236 255
223 236 255
223 236 255
223 236 255
223 236 255
222 236 255
223 236 255
223 236 255
223 236 255
223 236 255
223 236 255
223 236 255
222 236 255
223 236 255
223 236 255
223 236 255
223 236 255
223 236 255
223 236 255
126 100 80
129 101 80
110 36 80
88 70 57
55 21 8
83 68 57
87 70 57
35 62 65
116 96 80
84 68 57
56 21 66
127 100 80
117 96 80
130 101 80
129 101 80
92 71 57
116 96 80
128 100 80
83 68 57
131 101 80
114 95 80
128 101 80
141 106 80
120 97 80
131 153 181
138 156 181
213 231 255
132 153 181
137 156 181
146 158 200
137 156 181
9 0 37
143 159 181
136 155 181
0 0 0
0 0 0
9 85 88
132 153 181
1 56 42
8 83 88
34 29 24
133 154 181
132 153 181
66 115 86
8 81 88
128 151 181
130 152 181
12 117 124
95 73 57
148 162 181
2 5 14
134 154 181
58 48 40
18 24 13
40 22 12
61 49 40
129 152 181
132 153 181
3 16 8
139 157 181
136 155 181
1 0 0
143 159 181
141 158 181
148 162 181
0 0 0
188 217 255
34 85 52
0 1 0
75 184 197
182 181 181
176 178 181
174 177 181
173 176 181
172 175 181
171 175 181
170 174 181
168 173 181
167 173 181
166 173 181
165 172 181
164 172 181
163 171 181
162 171 181
162 170 181
161 170 181
160 170 181
160 170 181
159 169 181
159 169 181
158 169 181
157 168 181
157 168 181
156 168 181
156 168 181
156 168 181
155 167 181
155 167 181
155 167 181
154 167 181
154 167 181
154 167 181
153 166 181
153 166 181
153 166 181
153 166 181
152 166 181
152 166 181
152 166 181
152 166 181
152 166 181
152 166 181
152 166 181
152 166 181
152 166 181
152 166 181
151 166 181
152 166 181
151 166 181
152 166 181
152 166 181
152 166 181
152 166 181
152 166 181
152 166 181
152 166 181
152 166 181
153 166 181
153 166 181
153 166 181
153 167 181
154 167 181
154 167 181
154 167 181
154 167 181
155 167 181
155 167 181
156 168 181
156 168 181
156 168 181
157 168 181
157 168 181
158 169 181
158 169 181
159 169 181
160 170 181
160 170 181
161 170 181
162 171 181
163 171 181
163 171 181
164 172 181
165 172 181
166 173 181
167 173 181
169 174 181
168 174 181
170 175 181
172 176 181
173 176 181
176 178 181
177 178 181
223 236 255
223 236 255
223 236 255
223 236 255
223 236 255
223 236 255
223 236 255
223 236 255
223 236 255
223 236 255
223 236 255
223 236 255
223 236 255
223 236 255
223 236 255
223 236 255
223 236 255
223 236 255
223 236 255
223 236 255
223 236 255
223 236 255
223 236 255
223 236 255
223 236 255
223 236 255
223 236 255
223 236 255
223 236 255
223 236 255
223 236 255
223 236 255
223 236 255
223 236 255
223 236 255
223 236 255
223 236 255
223 236 255
124 99 80
223 236 255
112 42 56
61 77 62
118 97 80
92 72 57
96 73 57
125 99 80
81 67 57
138 104 80
125 99 80
118 97 80
116 96 80
133 103 80
116 96 80
123 99 80
132 102 80
117 96 80
127 100 80
128 100 80
88 70 57
122 98 80
125 99 80
45 24 49
99 77 112
133 154 181
147 161 181
131 153 181
173 171 200
142 159 181
132 153 181
139 157 181
134 154 181
3 83 67
128 151 181
9 84 88
8 83 88
61 49 40
147 161 181
41 42 79
129 152 181
131 153 181
5 46 77
133 154 181
130 152 181
173 182 246
129 152 181
136 155 181
143 159 181
134 154 181
147 161 181
133 154 181
2 0 2
190 218 255
146 161 181
67 116 86
6 1 0
131 153 181
3 33 7
61 49 40
132 153 181
0 0 0
141 158 181
188 218 255
189 218 255
25 4 6
42 34 28
188 218 255
76 27 67
182 181 181
178 179 181
176 178 181
173 176 181
172 175 181
171 175 181
170 174 181
168 174 181
168 174 181
167 173 181
165 172 181
165 172 181
164 172 181
163 171 181
162 171 181
162 171 181
161 170 181
160 170 181
159 169 181
159 169 181
158 169 181
158 169 181
157 168 181
157 168 181
157 168 181
156 168 181
156 168 181
155 167 181
155 167 181
155 167 181
154 167 181
154 167 181
154 167 181
154 167 181
153 167 181
153 166 181
153 166 181
153 166 181
152 166 181
152 166 181
152 166 181
152 166 181
152 166 181
152 166 181
152 166 181
152 166 181
152 166 181
152 166 181
152 166 181
152 166 181
152 166 181
152 166 181
152 166 181
152 166 181
152 166 181
152 166 181
152 166 181
153 166 181
153 166 181
153 166 181
153 167 181
154 167 181
154 167 181
154 167 181
154 167 181
155 167 181
155 167 181
155 167 181
156 168 181
156 168 181
156 168 181
157 168 181
157 168 181
158 169 181
158 169 181
159 169 181
160 170 181
160 170 181
161 170 181
162 170 181
162 171 181
163 171 181
164 172 181
165 172 181
166 173 181
167 173 181
167 173 181
168 174 181
170 175 181
171 175 181
172 176 181
174 177 181
175 177 181
223 236 255
223 236 255
223 236 255
223 236 255
223 236 255
223 236 255
223 236 255
223 236 255
223 236 255
223 236 255
223 236 255
223 236 255
223 236 255
223 236 255
223 236 255
223 236 255
223 236 255
223 236 255
223 236 255
223 236 255
223 236 255
223 236 255
223 236 255
223 236 255
223 236 255
223 236 255
223 236 255
223 236 255
223 236 255
223 236 255
223 236 255
223 236 255
223 236 255
223 236 255
223 236 255
223 236 255
223 236 255
223 236 255
83 68 57
127 100 80
86 69 57
75 58 55
124 99 80
125 99 80
39 28 15
21 50 32
116 96 80
126 86 49
123 99 80
135 103 80
115 91 28
114 95 80
125 99 80
132 102 80
140 105 80
125 99 80
115 96 80
83 68 57
47 72 49
115 96 80
0 0 0
220 235 255
220 235 255
214 232 255
136 156 181
210 229 255
144 160 181
129 152 181
129 152 181
9 86 88
202 225 255
128 151 181
13 122 124
12 119 124
19 174 176
3 18 41
9 86 88
196 222 255
149 163 181
0 0 0
131 153 181
147 161 181
69 117 86
5 4 0
95 73 57
147 161 181
20 25 13
95 72 57
68 117 86
28 15 9
4 20 6
62 111 86
133 154 181
129 128 127
35 57 23
9 7 9
129 152 181
38 49 27
131 153 181
4 0 0
153 164 181
150 163 181
134 154 181
132 153 181
58 48 40
57 135 139
183 181 181
177 178 181
176 178 181
175 177 181
173 176 181
171 175 181
170 175 181
169 174 181
168 174 181
167 173 181
166 173 181
166 172 181
164 172 181
164 171 181
163 171 181
162 171 181
161 170 181
161 170 181
160 170 181
160 170 181
159 169 181
158 169 181
158 169 181
158 169 181
157 168 181
157 168 181
156 168 181
156 168 181
155 168 181
155 167 181
155 167 181
155 167 181
154 167 181
154 167 181
154 167 181
154 167 181
153 166 181
153 166 181
153 166 181
153 166 181
152 166 181
152 166 181
152 166 181
152 166 181
152 166 181
152 166 181
152 166 181
152 166 181
152 166 181
152 166 181
152 166 181
152 166 181
152 166 181
152 166 181
152 166 181
152 166 181
153 166 181
153 166 181
153 166 181
153 166 181
154 167 181
153 167 181
154 167 181
154 167 181
154 167 181
155 167 181
155 167 181
155 167 181
156 168 181
156 168 181
156 168 181
157 168 181
157 168 181
158 169 181
158 169 181
159 169 181
159 169 181
160 170 181
160 170 181
161 170 181
162 171 181
162 171 181
163 171 181
163 171 181
164 172 181
166 173 181
166 173 181
167 173 181
168 174 181
169 174 181
170 175 181
172 176 181
172 176 181
175 177 181
223 237 255
223 236 255
223 236 255
223 236 255
223 236 255
223 236 255
223 236 255
223 236 255
223 237 255
223 236 255
223 236 255
223 236 255
223 236 255
223 236 255
223 236 255
223 236 255
223 236 255
223 236 255
223 236 255
223 236 255
223 236 255
223 236 255
223 236 255
223 236 255
223 236 255
223 236 255
223 236 255
223 237 255
223 236 255
223 236 255
223 236 255
223 236 255
223 236 255
223 236 255
223 236 255
223 236 255
223 236 255
223 237 255
96 73 57
129 101 80
115 96 80
122 98 80
121 84 49
22 80 68
139 105 80
83 68 57
129 101 80
42 59 24
135 103 80
125 99 80
140 105 80
19 47 32
118 97 80
117 97 80
121 98 80
106 53 50
116 96 80
130 96 28
87 70 57
100 75 57
133 102 80
142 158 181
140 158 181
214 231 255
146 161 181
143 159 181
128 151 181
87 64 66
0 0 0
135 155 181
8 82 88
0 62 60
5 37 27
19 174 176
12 116 124
8 81 88
120 89 94
150 163 181
197 222 255
147 161 181
132 153 181
141 158 181
149 162 181
142 159 181
0 0 0
0 0 0
132 153 181
130 152 181
128 151 181
42 77 61
64 113 86
59 109 86
3 20 5
24 45 21
8 55 39
134 154 181
13 39 20
8 5 1
5 1 0
0 0 0
0 0 0
60 48 156
149 162 181
137 156 181
0 0 0
182 181 181
180 180 181
178 179 181
176 178 181
174 177 181
172 176 181
171 175 181
169 174 181
169 174 181
168 174 181
167 173 181
166 172 181
165 172 181
164 172 181
163 171 181
163 171 181
162 171 181
162 170 181
161 170 181
161 170 181
160 170 181
159 169 181
159 169 181
158 169 181
158 169 181
157 169 181
157 168 181
157 168 181
156 168 181
156 168 181
155 168 181
155 167 181
155 167 181
155 167 181
154 167 181
154 167 181
154 167 181
154 167 181
154 167 181
153 167 181
153 166 181
153 166 181
153 166 181
153 166 181
153 166 181
153 166 181
152 166 181
153 166 181
153 166 181
153 166 181
152 166 181
153 166 181
153 166 181
153 166 181
153 166 181
153 166 181
153 166 181
153 166 181
153 167 181
153 166 181
153 167 181
154 167 181
154 167 181
154 167 181
154 167 181
155 167 181
155 167 181
155 167 181
156 168 181
156 168 181
156 168 181
156 168 181
157 168 181
158 169 181
158 169 181
158 169 181
159 169 181
159 169 181
160 170 181
160 170 181
161 170 181
161 170 181
162 171 181
163 171 181
164 171 181
165 172 181
165 172 181
166 173 181
167 173 181
169 174 181
169 174 181
170 174 181
172 175 181
173 176 181
173 176 181
223 236 255
223 237 255
223 237 255
223 236 255
223 236 255
223 236 255
223 236 255
223 236 255
223 236 255
223 237 255
223 236 255
223 236 255
223 236 255
223 236 255
223 236 255
223 236 255
223 236 255
223 236 255
223 236 255
223 236 255
223 237 255
223 236 255
223 237 255
223 236 255
223 236 255
223 236 255
223 236 255
223 237 255
223 237 255
223 236 255
223 236 255
223 236 255
223 237 255
223 236 255
223 236 255
223 237 255
223 237 255
223 236 255
223 236 255
141 105 80
0 0 0
137 104 80
89 70 57
119 97 80
129 101 80
90 67 20
90 71 57
140 105 80
115 96 80
119 97 80
129 101 80
83 68 57
131 101 80
115 96 80
119 97 80
32 11 21
124 99 80
127 100 80
124 99 80
126 100 80
136 155 181
217 233 255
11 114 124
212 230 255
94 43 122
142 159 181
78 81 100
139 157 181
133 154 181
136 155 181
7 46 46
13 125 124
13 151 167
12 116 124
4 91 51
139 157 181
133 154 181
129 152 181
20 73 61
6 38 27
130 152 181
150 163 181
66 51 40
137 156 181
21 26 13
133 154 181
86 157 152
151 163 181
8 82 88
11 30 6
90 159 122
64 113 86
62 111 86
65 114 86
191 219 255
18 16 6
98 74 57
128 45 146
84 69 57
0 0 0
12 13 11
150 163 181
129 152 181
7 1 3
182 181 181
179 179 181
177 178 181
176 178 181
174 177 181
172 176 181
172 176 181
171 175 181
169 174 181
169 174 181
167 173 181
166 173 181
166 173 181
165 172 181
165 172 181
163 171 181
163 171 181
162 171 181
162 170 181
161 170 181
161 170 181
160 170 181
159 169 181
159 169 181
159 169 181
158 169 181
158 169 181
157 168 181
157 168 181
156 168 181
156 168 181
156 168 181
155 167 181
155 168 181
155 167 181
155 167 181
154 167 181
154 167 181
154 167 181
154 167 181
153 167 181
154 167 181
153 167 181
153 166 181
153 166 181
153 167 181
153 166 181
153 166 181
153 166 181
153 166 181
153 166 181
153 166 181
153 166 181
153 166 181
153 166 181
153 166 181
153 167 181
153 167 181
154 167 181
153 167 181
154 167 181
154 167 181
154 167 181
154 167 181
155 167 181
155 167 181
155 167 181
155 167 181
155 167 181
156 168 181
156 168 181
157 168 181
157 168 181
157 168 181
158 169 181
158 169 181
159 169 181
159 169 181
160 170 181
160 170 181
161 170 181
161 170 181
162 171 181
162 171 181
163 171 181
163 171 181
164 172 181
165 172 181
166 173 181
167 173 181
167 173 181
169 174 181
169 174 181
171 175 181
172 176 181
173 176 181
223 236 255
223 237 255
223 237 255
223 236 255
223 236 255
223 236 255
223 236 255
223 237 255
223 237 255
223 237 255
223 237 255
223 237 255
223 236 255
223 236 255
223 237 255
223 236 255
223 236 255
223 236 255
223 236 255
223 237 255
223 237 255
223 237 255
223 237 255
223 236 255
223 236 255
223 236 255
223 237 255
223 236 255
223 236 255
223 237 255
223 236 255
223 237 255
223 237 255
223 236 255
223 237 255
223 237 255
223 237 255
0 0 0
121 98 80
114 95 80
59 32 18
121 98 80
138 104 80
87 70 57
119 88 56
127 100 80
94 72 57
0 0 0
126 100 80
82 68 57
135 103 80
87 70 57
125 99 80
94 72 57
2 0 0
123 99 80
118 97 80
60 32 18
119 97 80
82 68 57
131 153 181
140 158 181
137 156 181
150 163 181
138 156 181
130 152 181
132 153 181
26 47 17
138 157 181
129 152 181
12 116 124
7 52 39
18 169 176
202 225 255
1 1 1
201 224 255
69 117 86
150 163 181
138 156 181
134 154 181
17 43 15
22 72 64
11 4 28
136 155 181
147 133 215
134 154 181
129 152 181
31 84 41
64 113 86
69 117 86
59 109 86
37 60 75
97 165 122
9 33 14
34 58 75
2 2 0
143 159 181
0 0 0
80 30 103
52 6 59
134 154 181
139 157 181
0 0 0
66 51 40
182 181 181
181 180 181
177 178 181
175 177 181
174 177 181
173 176 181
171 175 181
171 175 181
169 174 181
169 174 181
167 173 181
167 173 181
166 173 181
165 172 181
164 172 181
164 172 181
163 171 181
163 171 181
162 171 181
161 170 181
161 170 181
160 170 181
160 170 181
159 169 181
159 169 181
159 169 181
158 169 181
158 169 181
157 168 181
157 168 181
156 168 181
156 168 181
156 168 181
156 168 181
155 167 181
155 168 181
155 167 181
155 167 181
154 167 181
154 167 181
154 167 181
154 167 181
154 167 181
154 167 181
154 167 181
153 167 181
153 166 181
153 167 181
154 167 181
153 166 181
153 166 181
153 167 181
153 166 181
153 167 181
153 167 181
154 167 181
154 167 181
154 167 181
154 167 181
154 167 181
154 167 181
154 167 181
154 167 181
155 167 181
155 167 181
155 167 181
155 167 181
156 168 181
156 168 181
156 168 181
156 168 181
157 168 181
157 168 181
158 169 181
158 169 181
158 169 181
159 169 181
159 169 181
160 170 181
161 170 181
161 170 181
162 170 181
162 171 181
162 171 181
163 171 181
163 171 181
164 172 181
165 172 181
166 173 181
167 173 181
167 173 181
168 174 181
170 174 181
170 175 181
171 175 181
173 176 181
223 237 255
223 236 255
223 237 255
223 237 255
134 154 181
223 237 255
223 237 255
223 237 255
223 237 255
223 236 255
133 154 181
223 236 255
223 237 255
223 237 255
223 237 255
223 237 255
223 237 255
223 237 255
138 156 181
223 237 255
223 237 255
136 155 181
140 157 181
223 237 255
223 237 255
223 236 255
146 161 181
223 237 255
223 237 255
223 237 255
223 237 255
143 159 181
223 236 255
135 155 181
223 237 255
223 237 255
223 237 255
136 156 181
83 68 57
114 95 80
139 105 80
122 98 80
141 105 80
127 100 80
129 101 80
87 70 57
43 53 34
12 1 0
0 0 0
81 68 57
83 68 57
131 102 80
114 95 80
83 68 57
127 100 80
91 65 40
135 103 80
137 104 80
106 34 80
32 14 70
42 58 75
132 153 181
139 157 181
69 35 34
39 20 16
46 24 24
42 77 61
129 151 181
133 154 181
206 227 255
19 176 176
18 169 176
16 160 176
1 125 121
17 165 176
139 157 181
28 38 26
5 21 0
138 156 181
48 83 61
146 161 181
128 151 181
130 152 181
65 113 86
131 153 181
137 156 181
149 134 215
61 111 86
7 118 84
92 161 122
87 157 122
194 221 255
1 13 11
7 5 3
43 52 27
60 110 86
146 161 181
87 70 57
134 154 181
46 81 84
131 45 161
73 8 83
17 0 4
181 180 181
179 179 181
179 179 181
176 177 181
175 177 181
174 176 181
173 176 181
171 175 181
170 174 181
170 174 181
169 174 181
167 173 181
167 173 181
166 173 181
165 172 181
165 172 181
163 171 181
163 171 181
162 171 181
162 171 181
161 170 181
161 170 181
160 170 181
160 170 181
159 169 181
159 169 181
159 169 181
158 169 181
158 169 181
158 169 181
158 169 181
157 168 181
156 168 181
157 168 181
156 168 181
156 168 181
155 168 181
155 167 181
155 167 181
155 167 181
155 167 181
155 167 181
154 167 181
155 167 181
154 167 181
154 167 181
154 167 181
154 167 181
154 167 181
154 167 181
154 167 181
154 167 181
154 167 181
154 167 181
154 167 181
154 167 181
154 167 181
154 167 181
154 167 181
155 167 181
155 167 181
155 167 181
155 167 181
155 167 181
155 167 181
156 168 181
156 168 181
156 168 181
156 168 181
156 168 181
157 168 181
157 168 181
157 168 181
158 169 181
158 169 181
158 169 181
159 169 181
159 169 181
159 169 181
160 170 181
161 170 181
161 170 181
161 170 181
162 171 181
162 171 181
163 171 181
164 172 181
164 172 181
165 172 181
166 173 181
166 173 181
168 173 181
168 174 181
169 174 181
170 175 181
171 175 181
172 176 181
223 237 255
138 156 181
135 155 181
130 152 181
137 156 181
223 237 255
223 237 255
223 237 255
223 237 255
223 237 255
130 152 181
223 237 255
223 236 255
223 237 255
133 154 181
152 164 181
223 237 255
141 158 181
223 236 255
223 237 255
141 158 181
146 161 181
223 236 255
223 237 255
223 236 255
223 237 255
130 152 181
223 237 255
143 159 181
223 237 255
223 237 255
135 155 181
223 237 255
223 237 255
223 237 255
223 237 255
133 154 181
130 152 181
83 68 57
42 11 13
131 102 80
91 71 57
130 101 80
90 68 31
89 71 57
115 96 80
124 99 80
132 102 80
84 68 57
129 101 80
125 99 80
83 68 57
130 101 80
84 65 28
86 69 57
114 95 80
127 100 80
46 37 27
84 68 57
220 235 255
131 153 181
106 46 122
0 0 0
65 34 34
109 85 94
119 123 127
133 154 181
129 152 181
135 155 181
11 115 124
19 173 176
4 96 51
6 90 82
19 174 176
49 39 53
30 104 87
131 153 181
202 225 255
201 224 255
133 154 181
200 224 255
0 10 1
131 153 181
139 157 181
132 153 181
131 153 181
130 152 181
94 163 122
59 109 86
61 110 86
90 159 122
93 162 122
198 223 255
63 75 38
38 49 27
40 50 27
131 153 181
131 153 181
131 153 181
128 45 146
5 16 65
50 9 56
182 181 181
180 180 181
180 180 181
177 178 181
176 178 181
175 177 181
174 176 181
172 175 181
170 175 181
170 174 181
169 174 181
169 174 181
168 173 181
167 173 181
166 173 181
165 172 181
164 172 181
164 172 181
164 171 181
163 171 181
163 171 181
161 170 181
161 170 181
161 170 181
160 170 181
160 170 181
159 169 181
159 169 181
159 169 181
158 169 181
158 169 181
158 169 181
157 168 181
157 168 181
157 168 181
157 168 181
156 168 181
156 168 181
156 168 181
156 168 181
156 168 181
155 167 181
155 167 181
155 167 181
155 167 181
155 167 181
155 167 181
155 167 181
155 167 181
155 167 181
155 167 181
154 167 181
154 167 181
155 167 181
154 167 181
154 167 181
155 167 181
155 167 181
155 167 181
155 167 181
155 167 181
155 167 181
155 167 181
155 167 181
155 168 181
155 168 181
156 168 181
156 168 181
156 168 181
157 168 181
157 168 181
157 168 181
158 169 181
158 169 181
158 169 181
159 169 181
159 169 181
159 169 181
160 169 181
160 170 181
160 170 181
161 170 181
161 170 181
162 171 181
162 171 181
163 171 181
164 171 181
164 172 181
165 172 181
165 172 181
166 173 181
166 173 181
167 173 181
168 174 181
169 174 181
170 174 181
170 175 181
172 176 181
139 157 181
223 237 255
142 159 181
223 237 255
223 237 255
133 154 181
133 154 181
223 237 255
223 237 255
129 152 181
223 237 255
223 237 255
135 155 181
139 157 181
223 237 255
223 237 255
141 158 181
133 154 181
223 237 255
223 237 255
223 237 255
129 152 181
131 153 181
223 237 255
149 162 181
0 0 0
141 158 181
223 237 255
144 160 181
137 156 181
223 237 255
145 160 181
137 156 181
223 237 255
143 159 181
146 161 181
153 165 181
223 237 255
140 105 80
93 65 40
133 102 80
84 69 57
128 100 80
85 69 57
138 104 80
61 28 72
131 102 80
66 74 72
116 96 80
128 100 80
59 41 34
21 6 1
128 100 80
122 98 80
130 101 80
0 0 0
53 41 28
84 86 77
28 49 33
218 234 255
0 0 0
187 87 245
171 127 133
106 84 94
113 87 94
139 126 72
211 230 255
134 154 181
135 155 181
17 167 176
16 163 176
140 157 181
12 120 124
128 151 181
3 46 0
7 63 30
134 154 181
144 160 181
128 151 181
133 154 181
114 151 67
201 224 255
49 55 82
134 154 181
1 25 13
138 156 181
95 163 122
59 109 86
199 223 255
87 136 68
86 156 122
60 110 86
41 50 27
0 0 0
63 112 86
40 50 27
145 160 181
135 155 181
1 3 1
125 45 146
179 64 206
1 3 6
181 180 181
180 180 181
178 179 181
176 178 181
175 177 181
173 176 181
173 176 181
171 175 181
170 175 181
169 174 181
169 174 181
168 174 181
167 173 181
167 173 181
166 173 181
165 172 181
164 172 181
164 172 181
163 171 181
163 171 181
163 171 181
162 171 181
162 170 181
161 170 181
160 170 181
160 170 181
160 170 181
160 170 181
159 169 181
159 169 181
159 169 181
158 169 181
158 169 181
158 169 181
157 168 181
157 168 181
157 168 181
156 168 181
156 168 181
157 168 181
156 168 181
156 168 181
156 168 181
156 168 181
155 167 181
156 168 181
155 168 181
156 168 181
155 167 181
155 167 181
155 167 181
155 168 181
155 167 181
155 168 181
155 167 181
155 167 181
155 167 181
155 167 181
156 168 181
156 168 181
156 168 181
156 168 181
156 168 181
156 168 181
156 168 181
156 168 181
157 168 181
157 168 181
157 168 181
157 168 181
157 168 181
157 168 181
158 169 181
158 169 181
159 169 181
159 169 181
159 169 181
160 170 181
160 170 181
160 170 181
161 170 181
161 170 181
162 171 181
162 171 181
163 171 181
163 171 181
164 171 181
164 172 181
165 172 181
165 172 181
166 173 181
166 173 181
167 173 181
168 174 181
169 174 181
170 175 181
171 175 181
172 176 181
141 158 181
130 152 181
152 164 181
144 160 181
140 158 181
136 155 181
132 153 181
129 151 181
223 237 255
146 161 181
223 237 255
135 155 181
132 153 181
130 152 181
134 154 181
223 237 255
132 153 181
144 160 181
138 156 181
151 163 181
130 152 181
145 160 181
131 153 181
139 157 181
150 163 181
223 237 255
149 162 181
223 237 255
140 158 181
151 163 181
134 154 181
223 237 255
140 157 181
144 159 181
150 163 181
153 164 181
223 237 255
91 71 57
31 17 7
135 103 80
81 68 57
85 69 57
116 96 80
118 97 80
119 97 80
126 100 80
0 0 0
25 56 36
135 103 80
59 32 18
36 20 4
131 102 80
130 101 80
137 104 80
123 99 80
128 101 80
82 68 57
0 0 0
40 42 38
87 72 121
126 60 173
184 86 245
214 232 255
96 49 49
141 158 181
130 152 181
138 156 181
129 152 181
146 161 181
18 172 176
17 168 176
13 120 124
11 76 55
31 106 87
49 158 123
9 100 59
2 2 7
92 115 177
137 156 181
129 152 181
21 21 37
19 7 29
202 225 255
21 38 49
145 160 181
25 77 64
146 161 181
92 161 122
85 155 122
1 18 9
32 86 56
62 111 86
45 53 27
83 154 122
45 53 27
57 71 38
137 156 181
77 64 104
47 29 87
1 0 0
182 64 206
59 92 61
181 180 181
179 179 181
177 178 181
177 178 181
175 177 181
174 177 181
172 176 181
171 175 181
171 175 181
169 174 181
169 174 181
169 174 181
168 174 181
167 173 181
166 173 181
165 172 181
165 172 181
164 172 181
164 172 181
163 171 181
163 171 181
162 171 181
162 171 181
161 170 181
161 170 181
161 170 181
160 170 181
160 170 181
159 169 181
159 169 181
159 169 181
159 169 181
158 169 181
158 169 181
158 169 181
158 169 181
158 169 181
157 168 181
157 168 181
157 168 181
157 168 181
156 168 181
156 168 181
156 168 181
156 168 181
156 168 181
156 168 181
156 168 181
156 168 181
156 168 181
156 168 181
156 168 181
156 168 181
156 168 181
156 168 181
155 168 181
156 168 181
156 168 181
156 168 181
156 168 181
156 168 181
156 168 181
156 168 181
156 168 181
157 168 181
157 168 181
157 168 181
157 169 181
158 169 181
158 169 181
157 169 181
158 169 181
159 169 181
159 169 181
159 169 181
159 169 181
160 170 181
160 170 181
160 170 181
161 170 181
162 170 181
162 171 181
162 171 181
162 171 181
163 171 181
163 171 181
164 171 181
164 172 181
165 172 181
166 173 181
166 173 181
167 173 181
167 173 181
169 174 181
169 174 181
170 175 181
171 175 181
172 175 181
152 164 181
154 165 181
133 154 181
144 160 181
133 154 181
156 166 181
134 154 181
145 160 181
147 161 181
152 164 181
130 152 181
142 159 181
133 154 181
154 165 181
131 153 181
137 156 181
134 154 181
130 152 181
144 159 181
146 161 181
134 154 181
128 151 181
143 159 181
130 152 181
142 159 181
132 153 181
130 152 181
156 166 181
153 165 181
134 154 181
130 152 181
133 154 181
128 151 181
146 161 181
133 154 181
155 166 181
130 152 181
140 158 181
129 101 80
90 71 57
133 102 80
88 70 57
122 98 80
31 19 3
125 99 80
87 69 57
82 61 40
123 99 80
131 101 80
84 68 57
15 32 1
133 103 80
133 102 80
130 101 80
134 103 80
130 101 80
120 98 80
128 101 80
97 76 121
221 235 255
184 86 245
111 37 77
215 232 255
109 85 94
44 150 123
132 153 181
91 110 30
128 151 181
140 158 181
18 171 176
17 165 176
208 228 255
53 83 46
9 99 59
46 154 123
2 12 7
70 78 117
0 16 0
6 7 17
131 153 181
144 159 181
133 154 181
132 153 181
8 70 45
59 110 108
72 68 63
117 218 216
89 159 122
88 158 122
12 48 18
38 49 27
201 225 255
0 0 0
86 156 122
200 224 255
90 159 122
99 87 147
63 39 46
187 65 206
29 7 21
190 66 206
182 181 181
180 180 181
179 179 181
176 178 181
176 177 181
174 177 181
173 176 181
173 176 181
172 176 181
171 175 181
170 175 181
169 174 181
168 174 181
168 174 181
167 173 181
166 173 181
166 173 181
165 172 181
165 172 181
164 172 181
163 171 181
163 171 181
163 171 181
162 171 181
162 171 181
162 171 181
161 170 181
161 170 181
160 170 181
160 170 181
160 170 181
160 170 181
159 169 181
159 169 181
159 169 181
159 169 181
158 169 181
158 169 181
158 169 181
157 169 181
158 169 181
157 168 181
157 168 181
157 168 181
157 168 181
157 168 181
156 168 181
156 168 181
156 168 181
157 168 181
156 168 181
157 168 181
157 168 181
156 168 181
157 168 181
156 168 181
156 168 181
157 168 181
156 168 181
157 168 181
157 168 181
157 168 181
157 168 181
157 168 181
157 168 181
157 168 181
157 168 181
158 169 181
158 169 181
158 169 181
158 169 181
158 169 181
159 169 181
159 169 181
159 169 181
160 170 181
160 170 181
160 170 181
161 170 181
161 170 181
161 170 181
162 171 181
162 171 181
162 171 181
163 171 181
163 171 181
164 172 181
164 172 181
165 172 181
165 172 181
166 173 181
167 173 181
167 173 181
168 174 181
169 174 181
169 174 181
170 175 181
171 175 181
171 175 181
130 152 181
136 155 181
150 163 181
141 158 181
130 152 181
145 160 181
129 152 181
130 152 181
147 161 181
136 155 181
133 154 181
156 166 181
130 152 181
132 153 181
137 156 181
131 153 181
133 154 181
133 154 181
136 155 181
136 155 181
128 151 181
132 153 181
145 160 181
134 154 181
133 154 181
131 152 181
129 152 181
130 152 181
131 153 181
134 154 181
128 151 181
131 153 181
131 153 181
133 154 181
131 153 181
132 153 181
146 160 181
132 153 181
126 100 80
118 93 44
128 100 80
133 102 80
138 104 80
120 98 80
84 69 57
82 68 57
124 99 80
46 6 38
120 98 80
124 99 80
138 105 80
134 103 80
89 71 57
131 102 80
21 6 1
82 68 57
89 70 57
38 95 64
84 71 121
83 70 121
216 233 255
135 155 181
106 84 94
192 225 60
139 157 181
139 157 181
144 160 181
129 152 181
40 61 33
60 88 46
2 19 15
129 152 181
44 150 123
62 212 174
62 212 174
27 66 38
0 0 0
61 211 174
109 115 165
205 227 255
136 155 181
204 226 255
132 153 181
51 68 48
107 99 90
78 150 152
122 222 216
77 149 152
83 154 122
87 157 122
4 13 5
63 75 38
0 0 0
62 74 38
101 87 147
94 84 147
50 10 68
0 0 0
168 62 206
118 29 65
163 171 181
182 181 181
180 180 181
179 179 181
176 178 181
175 177 181
175 177 181
174 177 181
173 176 181
172 176 181
171 175 181
170 175 181
169 174 181
168 174 181
168 174 181
167 173 181
166 173 181
166 173 181
166 172 181
165 172 181
165 172 181
164 172 181
164 172 181
163 171 181
163 171 181
162 171 181
162 171 181
162 171 181
161 170 181
161 170 181
161 170 181
160 170 181
160 170 181
160 170 181
159 169 181
159 169 181
159 169 181
159 169 181
159 169 181
158 169 181
159 169 181
158 169 181
157 169 181
158 169 181
158 169 181
158 169 181
157 168 181
157 168 181
157 168 181
157 168 181
157 168 181
157 168 181
157 168 181
157 168 181
157 168 181
157 168 181
157 168 181
157 168 181
157 168 181
157 168 181
158 169 181
158 169 181
158 169 181
158 169 181
158 169 181
158 169 181
158 169 181
158 169 181
158 169 181
159 169 181
159 169 181
159 169 181
159 169 181
160 170 181
159 169 181
160 170 181
160 170 181
160 170 181
161 170 181
161 170 181
162 170 181
162 171 181
162 171 181
162 171 181
163 171 181
164 171 181
164 172 181
165 172 181
164 172 181
165 172 181
166 172 181
166 173 181
167 173 181
168 173 181
168 174 181
169 174 181
169 174 181
170 175 181
171 175 181
172 176 181
134 154 181
152 164 181
141 158 181
136 155 181
145 160 181
137 156 181
154 165 181
143 159 181
131 153 181
131 153 181
143 159 181
136 155 181
131 153 181
129 152 181
144 159 181
146 161 181
130 152 181
142 159 181
135 155 181
0 0 0
133 154 181
141 158 181
134 154 181
147 161 181
141 158 181
136 156 181
144 160 181
138 156 181
146 161 181
141 158 181
143 159 181
131 153 181
128 151 181
134 154 181
134 154 181
133 154 181
140 158 181
33 78 45
131 102 80
133 102 80
130 101 80
127 100 80
40 22 12
127 100 80
118 97 80
132 102 80
82 68 57
130 101 80
132 102 80
126 100 80
117 96 80
127 100 80
139 105 80
113 66 34
124 99 80
82 68 57
87 69 57
57 31 18
42 67 153
28 49 102
63 19 42
173 83 245
170 127 133
131 153 181
136 155 181
223 236 255
52 82 46
136 155 181
56 85 46
129 152 181
92 59 123
129 152 181
0 103 0
64 214 174
0 0 0
58 206 174
4 3 1
33 57 55
100 111 165
133 154 181
134 154 181
131 153 181
10 2 10
113 214 216
112 119 127
102 61 174
52 154 103
113 214 216
76 148 152
129 152 181
88 158 122
84 155 122
99 95 90
142 159 181
100 87 147
43 27 32
48 10 68
98 57 65
111 42 146
106 27 65
182 181 181
180 180 181
179 179 181
178 179 181
176 178 181
175 177 181
174 177 181
173 176 181
172 176 181
172 175 181
171 175 181
170 175 181
170 174 181
169 174 181
169 174 181
168 173 181
167 173 181
167 173 181
166 173 181
166 172 181
165 172 181
165 172 181
164 172 181
164 171 181
163 171 181
163 171 181
163 171 181
162 171 181
162 171 181
162 171 181
161 170 181
161 170 181
161 170 181
161 170 181
160 170 181
160 170 181
159 169 181
159 169 181
159 169 181
159 169 181
159 169 181
159 169 181
159 169 181
158 169 181
158 169 181
158 169 181
158 169 181
158 169 181
158 169 181
158 169 181
158 169 181
158 169 181
158 169 181
157 168 181
157 168 181
158 169 181
158 169 181
158 169 181
158 169 181
158 169 181
158 169 181
158 169 181
158 169 181
158 169 181
158 169 181
158 169 181
159 169 181
159 169 181
159 169 181
160 170 181
159 169 181
160 170 181
160 170 181
160 170 181
160 170 181
161 170 181
161 170 181
161 170 181
161 170 181
161 170 181
162 171 181
162 171 181
163 171 181
163 171 181
163 171 181
164 172 181
164 172 181
165 172 181
165 172 181
166 173 181
166 173 181
167 173 181
167 173 181
168 173 181
168 174 181
169 174 181
169 174 181
170 175 181
171 175 181
171 175 181
134 154 181
129 152 181
137 156 181
147 161 181
134 154 181
146 160 181
130 152 181
142 159 181
131 153 181
145 160 181
135 155 181
135 155 181
140 158 181
152 164 181
130 152 181
134 154 181
130 152 181
132 153 181
135 155 181
142 159 181
136 155 181
130 152 181
132 153 181
129 152 181
134 155 181
133 154 181
128 151 181
150 163 181
130 152 181
130 152 181
140 157 181
128 151 181
148 162 181
150 163 181
146 161 181
139 157 181
129 152 181
138 157 181
130 152 181
140 105 80
137 104 80
134 103 80
141 105 80
135 103 80
82 68 57
124 99 80
132 102 80
124 99 80
70 11 48
129 101 80
84 69 57
0 0 0
2 25 6
91 71 57
85 69 57
130 101 80
128 100 80
215 232 255
140 157 181
219 234 255
180 85 245
132 153 181
164 124 133
120 81 174
215 232 255
134 154 181
81 122 66
75 118 66
21 45 12
129 152 181
222 236 255
134 154 181
62 212 174
63 214 174
0 0 0
42 147 123
99 110 165
104 113 165
68 51 52
134 154 181
131 152 181
133 154 181
40 75 98
124 225 216
117 218 216
77 149 152
119 219 216
3 7 3
208 228 255
129 152 181
153 164 181
128 151 181
111 119 127
132 153 181
57 84 124
67 40 46
140 122 208
152 127 208
151 127 208
136 121 208
181 180 181
181 180 181
179 179 181
178 179 181
177 178 181
175 177 181
175 177 181
173 176 181
172 176 181
172 175 181
171 175 181
170 175 181
170 175 181
169 174 181
169 174 181
168 174 181
167 173 181
167 173 181
167 173 181
166 173 181
165 172 181
165 172 181
165 172 181
165 172 181
164 172 181
164 172 181
163 171 181
163 171 181
163 171 181
162 171 181
162 171 181
162 171 181
161 170 181
161 170 181
161 170 181
161 170 181
161 170 181
161 170 181
160 170 181
160 170 181
159 169 181
159 169 181
159 169 181
159 169 181
159 169 181
159 169 181
159 169 181
159 169 181
159 169 181
159 169 181
159 169 181
159 169 181
159 169 181
159 169 181
159 169 181
159 169 181
159 169 181
158 169 181
158 169 181
159 169 181
158 169 181
158 169 181
159 169 181
159 169 181
159 169 181
160 170 181
159 169 181
160 170 181
160 170 181
160 170 181
160 170 181
160 170 181
160 170 181
160 170 181
161 170 181
161 170 181
161 170 181
162 171 181
162 171 181
162 171 181
163 171 181
162 171 181
163 171 181
164 172 181
164 172 181
164 172 181
165 172 181
165 172 181
166 172 181
166 173 181
166 173 181
167 173 181
167 173 181
168 174 181
169 174 181
169 174 181
170 174 181
171 175 181
171 175 181
172 175 181
152 164 181
133 154 181
138 156 181
133 154 181
131 153 181
133 154 181
135 155 181
135 155 181
129 152 181
130 152 181
132 153 181
136 155 181
137 156 181
136 155 181
130 152 181
153 165 181
134 154 181
155 166 181
147 161 181
146 161 181
133 154 181
139 157 181
138 156 181
149 162 181
132 153 181
143 159 181
137 156 181
146 161 181
131 153 181
129 152 181
134 154 181
132 153 181
129 152 181
130 152 181
145 160 181
133 154 181
129 152 181
137 156 181
83 68 57
4 6 2
98 84 70
130 101 80
83 68 57
140 105 80
59 32 18
49 50 40
140 105 80
122 98 80
131 102 80
82 68 57
133 103 80
137 104 80
128 101 80
68 52 40
118 92 28
130 101 80
118 97 80
132 102 80
143 159 181
220 235 255
55 63 49
165 210 60
79 51 17
117 99 19
216 233 255
48 53 9
148 162 181
55 85 46
0 0 0
0 0 0
136 155 181
130 152 181
132 153 181
59 207 174
19 47 27
60 208 174
20 107 95
100 111 165
101 111 165
144 160 181
136 156 181
21 90 66
0 47 17
0 0 0
209 229 255
107 209 216
109 211 216
81 152 152
86 61 119
133 117 174
29 12 39
131 153 181
129 152 181
207 228 255
30 12 40
142 123 208
142 123 208
128 47 199
159 130 208
28 97 35
181 180 181
179 179 181
178 179 181
177 178 181
177 178 181
175 177 181
175 177 181
173 176 181
173 176 181
172 176 181
172 175 181
171 175 181
170 175 181
170 174 181
169 174 181
168 174 181
168 173 181
168 173 181
167 173 181
166 173 181
166 173 181
166 173 181
165 172 181
165 172 181
164 172 181
164 172 181
164 171 181
163 171 181
163 171 181
163 171 181
163 171 181
162 171 181
162 171 181
162 171 181
162 170 181
161 170 181
161 170 181
161 170 181
161 170 181
160 170 181
160 170 181
160 170 181
160 170 181
160 170 181
160 170 181
160 170 181
160 170 181
160 170 181
160 169 181
160 170 181
160 170 181
160 170 181
159 169 181
159 169 181
160 170 181
159 169 181
160 169 181
159 169 181
159 169 181
160 170 181
160 170 181
160 170 181
160 170 181
160 170 181
160 170 181
160 170 181
160 170 181
161 170 181
161 170 181
160 170 181
161 170 181
161 170 181
161 170 181
161 170 181
162 171 181
162 171 181
162 171 181
162 171 181
163 171 181
163 171 181
163 171 181
164 172 181
163 171 181
164 172 181
165 172 181
165 172 181
165 172 181
165 172 181
166 173 181
166 173 181
167 173 181
167 173 181
168 174 181
168 174 181
169 174 181
169 174 181
170 175 181
171 175 181
171 175 181
172 176 181
134 154 181
151 163 181
134 154 181
132 153 181
131 153 181
152 164 181
145 160 181
150 163 181
136 155 181
133 154 181
153 165 181
155 166 181
149 162 181
151 164 181
130 152 181
130 152 181
133 154 181
144 160 181
131 153 181
133 154 181
133 154 181
129 152 181
139 157 181
128 151 181
132 153 181
131 153 181
140 157 181
135 155 181
134 154 181
132 153 181
130 152 181
130 152 181
136 155 181
135 155 181
131 153 181
131 153 181
134 154 181
118 88 56
86 69 57
129 101 80
138 104 80
135 103 80
122 98 80
133 102 80
27 67 45
51 17 40
131 101 80
84 68 57
128 101 80
139 105 80
138 104 80
122 98 80
0 0 0
60 61 54
119 97 80
12 6 9
77 44 25
49 56 26
223 236 255
129 152 181
181 209 223
123 140 134
184 220 60
132 111 19
2 3 0
46 71 84
216 233 255
80 122 66
53 113 19
48 99 105
141 155 123
129 151 181
129 152 181
61 210 174
70 225 174
60 209 174
105 113 165
104 113 165
49 37 37
128 151 181
41 144 121
60 90 58
61 137 130
35 204 147
209 229 255
117 218 216
111 213 216
207 174 247
113 72 78
126 115 174
0 0 0
144 160 181
156 166 181
210 229 255
153 128 208
148 161 53
145 124 208
144 124 208
95 56 65
184 182 181
182 181 181
179 179 181
178 179 181
177 178 181
176 178 181
176 178 181
175 177 181
174 177 181
173 176 181
173 176 181
172 176 181
171 175 181
170 175 181
170 175 181
169 174 181
169 174 181
169 174 181
168 174 181
167 173 181
167 173 181
166 173 181
166 173 181
166 173 181
165 172 181
165 172 181
165 172 181
164 172 181
164 172 181
164 172 181
163 171 181
164 171 181
163 171 181
162 171 181
162 171 181
163 171 181
163 171 181
162 171 181
162 171 181
161 170 181
161 170 181
162 170 181
161 170 181
161 170 181
161 170 181
161 170 181
160 170 181
160 170 181
161 170 181
160 170 181
160 170 181
160 170 181
160 170 181
160 170 181
160 170 181
160 170 181
160 170 181
160 170 181
161 170 181
160 170 181
160 170 181
161 170 181
160 170 181
161 170 181
160 170 181
160 170 181
160 170 181
161 170 181
161 170 181
162 170 181
162 171 181
161 170 181
161 170 181
162 171 181
162 171 181
162 171 181
162 171 181
163 171 181
163 171 181
163 171 181
163 171 181
163 171 181
164 172 181
164 172 181
164 172 181
165 172 181
166 173 181
166 173 181
166 173 181
167 173 181
167 173 181
167 173 181
168 173 181
169 174 181
169 174 181
169 174 181
170 174 181
170 175 181
171 175 181
172 175 181
172 176 181
129 152 181
130 152 181
132 153 181
129 152 181
136 155 181
136 155 181
135 155 181
138 156 181
141 158 181
130 152 181
130 152 181
134 154 181
131 153 181
129 152 181
150 163 181
133 154 181
128 151 181
128 151 181
136 155 181
151 163 181
166 58 74
132 153 181
165 58 74
133 154 181
132 153 181
134 154 181
152 164 181
143 159 181
148 162 181
130 152 181
133 154 181
140 157 181
135 155 181
131 152 181
152 164 181
129 152 181
135 155 181
142 159 181
139 157 181
31 31 17
82 68 57
92 71 57
133 103 80
130 101 80
134 103 80
134 103 80
140 105 80
81 67 57
136 103 80
134 103 80
14 32 8
128 101 80
131 102 80
116 96 80
120 98 80
138 104 80
90 71 57
171 132 240
61 35 57
194 217 223
139 157 181
139 149 134
204 164 28
129 110 19
218 234 255
133 154 181
37 36 81
76 118 66
79 121 66
147 161 181
139 157 181
139 157 181
217 233 255
31 60 28
52 138 89
221 236 255
98 110 165
134 154 181
92 104 90
128 151 181
97 204 183
89 197 183
33 96 27
94 201 183
111 212 216
135 155 181
190 167 247
86 61 119
202 172 247
145 123 174
200 171 247
140 157 181
86 5 19
123 10 62
210 230 255
64 39 46
60 38 46
137 121 208
183 181 181
182 181 181
181 180 181
180 180 181
178 179 181
178 179 181
176 178 181
175 177 181
175 177 181
174 177 181
174 177 181
173 176 181
172 176 181
172 175 181
171 175 181
170 175 181
170 175 181
169 174 181
169 174 181
168 174 181
168 174 181
168 173 181
167 173 181
167 173 181
167 173 181
166 173 181
166 173 181
165 172 181
165 172 181
165 172 181
164 172 181
164 172 181
164 171 181
164 172 181
164 171 181
163 171 181
163 171 181
163 171 181
162 171 181
162 171 181
162 171 181
162 171 181
162 171 181
162 171 181
161 170 181
162 171 181
161 170 181
161 170 181
161 170 181
161 170 181
161 170 181
161 170 181
161 170 181
161 170 181
161 170 181
161 170 181
161 170 181
161 170 181
160 170 181
161 170 181
161 170 181
161 170 181
161 170 181
161 170 181
161 170 181
162 170 181
162 170 181
162 171 181
162 170 181
161 170 181
162 171 181
162 171 181
162 171 181
162 171 181
163 171 181
162 171 181
163 171 181
164 171 181
163 171 181
163 171 181
164 172 181
164 172 181
165 172 181
165 172 181
165 172 181
165 172 181
166 172 181
166 173 181
167 173 181
167 173 181
167 173 181
167 173 181
168 174 181
168 174 181
168 174 181
169 174 181
170 174 181
170 175 181
171 175 181
171 175 181
172 176 181
173 176 181
142 159 181
131 153 181
151 163 181
122 182 167
121 181 167
0 0 0
137 156 181
128 187 167
135 155 181
130 152 181
141 158 181
141 158 181
135 155 181
131 153 181
136 155 181
134 154 181
128 151 181
0 0 0
143 159 181
159 57 74
156 57 74
158 57 74
187 62 74
163 58 74
133 154 181
151 164 181
145 160 181
131 153 181
138 157 181
151 163 181
130 152 181
135 155 181
134 154 181
130 152 181
144 160 181
147 161 181
131 153 181
81 67 57
142 158 181
51 25 37
132 102 80
86 63 40
135 103 80
139 105 80
129 101 80
47 41 35
131 102 80
138 104 80
131 102 80
80 45 32
135 103 80
121 98 80
117 92 44
130 101 80
131 102 80
0 0 0
97 84 70
83 68 57
136 155 181
177 207 223
135 155 181
220 235 255
113 74 177
211 167 28
136 155 181
60 97 118
182 119 247
216 233 255
217 233 255
146 161 181
134 154 181
133 154 181
176 142 37
49 134 89
49 134 89
58 44 16
221 235 255
19 6 16
130 148 127
59 135 130
88 195 183
97 204 183
97 204 183
214 231 255
117 120 137
133 154 181
184 165 247
126 115 174
127 115 174
194 169 247
132 159 73
37 58 67
183 181 181
122 8 59
135 210 76
10 11 0
182 181 181
138 121 208
184 182 181
182 181 181
181 180 181
179 179 181
178 179 181
177 178 181
176 178 181
176 178 181
175 177 181
174 177 181
173 176 181
173 176 181
172 176 181
172 176 181
171 175 181
171 175 181
170 175 181
170 175 181
169 174 181
169 174 181
168 174 181
168 174 181
168 174 181
167 173 181
167 173 181
167 173 181
166 173 181
166 173 181
166 172 181
166 172 181
166 172 181
165 172 181
164 172 181
165 172 181
164 172 181
164 172 181
164 172 181
163 171 181
163 171 181
163 171 181
163 171 181
163 171 181
163 171 181
162 171 181
162 171 181
163 171 181
163 171 181
162 171 181
162 171 181
162 171 181
162 171 181
162 171 181
162 171 181
162 171 181
162 171 181
162 171 181
162 171 181
162 171 181
161 170 181
162 171 181
162 171 181
162 171 181
162 171 181
162 171 181
162 171 181
163 171 181
163 171 181
163 171 181
163 171 181
162 171 181
163 171 181
163 171 181
163 171 181
163 171 181
163 171 181
163 171 181
163 171 181
164 171 181
164 172 181
164 172 181
165 172 181
165 172 181
165 172 181
165 172 181
165 172 181
166 173 181
166 173 181
167 173 181
167 173 181
167 173 181
167 173 181
168 174 181
169 174 181
169 174 181
169 174 181
170 175 181
170 175 181
171 175 181
171 175 181
172 176 181
173 176 181
173 176 181
131 152 181
141 158 181
130 152 181
131 153 181
134 155 181
141 158 181
55 58 37
131 189 167
114 177 167
136 156 181
138 156 181
82 150 171
130 152 181
128 151 181
138 156 181
137 156 181
141 158 181
132 153 181
113 40 52
113 40 52
165 58 74
159 57 74
165 58 74
166 218 225
130 152 181
52 0 0
130 152 181
136 156 181
131 153 181
140 158 181
130 152 181
131 153 181
145 160 181
134 154 181
130 152 181
142 158 181
138 156 181
138 156 181
85 69 57
126 100 80
115 87 56
27 14 3
81 44 59
82 68 57
122 98 80
81 76 57
0 0 0
137 104 80
95 73 57
94 65 40
128 100 80
136 104 80
8 1 0
138 104 80
85 69 57
18 52 25
137 104 80
95 73 57
223 236 255
136 155 181
130 152 181
3 32 10
197 162 28
213 168 28
44 13 41
71 105 118
114 64 97
129 152 181
96 198 210
97 199 210
131 153 181
220 235 255
119 98 26
187 146 37
156 166 181
187 142 26
133 99 57
147 157 127
127 146 127
146 160 181
94 202 183
84 191 183
91 198 183
129 152 181
140 157 181
135 155 181
91 151 177
136 119 174
188 167 247
186 166 247
129 152 181
203 16 87
185 15 87
182 15 87
133 208 76
214 232 255
102 153 54
214 232 255
183 182 181
182 181 181
180 180 181
179 179 181
179 179 181
178 179 181
177 178 181
176 178 181
175 177 181
175 177 181
174 176 181
173 176 181
173 176 181
172 176 181
172 175 181
171 175 181
171 175 181
171 175 181
170 175 181
169 174 181
169 174 181
169 174 181
168 174 181
169 174 181
168 174 181
167 173 181
167 173 181
166 173 181
166 173 181
166 173 181
166 173 181
165 172 181
166 172 181
165 172 181
165 172 181
164 172 181
165 172 181
164 172 181
164 172 181
164 172 181
164 172 181
164 172 181
163 171 181
163 171 181
164 172 181
163 171 181
163 171 181
163 171 181
163 171 181
163 171 181
163 171 181
163 171 181
163 171 181
163 171 181
162 171 181
163 171 181
162 171 181
163 171 181
162 171 181
163 171 181
163 171 181
162 171 181
163 171 181
163 171 181
163 171 181
163 171 181
163 171 181
163 171 181
163 171 181
164 171 181
164 171 181
164 172 181
164 172 181
164 171 181
164 172 181
164 172 181
165 172 181
164 172 181
165 172 181
165 172 181
165 172 181
165 172 181
166 173 181
166 173 181
166 173 181
167 173 181
167 173 181
167 173 181
168 173 181
168 173 181
168 174 181
168 174 181
169 174 181
169 174 181
170 175 181
170 175 181
171 175 181
171 175 181
171 175 181
172 176 181
173 176 181
173 176 181
135 155 181
130 152 181
114 177 167
129 152 181
117 179 167
122 183 167
128 187 167
0 0 0
77 123 118
145 160 181
61 109 120
90 126 84
94 160 171
82 150 171
92 159 171
144 159 181
80 148 171
87 154 171
95 46 48
181 61 74
163 58 74
123 42 52
163 58 74
174 60 74
172 223 225
41 32 14
180 61 74
155 212 225
146 161 181
148 162 181
150 163 181
133 154 181
86 229 179
0 0 0
131 153 181
133 154 181
130 152 181
133 154 181
133 154 181
86 69 57
132 102 80
137 104 80
135 103 80
133 102 80
135 103 80
137 104 80
84 68 57
17 7 2
80 67 57
138 104 80
100 85 70
81 67 57
135 103 80
131 102 80
28 61 32
138 104 80
140 105 80
131 153 181
152 164 181
162 77 33
127 136 108
222 236 255
162 106 251
104 65 153
99 64 153
204 226 255
176 95 137
144 190 153
71 72 16
46 109 66
78 83 22
162 136 37
173 141 37
135 121 22
0 0 0
182 167 109
182 208 180
186 210 180
17 19 1
0 0 0
137 186 221
218 234 255
182 181 181
142 159 181
143 57 217
162 61 217
32 34 113
107 72 168
177 162 247
201 172 247
150 163 181
149 162 181
129 152 181
186 15 87
169 14 87
188 15 87
146 218 76
110 119 127
183 181 181
181 180 181
180 180 181
179 179 181
179 179 181
178 179 181
177 178 181
176 178 181
176 177 181
175 177 181
174 177 181
173 176 181
173 176 181
173 176 181
172 176 181
172 176 181
172 175 181
171 175 181
171 175 181
170 175 181
170 175 181
170 174 181
169 174 181
169 174 181
168 174 181
168 174 181
168 174 181
167 173 181
168 174 181
167 173 181
167 173 181
167 173 181
166 173 181
166 173 181
165 172 181
166 173 181
165 172 181
165 172 181
165 172 181
165 172 181
165 172 181
164 172 181
165 172 181
164 172 181
164 172 181
164 172 181
163 171 181
164 172 181
164 171 181
164 172 181
164 172 181
164 172 181
164 172 181
164 172 181
163 171 181
164 172 181
164 172 181
164 172 181
163 171 181
164 171 181
163 171 181
163 171 181
163 171 181
163 171 181
164 171 181
164 171 181
163 171 181
164 172 181
164 172 181
164 172 181
165 172 181
164 172 181
165 172 181
165 172 181
165 172 181
165 172 181
165 172 181
165 172 181
166 173 181
166 173 181
166 173 181
166 173 181
166 173 181
167 173 181
167 173 181
168 174 181
168 174 181
168 174 181
168 174 181
169 174 181
169 174 181
169 174 181
169 174 181
170 174 181
170 175 181
171 175 181
171 175 181
172 175 181
172 176 181
172 176 181
173 176 181
174 176 181
152 164 181
77 123 118
123 217 244
72 79 52
110 174 167
117 179 167
0 0 0
124 184 167
109 173 167
115 177 167
77 83 113
146 160 181
94 160 171
95 161 171
95 161 171
0 2 2
94 160 171
130 152 181
124 42 52
183 61 74
175 60 74
55 29 35
113 27 23
163 58 74
143 145 145
176 60 74
0 0 0
154 211 225
141 158 181
166 218 225
133 154 181
131 153 181
144 159 181
140 158 181
81 222 179
135 155 181
85 228 179
135 155 181
145 160 181
115 87 56
82 68 57
124 99 80
133 102 80
138 104 80
47 10 17
136 104 80
139 105 80
129 101 80
82 68 57
85 69 57
51 30 18
0 0 0
129 101 80
0 0 2
128 100 80
0 0 0
81 67 57
108 78 57
222 236 255
222 236 255
132 153 181
105 174 241
165 215 70
83 130 12
147 161 181
218 234 255
110 127 140
108 24 53
181 172 102
180 209 49
218 234 255
177 199 143
169 139 37
72 61 175
93 19 50
138 156 181
183 209 180
62 7 18
147 161 181
171 169 164
156 198 221
131 153 181
154 197 221
130 152 181
157 60 217
164 61 217
69 76 138
147 81 153
118 75 168
162 105 238
139 157 181
0 0 0
90 224 153
175 15 87
172 15 87
57 179 188
57 178 188
110 118 127
183 182 181
182 181 181
180 180 181
179 179 181
179 179 181
178 179 181
177 178 181
177 178 181
176 178 181
175 177 181
174 177 181
174 177 181
174 177 181
173 176 181
173 176 181
172 176 181
172 176 181
172 175 181
171 175 181
171 175 181
170 175 181
170 175 181
170 174 181
169 174 181
169 174 181
169 174 181
168 174 181
168 174 181
168 174 181
167 173 181
168 173 181
167 173 181
167 173 181
167 173 181
167 173 181
167 173 181
166 173 181
166 173 181
166 173 181
165 172 181
166 172 181
165 172 181
165 172 181
165 172 181
165 172 181
165 172 181
165 172 181
165 172 181
164 172 181
164 172 181
165 172 181
164 172 181
165 172 181
165 172 181
165 172 181
164 172 181
164 172 181
164 172 181
164 172 181
164 172 181
164 172 181
165 172 181
164 172 181
165 172 181
165 172 181
165 172 181
165 172 181
165 172 181
165 172 181
165 172 181
165 172 181
166 172 181
166 172 181
166 172 181
166 173 181
166 173 181
166 173 181
166 173 181
167 173 181
167 173 181
167 173 181
167 173 181
167 173 181
168 173 181
168 174 181
168 174 181
168 174 181
169 174 181
169 174 181
169 174 181
169 174 181
170 175 181
171 175 181
171 175 181
171 175 181
171 175 181
172 176 181
172 176 181
172 176 181
173 176 181
174 176 181
174 177 181
152 164 181
116 210 244
118 180 167
137 228 244
116 178 167
51 123 111
110 174 167
109 173 167
6 28 16
88 155 171
96 161 171
87 154 171
73 144 164
89 156 171
82 150 171
95 161 171
112 40 52
179 60 74
18 70 62
159 57 74
124 158 159
38 72 61
112 151 159
172 222 225
173 223 225
168 220 225
150 209 225
155 212 225
153 211 225
130 152 181
15 43 51
132 153 181
81 222 179
87 230 179
53 152 126
79 219 179
128 151 181
155 165 181
131 153 181
122 98 80
131 102 80
61 40 42
85 69 57
65 22 23
89 70 57
41 98 64
83 68 57
19 6 5
11 8 1
134 103 80
83 68 57
139 105 80
29 82 21
140 105 80
136 104 80
65 51 40
139 105 80
138 104 80
221 235 255
222 236 255
222 236 255
145 160 181
163 213 70
111 195 222
132 153 181
111 128 140
150 163 181
86 13 112
218 234 255
42 101 119
108 114 246
138 156 181
218 234 255
137 156 181
77 63 175
150 36 163
24 0 12
162 126 165
150 163 181
138 123 230
159 200 221
131 152 181
221 235 255
132 153 181
219 234 255
153 59 217
166 61 217
69 76 138
149 101 238
103 71 168
130 152 181
94 229 153
89 223 153
62 157 108
78 78 167
71 75 167
28 97 80
183 181 181
183 181 181
182 181 181
181 180 181
179 179 181
179 179 181
178 179 181
178 178 181
177 178 181
176 178 181
176 177 181
175 177 181
175 177 181
174 177 181
174 176 181
173 176 181
173 176 181
173 176 181
172 176 181
172 176 181
171 175 181
171 175 181
171 175 181
171 175 181
170 175 181
170 175 181
170 175 181
169 174 181
169 174 181
169 174 181
168 174 181
168 174 181
168 174 181
168 174 181
167 173 181
167 173 181
167 173 181
167 173 181
167 173 181
167 173 181
166 173 181
166 173 181
166 173 181
166 173 181
166 173 181
166 173 181
166 173 181
166 173 181
166 173 181
165 172 181
166 173 181
166 172 181
165 172 181
166 173 181
165 172 181
165 172 181
166 172 181
166 173 181
165 172 181
166 173 181
165 172 181
165 172 181
165 172 181
166 173 181
165 172 181
165 172 181
165 172 181
165 172 181
166 172 181
166 173 181
166 173 181
166 173 181
167 173 181
166 173 181
166 173 181
167 173 181
167 173 181
167 173 181
167 173 181
167 173 181
167 173 181
168 173 181
168 173 181
168 174 181
168 174 181
169 174 181
169 174 181
169 174 181
169 174 181
170 174 181
170 175 181
170 175 181
170 175 181
171 175 181
171 175 181
171 175 181
172 176 181
173 176 181
172 176 181
173 176 181
173 176 181
174 177 181
175 177 181
128 220 244
133 225 244
122 216 244
117 211 244
120 214 244
124 184 167
123 183 167
115 178 167
80 148 171
79 147 171
81 149 171
82 150 171
81 149 171
182 152 165
205 161 165
71 149 150
88 155 171
199 159 165
115 41 52
88 155 171
150 59 65
173 59 74
174 223 225
158 214 225
160 215 225
108 149 159
150 209 225
107 148 159
162 216 225
170 221 225
151 164 181
31 79 76
140 157 181
74 214 179
83 225 179
85 227 179
130 152 181
145 160 181
126 100 80
84 69 57
83 68 57
123 99 80
116 34 56
131 102 80
97 73 57
35 42 73
14 10 5
83 68 57
0 0 0
133 102 80
52 17 40
131 101 80
88 70 57
136 103 80
138 104 80
107 41 60
29 18 11
127 100 80
221 235 255
221 236 255
221 235 255
222 236 255
222 236 255
222 236 255
223 236 255
222 236 255
222 236 255
151 214 240
143 159 181
222 236 255
223 236 255
130 152 181
130 152 181
133 154 181
223 236 255
222 236 255
223 236 255
130 152 181
223 236 255
223 236 255
146 161 181
135 155 181
151 163 181
136 155 181
134 154 181
134 154 181
161 170 181
134 154 181
132 153 181
133 154 181
148 162 181
142 158 181
138 156 181
91 226 153
153 165 181
80 80 167
185 182 181
184 182 181
182 181 181
181 180 181
181 180 181
180 180 181
179 179 181
178 179 181
178 179 181
178 178 181
177 178 181
176 178 181
175 177 181
175 177 181
175 177 181
175 177 181
174 176 181
174 176 181
173 176 181
173 176 181
173 176 181
172 176 181
172 176 181
171 175 181
171 175 181
171 175 181
170 175 181
170 175 181
170 175 181
169 174 181
169 174 181
170 174 181
169 174 181
169 174 181
168 174 181
169 174 181
168 174 181
168 174 181
168 174 181
168 174 181
167 173 181
167 173 181
167 173 181
167 173 181
167 173 181
167 173 181
167 173 181
167 173 181
167 173 181
166 173 181
167 173 181
167 173 181
166 173 181
166 173 181
166 173 181
166 173 181
167 173 181
167 173 181
166 173 181
166 173 181
167 173 181
167 173 181
166 173 181
166 173 181
166 173 181
166 173 181
167 173 181
167 173 181
166 173 181
167 173 181
166 173 181
167 173 181
167 173 181
167 173 181
167 173 181
167 173 181
167 173 181
168 174 181
168 174 181
168 174 181
168 174 181
168 174 181
169 174 181
169 174 181
169 174 181
169 174 181
169 174 181
170 175 181
170 175 181
170 175 181
170 175 181
171 175 181
171 175 181
171 175 181
171 175 181
172 176 181
172 176 181
173 176 181
173 176 181
173 176 181
173 176 181
174 177 181
174 177 181
175 177 181
51 218 171
126 219 244
117 211 244
113 209 244
120 214 244
15 59 52
132 224 244
26 9 42
79 123 118
90 157 171
85 152 171
86 154 171
186 154 165
57 105 120
57 105 120
183 152 165
8 36 38
89 156 171
178 151 165
160 215 225
166 219 225
44 1 2
124 159 159
156 212 225
0 0 0
105 98 71
109 149 159
72 225 158
77 217 179
161 216 225
76 216 179
77 218 179
76 216 179
88 231 179
78 218 179
79 220 179
78 219 179
86 229 179
148 162 181
84 68 57
16 57 48
135 103 80
130 101 80
139 105 80
125 99 80
46 41 35
82 68 57
134 103 80
19 32 14
139 105 80
89 70 57
54 14 15
121 93 28
139 105 80
86 69 57
127 100 80
129 101 80
126 100 80
220 235 255
220 235 255
221 235 255
221 235 255
221 236 255
222 236 255
222 236 255
222 236 255
222 236 255
222 236 255
221 236 255
222 236 255
222 236 255
222 236 255
222 236 255
222 236 255
222 236 255
222 236 255
222 236 255
223 236 255
222 236 255
223 236 255
222 236 255
222 236 255
223 236 255
165 172 181
223 236 255
121 150 167
223 236 255
223 236 255
223 236 255
133 154 181
134 154 181
222 236 255
222 236 255
223 236 255
222 236 255
223 236 255
185 183 181
184 182 181
182 181 181
182 181 181
181 180 181
180 180 181
180 180 181
179 179 181
178 179 181
178 179 181
177 178 181
177 178 181
176 178 181
176 178 181
175 177 181
175 177 181
174 177 181
174 177 181
174 176 181
174 176 181
173 176 181
172 176 181
172 176 181
172 176 181
172 176 181
171 175 181
171 175 181
171 175 181
171 175 181
170 175 181
170 175 181
170 175 181
169 174 181
170 174 181
169 174 181
169 174 181
169 174 181
169 174 181
169 174 181
168 174 181
168 174 181
169 174 181
168 174 181
168 174 181
168 174 181
168 174 181
168 174 181
168 173 181
167 173 181
167 173 181
167 173 181
167 173 181
167 173 181
167 173 181
167 173 181
167 173 181
167 173 181
167 173 181
167 173 181
167 173 181
167 173 181
168 173 181
167 173 181
167 173 181
167 173 181
167 173 181
167 173 181
168 174 181
168 173 181
167 173 181
168 174 181
168 174 181
168 174 181
168 174 181
169 174 181
168 174 181
169 174 181
169 174 181
168 174 181
169 174 181
168 174 181
169 174 181
170 174 181
169 174 181
170 175 181
170 175 181
170 175 181
170 175 181
171 175 181
170 175 181
171 175 181
171 175 181
171 175 181
172 176 181
172 176 181
172 176 181
173 176 181
173 176 181
173 176 181
174 177 181
174 177 181
175 177 181
176 177 181
176 178 181
138 229 244
97 37 180
117 212 244
76 210 234
132 224 244
0 0 0
32 67 38
11 36 25
126 185 167
63 110 120
181 152 165
184 153 165
144 131 11
166 140 11
122 105 116
153 135 11
152 190 17
180 205 17
152 189 17
156 191 17
157 213 225
124 159 159
110 150 159
160 215 225
176 225 225
38 148 98
111 151 159
168 220 225
125 160 159
53 152 126
77 218 179
84 227 179
83 225 179
54 153 126
82 224 179
0 0 0
169 210 245
165 208 245
159 205 245
138 104 80
151 200 245
84 69 57
55 17 40
92 72 57
84 27 57
135 103 80
8 0 10
37 21 12
107 88 70
124 99 80
124 99 80
130 101 80
84 69 57
99 33 80
108 35 80
134 103 80
85 86 77
91 71 57
220 235 255
219 234 255
221 235 255
221 235 255
156 89 179
221 236 255
221 236 255
221 236 255
221 235 255
221 236 255
221 236 255
221 236 255
221 236 255
221 235 255
221 236 255
222 236 255
222 236 255
222 236 255
222 236 255
221 236 255
222 236 255
222 236 255
222 236 255
222 236 255
93 88 172
222 236 255
222 236 255
222 236 255
222 236 255
222 236 255
222 236 255
222 236 255
222 236 255
222 236 255
222 236 255
222 236 255
222 236 255
222 236 255
185 182 181
184 182 181
182 181 181
182 181 181
181 180 181
180 180 181
180 180 181
179 179 181
178 179 181
178 179 181
177 178 181
177 178 181
177 178 181
176 178 181
176 178 181
176 177 181
175 177 181
175 177 181
175 177 181
174 177 181
174 176 181
174 177 181
173 176 181
172 176 181
173 176 181
172 176 181
172 176 181
171 175 181
172 176 181
172 175 181
171 175 181
171 175 181
171 175 181
170 175 181
171 175 181
170 175 181
170 174 181
170 175 181
170 175 181
169 174 181
170 175 181
169 174 181
169 174 181
169 174 181
169 174 181
169 174 181
168 174 181
169 174 181
169 174 181
168 174 181
168 174 181
169 174 181
168 174 181
168 174 181
168 174 181
168 174 181
168 174 181
169 174 181
168 174 181
168 174 181
168 174 181
168 174 181
169 174 181
168 174 181
168 174 181
169 174 181
169 174 181
169 174 181
168 174 181
169 174 181
169 174 181
168 174 181
168 174 181
169 174 181
169 174 181
169 174 181
169 174 181
169 174 181
169 174 181
169 174 181
170 174 181
170 175 181
170 175 181
170 175 181
171 175 181
170 175 181
171 175 181
171 175 181
171 175 181
171 175 181
172 176 181
172 176 181
172 176 181
173 176 181
173 176 181
173 176 181
174 176 181
174 177 181
174 177 181
175 177 181
175 177 181
176 178 181
175 177 181
176 178 181
125 218 244
128 221 244
120 214 244
121 215 244
126 219 244
134 226 244
128 221 244
31 86 69
94 160 171
52 56 2
184 153 165
199 159 165
155 191 17
159 193 17
157 192 17
154 190 17
169 199 17
152 189 17
122 142 12
152 189 17
105 214 215
160 215 225
13 15 14
116 153 159
175 224 225
175 225 225
167 219 225
16 94 86
110 150 159
82 223 179
83 225 179
83 224 179
54 153 126
87 230 179
58 158 126
0 0 0
161 205 245
161 206 245
148 162 181
154 202 245
151 200 245
89 71 57
140 105 80
84 62 40
140 105 80
105 70 68
122 98 80
139 105 80
33 37 36
81 67 57
133 102 80
126 47 69
77 26 57
137 104 80
53 17 40
132 102 80
126 100 80
105 77 57
219 234 255
171 81 255
219 235 255
220 235 255
220 235 255
220 235 255
220 235 255
220 235 255
220 235 255
220 235 255
220 235 255
221 235 255
221 235 255
221 235 255
221 235 255
221 235 255
221 235 255
221 236 255
221 236 255
221 236 255
221 236 255
221 236 255
222 236 255
221 236 255
222 236 255
221 236 255
222 236 255
222 236 255
222 236 255
221 236 255
222 236 255
222 236 255
221 235 255
222 236 255
222 236 255
221 236 255
221 236 255
222 236 255
184 182 181
184 182 181
183 181 181
182 181 181
182 181 181
181 180 181
180 180 181
180 180 181
179 179 181
179 179 181
178 179 181
178 179 181
177 178 181
177 178 181
177 178 181
176 178 181
176 178 181
175 177 181
175 177 181
175 177 181
175 177 181
174 177 181
173 176 181
174 177 181
174 176 181
173 176 181
173 176 181
173 176 181
172 176 181
172 176 181
172 176 181
172 175 181
172 176 181
171 175 181
171 175 181
171 175 181
171 175 181
171 175 181
170 175 181
170 175 181
171 175 181
170 175 181
170 175 181
169 174 181
170 175 181
170 175 181
170 175 181
170 174 181
169 174 181
169 174 181
169 174 181
169 174 181
169 174 181
169 174 181
169 174 181
169 174 181
169 174 181
169 174 181
168 174 181
169 174 181
169 174 181
169 174 181
169 174 181
169 174 181
169 174 181
169 174 181
169 174 181
169 174 181
169 174 181
170 174 181
170 175 181
169 174 181
170 175 181
170 174 181
169 174 181
170 175 181
170 175 181
170 175 181
170 175 181
171 175 181
171 175 181
171 175 181
171 175 181
171 175 181
171 175 181
171 175 181
171 175 181
171 175 181
172 176 181
173 176 181
173 176 181
173 176 181
173 176 181
174 176 181
174 176 181
174 176 181
174 177 181
175 177 181
175 177 181
175 177 181
175 177 181
176 178 181
176 178 181
177 178 181
136 228 244
118 213 244
12 195 196
127 220 244
127 220 244
137 228 244
81 149 173
91 133 118
126 11 7
64 0 0
57 105 120
174 149 165
176 150 165
173 201 17
177 150 165
151 189 17
162 195 17
113 137 12
179 205 17
108 134 12
160 194 17
65 18 82
18 52 41
15 113 55
32 18 23
52 160 111
109 149 159
106 148 159
45 149 111
84 227 179
48 211 171
53 152 126
84 226 179
54 153 126
164 207 245
155 202 245
154 202 245
150 199 245
159 204 245
155 202 245
162 206 245
82 68 57
132 102 80
94 72 57
130 101 80
82 68 57
38 21 12
83 68 57
85 69 57
122 98 80
134 103 80
85 69 57
84 43 9
125 94 28
138 104 80
81 67 57
86 69 57
135 103 80
217 233 255
219 234 255
219 234 255
218 234 255
219 234 255
219 234 255
219 235 255
220 235 255
219 234 255
220 235 255
220 235 255
220 235 255
220 235 255
220 235 255
220 235 255
220 235 255
221 235 255
220 235 255
221 235 255
221 235 255
221 235 255
220 235 255
221 235 255
215 232 255
221 236 255
221 235 255
221 235 255
221 235 255
221 235 255
221 235 255
221 235 255
221 235 255
221 235 255
221 235 255
221 236 255
221 235 255
221 235 255
186 183 181
185 182 181
184 182 181
183 181 181
182 181 181
182 181 181
182 181 181
181 180 181
180 180 181
179 179 181
179 179 181
179 179 181
178 179 181
178 179 181
178 179 181
177 178 181
177 178 181
176 178 181
176 178 181
175 177 181
175 177 181
175 177 181
175 177 181
174 177 181
174 177 181
174 177 181
174 177 181
174 177 181
174 176 181
173 176 181
173 176 181
173 176 181
172 176 181
173 176 181
173 176 181
172 176 181
172 176 181
171 175 181
171 175 181
171 175 181
171 175 181
171 175 181
171 175 181
171 175 181
171 175 181
171 175 181
171 175 181
170 175 181
171 175 181
171 175 181
170 175 181
171 175 181
170 175 181
170 175 181
170 175 181
170 175 181
170 175 181
170 174 181
170 175 181
170 175 181
170 175 181
170 175 181
170 175 181
170 175 181
170 175 181
170 175 181
170 175 181
170 175 181
170 174 181
171 175 181
171 175 181
170 175 181
170 175 181
171 175 181
171 175 181
171 175 181
170 175 181
171 175 181
171 175 181
171 175 181
171 175 181
171 175 181
171 175 181
172 176 181
172 176 181
172 176 181
173 176 181
172 176 181
173 176 181
173 176 181
173 176 181
173 176 181
173 176 181
174 177 181
174 177 181
174 177 181
174 177 181
175 177 181
175 177 181
175 177 181
176 178 181
176 178 181
177 178 181
177 178 181
177 178 181
83 150 173
122 153 158
86 152 173
82 149 173
76 102 111
131 223 244
74 140 126
94 159 173
133 187 126
135 188 126
162 195 17
158 137 11
109 134 12
166 197 17
109 135 12
35 51 1
41 72 2
170 199 17
106 133 12
96 38 10
10 18 0
46 151 111
178 226 225
115 153 159
173 223 225
157 213 225
174 224 225
65 104 99
47 153 111
56 156 126
55 154 126
53 152 126
57 157 126
86 229 179
86 229 179
177 216 245
165 208 245
173 213 245
156 202 245
165 208 245
162 206 245
107 127 91
16 38 22
131 102 80
7 4 14
126 90 56
0 0 0
122 87 70
133 102 80
4 2 4
136 103 80
6 2 0
120 98 80
88 69 44
81 68 57
22 5 9
139 105 80
68 39 22
135 188 126
114 36 80
218 234 255
217 233 255
218 234 255
218 234 255
58 15 14
218 234 255
219 234 255
219 234 255
219 234 255
215 232 255
219 234 255
219 234 255
220 235 255
220 235 255
220 235 255
220 235 255
220 235 255
220 235 255
220 235 255
220 235 255
220 235 255
220 235 255
220 235 255
220 235 255
221 235 255
221 235 255
220 235 255
220 235 255
220 235 255
220 235 255
220 235 255
221 235 255
220 235 255
220 235 255
220 235 255
185 182 181
185 183 181
184 182 181
183 181 181
183 181 181
183 181 181
182 181 181
181 180 181
180 180 181
180 180 181
180 180 181
179 179 181
179 179 181
178 179 181
178 179 181
178 179 181
177 178 181
177 178 181
176 178 181
176 178 181
177 178 181
176 178 181
175 177 181
175 177 181
175 177 181
175 177 181
175 177 181
174 177 181
174 177 181
174 177 181
174 177 181
173 176 181
174 177 181
173 176 181
173 176 181
173 176 181
173 176 181
172 176 181
173 176 181
173 176 181
172 176 181
172 176 181
172 176 181
172 176 181
172 176 181
171 175 181
171 175 181
171 175 181
171 175 181
172 175 181
171 175 181
171 175 181
171 175 181
171 175 181
170 175 181
171 175 181
171 175 181
171 175 181
171 175 181
171 175 181
171 175 181
171 175 181
171 175 181
171 175 181
171 175 181
170 175 181
171 175 181
171 175 181
171 175 181
171 175 181
171 175 181
172 176 181
171 175 181
171 175 181
172 175 181
172 176 181
172 175 181
172 176 181
172 176 181
172 176 181
172 175 181
173 176 181
172 176 181
173 176 181
173 176 181
173 176 181
173 176 181
173 176 181
173 176 181
173 176 181
174 176 181
174 177 181
174 177 181
175 177 181
175 177 181
175 177 181
175 177 181
175 177 181
176 178 181
176 178 181
176 178 181
177 178 181
177 178 181
177 178 181
178 179 181
131 223 244
87 153 173
119 213 244
16 58 53
137 189 126
160 204 126
157 202 126
136 188 126
150 197 126
134 187 126
142 193 126
195 157 165
174 202 17
0 0 0
153 190 17
113 137 12
36 48 0
164 196 17
65 50 8
157 192 17
122 142 12
166 197 17
179 227 225
155 191 17
0 51 0
107 148 159
129 152 181
179 227 225
87 230 179
108 149 159
62 163 126
53 152 126
60 161 126
33 68 40
125 176 17
22 76 48
169 210 245
170 211 245
164 208 245
123 136 91
17 10 2
158 204 245
139 105 80
114 97 77
81 68 57
129 101 80
88 70 57
107 78 57
125 99 80
5 1 0
128 101 80
37 22 9
93 72 57
83 68 57
81 68 57
88 70 57
8 15 15
40 22 12
107 88 70
176 79 253
217 233 255
217 233 255
218 234 255
218 234 255
218 234 255
219 234 255
218 234 255
218 234 255
218 234 255
218 234 255
214 232 255
219 234 255
219 234 255
219 234 255
219 234 255
219 234 255
219 234 255
219 234 255
219 234 255
219 235 255
220 235 255
220 235 255
220 235 255
220 235 255
220 235 255
220 235 255
220 235 255
220 235 255
220 235 255
220 235 255
220 235 255
220 235 255
220 235 255
220 235 255
220 235 255
186 183 181
185 182 181
184 182 181
184 182 181
183 181 181
183 181 181
182 181 181
181 180 181
181 180 181
181 180 181
180 180 181
180 179 181
179 179 181
179 179 181
179 179 181
178 179 181
178 179 181
178 178 181
178 179 181
177 178 181
177 178 181
177 178 181
176 178 181
176 178 181
176 178 181
176 177 181
175 177 181
175 177 181
175 177 181
175 177 181
175 177 181
175 177 181
174 177 181
174 177 181
174 177 181
173 176 181
174 176 181
173 176 181
173 176 181
173 176 181
174 176 181
173 176 181
172 176 181
173 176 181
172 176 181
173 176 181
172 176 181
173 176 181
172 176 181
172 176 181
173 176 181
173 176 181
172 176 181
172 176 181
171 175 181
172 176 181
172 175 181
172 176 181
172 176 181
172 176 181
172 176 181
172 176 181
172 176 181
172 176 181
171 175 181
172 176 181
172 176 181
172 176 181
173 176 181
172 176 181
172 176 181
172 176 181
172 176 181
173 176 181
172 176 181
173 176 181
172 176 181
173 176 181
173 176 181
173 176 181
173 176 181
173 176 181
174 176 181
174 176 181
174 177 181
174 176 181
174 177 181
174 177 181
174 177 181
175 177 181
175 177 181
175 177 181
175 177 181
175 177 181
176 178 181
176 178 181
176 178 181
176 178 181
176 178 181
177 178 181
178 179 181
177 178 181
178 179 181
178 179 181
178 179 181
38 105 117
46 114 155
130 222 244
128 221 244
125 218 244
151 198 126
141 192 126
152 199 126
62 51 59
135 188 126
138 190 126
97 89 40
153 190 17
142 176 1
106 133 12
162 195 17
173 201 17
109 135 12
137 173 1
102 87 5
112 136 12
171 200 17
169 220 225
110 150 159
37 76 76
47 153 111
40 74 85
149 162 181
135 155 181
129 152 181
26 50 28
3 56 22
53 152 126
173 213 245
177 216 245
164 207 245
91 84 5
107 127 91
104 125 91
120 134 91
96 36 74
106 126 91
113 130 91
22 20 9
8 1 1
126 100 80
85 69 57
27 10 4
82 68 57
129 101 80
73 16 25
42 26 15
23 4 4
139 105 80
21 13 7
134 103 80
135 103 80
44 44 38
215 232 255
215 232 255
115 54 179
216 232 255
216 233 255
217 233 255
217 233 255
215 232 255
217 233 255
218 234 255
218 234 255
218 234 255
218 234 255
218 234 255
136 181 94
218 234 255
219 234 255
219 234 255
219 234 255
219 234 255
219 234 255
219 234 255
219 234 255
219 234 255
110 128 137
219 234 255
219 234 255
219 234 255
219 235 255
219 234 255
219 234 255
219 234 255
219 234 255
219 235 255
219 234 255
220 235 255
184 182 181
186 183 181
185 182 181
184 182 181
184 182 181
184 182 181
183 181 181
182 181 181
182 181 181
181 180 181
181 180 181
181 180 181
180 180 181
180 180 181
179 179 181
180 180 181
179 179 181
179 179 181
178 179 181
178 179 181
178 179 181
177 178 181
177 178 181
177 178 181
177 178 181
177 178 181
177 178 181
176 178 181
176 178 181
176 178 181
176 178 181
176 177 181
175 177 181
175 177 181
175 177 181
174 177 181
175 177 181
175 177 181
174 177 181
174 177 181
174 177 181
174 177 181
174 177 181
173 176 181
173 176 181
174 177 181
174 176 181
174 177 181
173 176 181
173 176 181
173 176 181
173 176 181
174 176 181
173 176 181
173 176 181
173 176 181
173 176 181
173 176 181
173 176 181
172 176 181
173 176 181
172 176 181
173 176 181
173 176 181
173 176 181
172 176 181
173 176 181
173 176 181
173 176 181
173 176 181
173 176 181
173 176 181
173 176 181
174 177 181
173 176 181
174 177 181
174 177 181
173 176 181
174 176 181
174 177 181
174 177 181
174 177 181
175 177 181
174 177 181
174 177 181
175 177 181
174 177 181
175 177 181
175 177 181
175 177 181
176 178 181
176 178 181
176 178 181
176 178 181
176 178 181
176 178 181
177 178 181
176 178 181
177 178 181
177 178 181
178 178 181
178 179 181
178 179 181
178 179 181
178 179 181
179 179 181
37 104 117
17 57 76
81 148 173
104 138 89
159 204 126
0 0 0
160 204 126
103 92 40
137 189 126
87 116 45
93 55 29
63 52 59
109 141 89
145 194 126
118 140 12
175 202 17
24 46 1
109 135 12
113 91 5
106 133 12
69 60 4
165 196 17
129 152 181
144 160 181
156 166 181
134 154 181
145 160 181
48 75 70
37 18 26
136 155 181
141 158 181
0 0 0
132 153 181
0 0 0
40 82 111
104 125 91
104 125 91
107 127 91
122 135 91
37 26 10
69 56 67
117 132 91
47 39 20
107 127 91
99 85 70
0 0 0
89 70 57
94 72 57
85 69 57
126 100 80
42 26 15
37 21 12
97 84 70
135 103 80
18 7 2
79 26 57
49 28 15
0 0 0
29 16 15
214 232 255
112 53 179
215 232 255
216 233 255
216 232 255
216 233 255
217 233 255
217 233 255
217 233 255
217 233 255
218 233 255
217 233 255
218 233 255
144 186 94
218 234 255
218 234 255
218 234 255
218 234 255
218 234 255
218 234 255
218 234 255
212 231 255
139 157 181
219 234 255
219 234 255
219 234 255
219 234 255
219 234 255
219 234 255
219 234 255
219 234 255
129 152 181
212 230 255
218 234 255
219 234 255
219 234 255
186 183 181
185 182 181
184 182 181
184 182 181
183 181 181
183 181 181
183 181 181
182 181 181
182 181 181
182 181 181
181 180 181
181 180 181
181 180 181
180 180 181
180 180 181
180 180 181
180 180 181
179 179 181
179 179 181
179 179 181
178 179 181
178 179 181
178 179 181
178 179 181
177 178 181
177 178 181
177 178 181
177 178 181
177 178 181
177 178 181
177 178 181
177 178 181
176 178 181
176 178 181
176 178 181
175 177 181
175 177 181
175 177 181
175 177 181
175 177 181
175 177 181
175 177 181
175 177 181
174 177 181
175 177 181
175 177 181
174 177 181
175 177 181
174 177 181
174 177 181
174 177 181
174 177 181
174 177 181
174 177 181
174 177 181
174 177 181
174 177 181
174 176 181
173 176 181
174 176 181
174 177 181
174 177 181
173 176 181
174 177 181
174 177 181
175 177 181
174 177 181
174 177 181
174 177 181
174 177 181
174 177 181
174 177 181
175 177 181
174 177 181
174 177 181
175 177 181
174 177 181
174 177 181
175 177 181
176 177 181
175 177 181
175 177 181
175 177 181
175 177 181
176 178 181
175 177 181
175 177 181
175 177 181
176 178 181
176 178 181
177 178 181
176 178 181
177 178 181
177 178 181
178 178 181
178 179 181
178 179 181
178 179 181
178 179 181
178 179 181
179 179 181
179 179 181
179 179 181
179 179 181
180 180 181
49 38 27
143 159 181
136 189 126
83 150 114
135 188 126
158 184 88
101 91 40
143 193 126
88 155 114
133 187 126
105 139 89
132 186 126
148 196 126
191 199 178
23 16 3
88 111 6
65 80 4
77 63 4
170 200 17
107 134 12
76 63 4
177 204 17
131 153 181
132 153 181
134 154 181
81 58 119
4 37 17
57 27 37
19 10 16
131 153 181
149 162 181
84 59 119
145 160 181
115 131 91
96 115 79
112 130 91
109 128 91
123 136 91
106 126 91
63 67 50
0 0 0
76 60 29
50 41 20
0 0 0
138 104 80
28 24 4
129 101 80
74 61 49
86 69 57
77 25 57
133 103 80
80 30 20
55 28 12
46 41 35
106 88 70
138 105 80
50 32 19
132 102 80
0 0 0
213 231 255
215 232 255
213 231 255
215 232 255
215 232 255
216 233 255
216 233 255
216 232 255
216 233 255
216 233 255
217 233 255
217 233 255
217 233 255
213 231 255
217 233 255
217 233 255
218 233 255
212 231 255
217 233 255
218 233 255
218 234 255
218 234 255
218 234 255
218 234 255
218 234 255
218 234 255
218 234 255
218 234 255
218 234 255
219 234 255
218 234 255
218 234 255
218 234 255
206 223 76
218 234 255
219 234 255
163 138 89
185 183 181
185 182 181
184 182 181
184 182 181
184 182 181
183 182 181
183 181 181
182 181 181
182 181 181
182 181 181
182 181 181
181 180 181
181 180 181
181 180 181
181 180 181
180 180 181
180 180 181
179 179 181
179 179 181
179 179 181
179 179 181
179 179 181
179 179 181
179 179 181
178 179 181
178 179 181
178 179 181
177 178 181
177 178 181
177 178 181
177 178 181
177 178 181
177 178 181
177 178 181
177 178 181
176 178 181
176 178 181
177 178 181
175 177 181
176 178 181
175 177 181
176 178 181
175 177 181
175 177 181
175 177 181
175 177 181
175 177 181
175 177 181
176 177 181
175 177 181
175 177 181
175 177 181
175 177 181
175 177 181
174 177 181
175 177 181
175 177 181
175 177 181
175 177 181
175 177 181
175 177 181
175 177 181
175 177 181
175 177 181
175 177 181
174 177 181
175 177 181
175 177 181
175 177 181
175 177 181
176 177 181
175 177 181
175 177 181
176 177 181
176 178 181
176 178 181
176 178 181
176 178 181
176 178 181
176 178 181
176 178 181
176 178 181
176 178 181
176 178 181
176 178 181
177 178 181
176 178 181
177 178 181
177 178 181
177 178 181
178 179 181
178 179 181
178 179 181
178 179 181
178 179 181
179 179 181
179 179 181
179 179 181
179 179 181
179 179 181
180 180 181
180 180 181
180 180 181
180 180 181
62 108 122
29 63 5
86 153 173
135 188 126
141 192 126
145 194 126
148 196 126
70 64 28
137 189 126
141 191 126
144 194 126
0 0 0
157 202 126
132 186 126
155 191 17
63 83 0
45 56 3
106 133 12
69 97 0
108 89 5
113 137 12
158 193 17
41 112 89
131 153 181
87 60 119
83 58 119
86 59 119
82 58 119
40 17 18
86 59 119
58 27 37
0 0 0
43 26 35
87 60 119
112 129 91
110 128 91
0 0 0
77 60 29
104 125 91
108 128 91
118 133 91
9 3 1
50 41 20
45 39 20
38 30 14
0 0 0
97 74 57
86 69 57
68 59 49
51 33 15
133 102 80
83 68 57
41 20 8
90 71 57
87 70 57
38 21 12
66 39 22
138 104 80
126 100 80
212 230 255
213 231 255
130 152 181
214 231 255
215 232 255
141 158 181
215 232 255
215 232 255
215 232 255
215 232 255
216 233 255
216 233 255
216 233 255
216 233 255
216 233 255
213 231 255
217 233 255
217 233 255
217 233 255
217 233 255
217 233 255
217 233 255
217 233 255
218 234 255
217 233 255
218 234 255
217 233 255
217 233 255
212 230 255
217 233 255
218 234 255
217 233 255
217 233 255
218 234 255
218 234 255
109 172 173
101 166 173
186 183 181
185 182 181
185 182 181
184 182 181
184 182 181
183 182 181
183 181 181
183 181 181
183 181 181
182 181 181
182 181 181
182 181 181
182 181 181
181 180 181
181 180 181
181 180 181
181 180 181
180 180 181
180 180 181
180 180 181
180 180 181
179 179 181
179 179 181
179 179 181
179 179 181
179 179 181
178 179 181
178 179 181
179 179 181
178 179 181
178 179 181
178 179 181
178 179 181
177 178 181
177 178 181
177 178 181
176 178 181
177 178 181
177 178 181
176 178 181
177 178 181
177 178 181
177 178 181
176 178 181
176 178 181
177 178 181
177 178 181
176 178 181
176 178 181
176 178 181
176 178 181
176 178 181
176 178 181
176 178 181
176 178 181
176 178 181
176 178 181
176 178 181
175 177 181
176 178 181
176 178 181
175 177 181
176 177 181
176 178 181
176 178 181
176 178 181
176 178 181
176 178 181
176 178 181
176 178 181
176 178 181
176 178 181
176 178 181
176 178 181
176 178 181
177 178 181
177 178 181
177 178 181
177 178 181
176 178 181
177 178 181
177 178 181
177 178 181
177 178 181
178 178 181
177 178 181
177 178 181
178 179 181
177 178 181
178 179 181
178 179 181
179 179 181
179 179 181
179 179 181
179 179 181
179 179 181
179 179 181
179 179 181
179 179 181
180 180 181
180 180 181
181 180 181
181 180 181
181 180 181
137 156 181
95 160 173
95 133 89
91 157 114
103 138 89
97 133 89
151 198 126
89 86 40
151 198 126
104 138 89
0 0 0
141 192 126
183 195 178
95 133 89
201 204 178
197 202 178
219 213 178
83 62 40
30 36 1
110 135 12
112 136 12
146 161 181
114 137 12
142 159 181
55 109 107
80 57 119
0 0 0
27 8 8
20 15 22
88 60 119
11 3 8
0 0 0
59 27 37
0 0 0
109 128 91
23 16 21
107 127 91
7 3 1
110 128 91
78 61 29
74 89 64
108 127 91
73 88 64
47 39 20
37 29 14
104 126 91
42 22 12
139 105 80
88 70 57
94 72 57
42 23 12
133 102 80
124 99 80
26 19 12
133 102 80
87 70 57
17 6 2
128 101 80
103 86 70
63 215 203
212 230 255
212 231 255
213 231 255
214 231 255
214 231 255
214 231 255
214 232 255
215 232 255
215 232 255
215 232 255
215 232 255
215 232 255
215 232 255
216 232 255
216 233 255
217 233 255
216 233 255
216 233 255
216 233 255
216 233 255
217 233 255
217 233 255
217 233 255
217 233 255
217 233 255
149 163 181
217 233 255
217 233 255
217 233 255
217 233 255
217 233 255
217 233 255
217 233 255
217 233 255
217 233 255
103 71 149
186 183 181
186 183 181
185 183 181
185 182 181
184 182 181
184 182 181
184 182 181
184 182 181
184 182 181
183 181 181
183 181 181
182 181 181
182 181 181
182 181 181
182 181 181
181 180 181
181 180 181
181 180 181
181 180 181
181 180 181
181 180 181
180 180 181
180 179 181
180 180 181
180 180 181
179 179 181
180 180 181
179 179 181
179 179 181
179 179 181
179 179 181
179 179 181
178 179 181
178 179 181
178 179 181
179 179 181
178 179 181
178 179 181
178 179 181
177 178 181
178 179 181
178 179 181
178 179 181
178 179 181
177 178 181
177 178 181
178 178 181
177 178 181
177 178 181
177 178 181
177 178 181
177 178 181
177 178 181
177 178 181
177 178 181
177 178 181
177 178 181
177 178 181
177 178 181
177 178 181
176 178 181
177 178 181
177 178 181
176 178 181
177 178 181
177 178 181
176 178 181
177 178 181
177 178 181
177 178 181
178 179 181
177 178 181
177 178 181
178 179 181
177 178 181
177 178 181
177 178 181
177 178 181
177 178 181
178 179 181
178 179 181
178 179 181
179 179 181
178 179 181
178 179 181
178 179 181
179 179 181
178 179 181
179 179 181
179 179 181
179 179 181
179 179 181
179 179 181
180 180 181
179 179 181
180 180 181
180 180 181
180 180 181
181 180 181
181 180 181
181 180 181
181 180 181
181 180 181
182 181 181
77 18 94
134 154 181
149 196 126
93 110 49
0 11 0
39 42 53
143 193 126
187 197 178
193 200 178
189 198 178
204 205 178
198 202 178
181 194 178
192 199 178
0 0 0
187 197 178
205 205 178
120 141 12
95 75 49
117 139 12
132 153 181
128 107 116
99 79 82
79 57 119
131 153 181
81 58 119
57 41 84
84 59 119
79 57 119
60 28 37
21 6 12
0 0 0
80 57 119
11 4 3
95 62 119
74 89 64
76 90 64
78 91 64
75 89 64
33 28 14
34 19 6
79 92 64
7 6 1
33 18 6
165 194 222
149 186 222
148 185 222
167 196 222
144 183 222
58 18 40
148 185 222
86 69 57
133 103 80
82 68 57
19 7 2
83 68 57
135 103 80
92 82 70
19 8 3
70 60 49
62 214 203
145 160 181
212 230 255
167 195 105
213 231 255
213 231 255
214 231 255
214 231 255
214 232 255
214 232 255
215 232 255
214 232 255
215 232 255
215 232 255
215 232 255
61 69 45
215 232 255
216 232 255
216 232 255
216 233 255
216 233 255
216 233 255
216 232 255
216 233 255
216 233 255
216 233 255
216 233 255
217 233 255
217 233 255
216 233 255
217 233 255
217 233 255
216 233 255
216 233 255
109 118 127
108 117 127
186 183 181
186 183 181
186 183 181
186 183 181
185 182 181
185 182 181
184 182 181
184 182 181
184 182 181
183 181 181
183 182 181
183 181 181
183 181 181
183 181 181
183 181 181
182 181 181
182 181 181
182 181 181
182 181 181
182 181 181
181 180 181
181 180 181
181 180 181
181 180 181
180 180 181
180 180 181
180 180 181
180 180 181
180 180 181
180 180 181
180 180 181
180 180 181
180 179 181
179 179 181
179 179 181
179 179 181
179 179 181
179 179 181
179 179 181
179 179 181
179 179 181
178 179 181
178 179 181
178 179 181
178 179 181
178 179 181
178 179 181
178 179 181
177 178 181
178 179 181
178 179 181
178 179 181
178 179 181
178 179 181
178 179 181
178 179 181
178 179 181
178 179 181
178 179 181
178 179 181
178 179 181
178 179 181
178 179 181
178 179 181
178 179 181
178 179 181
178 179 181
177 178 181
178 179 181
178 179 181
178 179 181
178 178 181
178 179 181
178 179 181
179 179 181
178 179 181
179 179 181
178 179 181
178 179 181
179 179 181
179 179 181
179 179 181
179 179 181
179 179 181
179 179 181
179 179 181
179 179 181
179 179 181
180 180 181
180 180 181
180 180 181
180 180 181
180 180 181
180 180 181
181 180 181
181 180 181
181 180 181
181 180 181
181 180 181
181 180 181
182 181 181
182 181 181
182 181 181
182 181 181
12 28 1
132 153 181
155 201 126
147 161 181
0 0 0
115 176 62
50 82 31
94 132 89
96 133 89
153 199 126
182 195 178
191 199 178
148 147 126
198 202 178
215 211 178
198 202 178
204 205 178
182 195 178
130 92 56
188 197 178
43 58 0
47 42 2
133 154 181
81 58 119
82 58 119
84 59 119
66 44 84
83 58 119
87 60 119
58 27 37
0 0 0
89 60 119
56 27 37
57 27 37
26 8 8
27 16 23
84 94 64
22 17 5
82 93 64
15 9 3
35 35 10
33 24 30
10 5 4
170 198 222
152 187 222
172 199 222
144 183 222
146 184 222
66 58 49
0 0 0
167 196 222
152 187 222
27 12 5
46 27 15
82 68 57
70 60 49
135 103 80
0 0 0
47 45 38
208 228 255
136 104 80
210 229 255
212 230 255
212 230 255
211 230 255
132 153 181
213 231 255
213 231 255
213 231 255
214 232 255
213 231 255
214 231 255
214 232 255
215 232 255
215 232 255
215 232 255
214 232 255
215 232 255
215 232 255
215 232 255
215 232 255
215 232 255
210 229 255
216 232 255
216 232 255
215 232 255
215 232 255
216 232 255
216 232 255
216 233 255
216 232 255
216 233 255
216 232 255
216 233 255
112 120 127
105 65 2
143 95 147
135 106 153
186 183 181
186 183 181
185 182 181
185 182 181
185 182 181
185 182 181
185 182 181
184 182 181
184 182 181
184 182 181
184 182 181
183 181 181
183 181 181
183 181 181
182 181 181
183 181 181
182 181 181
182 181 181
182 181 181
182 181 181
181 180 181
182 181 181
182 181 181
182 181 181
181 180 181
181 180 181
181 180 181
181 180 181
181 180 181
181 180 181
181 180 181
181 180 181
180 180 181
180 180 181
180 180 181
179 179 181
180 180 181
180 180 181
180 180 181
180 180 181
180 180 181
179 179 181
179 179 181
180 180 181
179 179 181
180 179 181
179 179 181
179 179 181
179 179 181
179 179 181
179 179 181
179 179 181
179 179 181
178 179 181
179 179 181
179 179 181
179 179 181
179 179 181
179 179 181
179 179 181
178 179 181
178 179 181
179 179 181
179 179 181
179 179 181
179 179 181
179 179 181
179 179 181
179 179 181
179 179 181
179 179 181
180 180 181
180 179 181
180 180 181
180 180 181
179 179 181
180 180 181
180 179 181
179 179 181
180 180 181
180 180 181
180 180 181
180 180 181
180 180 181
180 180 181
181 180 181
180 180 181
180 180 181
180 180 181
181 180 181
181 180 181
181 180 181
181 180 181
182 181 181
182 181 181
181 180 181
182 181 181
182 181 181
183 181 181
182 181 181
182 181 181
183 181 181
137 156 181
132 153 181
131 153 181
99 135 89
67 110 6
109 141 89
47 38 41
131 24 0
186 197 178
202 204 178
82 61 40
191 199 178
214 210 178
183 66 123
191 199 178
5 8 3
128 91 56
44 92 44
138 142 126
137 156 181
76 94 8
146 161 181
129 152 181
78 57 119
94 62 119
56 40 84
0 0 0
91 61 119
57 41 84
91 61 119
35 18 26
25 6 12
81 58 119
18 0 36
81 58 119
21 10 9
36 18 26
118 133 91
74 89 64
13 11 3
0 0 0
26 31 5
171 199 222
118 133 91
152 187 222
103 130 157
150 186 222
174 200 222
149 186 222
149 159 137
154 188 222
145 183 222
0 0 0
82 68 57
5 1 2
83 68 57
26 10 4
41 22 12
39 22 12
43 23 12
84 68 57
208 228 255
210 229 255
211 230 255
211 230 255
212 230 255
212 230 255
212 231 255
212 231 255
213 231 255
213 231 255
213 231 255
214 231 255
213 231 255
214 231 255
214 231 255
214 232 255
214 232 255
210 229 255
132 153 181
214 232 255
215 232 255
214 232 255
215 232 255
215 232 255
215 232 255
137 156 181
216 232 255
215 232 255
0 18 16
216 232 255
215 232 255
209 228 255
215 232 255
179 179 181
108 104 111
173 155 153
113 120 127
115 121 127
90 113 45
186 183 181
186 183 181
185 183 181
185 182 181
185 182 181
185 182 181
185 182 181
184 182 181
184 182 181
184 182 181
183 182 181
184 182 181
183 181 181
183 181 181
183 181 181
183 181 181
183 181 181
182 181 181
183 181 181
182 181 181
182 181 181
182 181 181
182 181 181
182 181 181
182 181 181
181 180 181
181 180 181
182 181 181
181 181 181
182 181 181
181 180 181
181 180 181
180 180 181
181 180 181
181 180 181
181 180 181
181 180 181
181 180 181
180 180 181
180 180 181
180 180 181
180 180 181
181 180 181
180 180 181
180 180 181
180 180 181
180 180 181
180 180 181
179 179 181
180 179 181
180 180 181
180 180 181
179 179 181
180 180 181
180 180 181
180 180 181
180 180 181
180 180 181
180 180 181
180 180 181
179 179 181
180 180 181
180 180 181
180 180 181
180 180 181
180 180 181
180 180 181
180 180 181
180 180 181
180 180 181
180 180 181
180 180 181
180 180 181
181 180 181
180 180 181
181 180 181
180 180 181
181 180 181
181 180 181
181 180 181
181 180 181
181 180 181
181 180 181
181 180 181
181 180 181
181 180 181
181 180 181
182 181 181
182 181 181
182 181 181
182 181 181
182 181 181
183 181 181
182 181 181
182 181 181
182 181 181
183 181 181
183 181 181
183 182 181
183 181 181
133 154 181
139 157 181
135 155 181
129 152 181
100 136 89
97 133 89
58 88 31
199 203 178
187 197 178
199 203 178
129 137 126
196 201 178
194 200 178
83 62 40
209 208 178
139 95 56
193 200 178
57 160 115
180 194 178
153 171 155
146 161 181
133 154 181
130 152 181
62 42 84
44 27 41
0 0 0
15 4 2
82 58 119
81 58 119
61 42 84
55 26 37
0 0 0
32 16 23
61 42 84
0 0 0
74 89 64
115 131 91
26 23 7
73 88 64
53 42 20
54 42 20
34 19 6
144 183 222
95 177 182
112 135 157
146 184 222
27 96 88
165 195 222
146 184 222
145 183 222
0 0 0
27 4 8
157 190 222
170 198 222
78 56 40
75 62 49
7 2 1
0 0 0
8 0 0
128 101 80
208 228 255
208 228 255
209 229 255
209 229 255
211 230 255
210 229 255
210 229 255
0 0 0
212 230 255
212 230 255
212 230 255
213 231 255
212 231 255
213 231 255
213 231 255
213 231 255
213 231 255
214 231 255
213 231 255
214 232 255
214 231 255
214 231 255
214 232 255
214 232 255
215 232 255
215 232 255
215 232 255
215 232 255
215 232 255
214 232 255
208 228 255
5 5 0
215 232 255
215 232 255
152 150 126
47 96 109
93 85 103
76 89 88
37 65 96
44 67 107
112 121 65
186 183 181
186 183 181
186 183 181
186 183 181
185 182 181
185 182 181
185 182 181
185 182 181
184 182 181
185 182 181
184 182 181
184 182 181
184 182 181
184 182 181
184 182 181
183 182 181
183 181 181
183 181 181
183 181 181
183 182 181
183 181 181
182 181 181
183 181 181
183 181 181
183 181 181
182 181 181
183 181 181
182 181 181
182 181 181
182 181 181
182 181 181
182 181 181
181 180 181
182 181 181
181 180 181
182 181 181
181 180 181
181 180 181
181 180 181
181 180 181
182 181 181
181 180 181
181 180 181
181 180 181
181 180 181
180 180 181
181 180 181
181 180 181
181 180 181
181 180 181
181 180 181
180 180 181
180 180 181
181 180 181
181 180 181
181 180 181
181 180 181
181 180 181
181 180 181
180 180 181
181 180 181
181 180 181
181 180 181
181 180 181
181 180 181
181 180 181
180 180 181
181 180 181
181 180 181
181 180 181
181 180 181
181 180 181
181 180 181
181 180 181
182 181 181
182 181 181
182 181 181
182 181 181
182 181 181
181 180 181
182 181 181
182 181 181
182 181 181
182 181 181
183 181 181
182 181 181
183 181 181
183 181 181
183 181 181
183 181 181
183 181 181
184 182 181
183 182 181
184 182 181
183 182 181
183 182 181
184 182 181
184 182 181
184 182 181
88 70 57
133 154 181
66 93 63
130 152 181
108 140 89
100 136 89
1 3 0
88 117 45
201 204 178
192 199 178
154 26 177
149 147 126
15 32 15
197 202 178
147 146 126
196 183 125
149 134 88
213 210 178
200 203 178
197 183 125
130 152 181
183 203 90
82 58 119
29 40 12
29 18 29
57 41 84
94 62 119
48 31 59
84 59 119
0 0 0
84 59 119
17 7 27
20 15 31
82 58 119
11 2 3
58 27 37
38 55 22
32 38 16
33 48 42
28 24 7
74 89 64
0 0 0
156 179 78
167 196 222
162 193 222
160 192 222
173 199 222
105 131 157
161 182 78
3 11 16
146 184 222
170 198 222
169 197 222
65 58 49
7 1 1
87 70 57
95 73 57
125 100 80
0 0 0
89 70 57
53 44 35
206 227 255
135 103 80
209 229 255
130 144 74
210 229 255
210 229 255
210 230 255
82 59 26
211 230 255
211 230 255
212 230 255
212 230 255
212 230 255
212 231 255
212 231 255
213 231 255
212 231 255
213 231 255
209 229 255
213 231 255
214 231 255
213 231 255
213 231 255
214 231 255
214 231 255
214 231 255
214 231 255
214 231 255
214 231 255
214 231 255
214 232 255
214 231 255
213 231 255
125 126 127
122 150 82
69 89 91
70 89 115
0 0 0
175 148 144
92 40 175
98 79 149
129 128 127
109 118 127
112 119 127
186 183 181
186 183 181
186 183 181
185 182 181
185 182 181
185 182 181
185 182 181
185 182 181
185 182 181
185 182 181
184 182 181
185 182 181
185 182 181
184 182 181
184 182 181
183 182 181
184 182 181
183 182 181
184 182 181
183 181 181
183 181 181
183 182 181
183 181 181
183 181 181
183 181 181
183 181 181
182 181 181
183 181 181
183 181 181
182 181 181
182 181 181
183 181 181
182 181 181
182 181 181
182 181 181
183 181 181
182 181 181
182 181 181
182 181 181
182 181 181
182 181 181
181 180 181
182 181 181
182 181 181
182 181 181
182 181 181
182 181 181
181 180 181
182 181 181
182 181 181
182 181 181
182 181 181
182 181 181
181 180 181
182 181 181
182 181 181
182 181 181
182 181 181
181 180 181
183 181 181
182 181 181
182 181 181
182 181 181
182 181 181
182 181 181
182 181 181
182 181 181
182 181 181
182 181 181
182 181 181
182 181 181
182 181 181
182 181 181
182 181 181
183 181 181
183 181 181
182 181 181
183 181 181
183 181 181
183 181 181
183 181 181
183 181 181
184 182 181
183 181 181
183 182 181
184 182 181
183 181 181
184 182 181
184 182 181
185 182 181
185 182 181
185 182 181
185 182 181
185 182 181
185 182 181
91 71 57
42 71 58
147 162 181
137 156 181
131 152 181
26 85 27
195 201 178
203 205 178
204 205 178
171 74 178
153 149 126
34 120 58
204 205 178
140 143 126
141 143 126
200 203 178
136 94 56
53 50 35
202 213 90
0 0 0
212 218 90
177 200 90
184 204 90
185 204 90
192 208 90
0 0 0
0 0 0
91 61 119
83 58 119
94 62 119
18 7 27
61 42 84
59 27 37
90 61 119
19 8 27
35 39 16
74 89 64
123 136 91
0 0 0
72 88 64
157 190 222
170 198 222
10 59 20
119 139 157
102 129 157
168 196 222
111 134 157
154 188 222
0 0 0
167 196 222
154 188 222
1 3 5
33 19 11
156 89 189
11 0 3
133 93 56
107 88 70
13 5 1
21 8 3
29 15 23
110 89 70
40 22 12
205 227 255
208 228 255
208 228 255
208 228 255
208 228 255
210 229 255
209 229 255
210 229 255
123 89 163
211 230 255
211 230 255
212 230 255
211 230 255
212 230 255
211 230 255
212 231 255
212 230 255
213 231 255
212 231 255
213 231 255
213 231 255
213 231 255
213 231 255
213 231 255
213 231 255
213 231 255
214 231 255
213 231 255
214 231 255
214 231 255
213 231 255
208 228 255
156 159 63
112 47 127
29 93 71
25 35 52
113 95 148
79 132 140
113 19 175
7 99 178
68 28 19
127 167 170
126 126 127
128 127 127
127 127 127
186 183 181
186 183 181
186 183 181
186 183 181
186 183 181
186 183 181
185 183 181
185 182 181
186 183 181
185 183 181
185 182 181
185 182 181
185 182 181
185 182 181
185 182 181
185 182 181
184 182 181
185 182 181
184 182 181
184 182 181
184 182 181
184 182 181
184 182 181
184 182 181
184 182 181
184 182 181
184 182 181
184 182 181
184 182 181
184 182 181
183 181 181
183 181 181
183 181 181
183 181 181
183 181 181
183 181 181
183 181 181
183 181 181
183 181 181
183 181 181
183 181 181
183 181 181
182 181 181
183 181 181
183 181 181
182 181 181
183 181 181
183 182 181
183 182 181
183 181 181
183 181 181
182 181 181
182 181 181
182 181 181
183 181 181
183 181 181
183 181 181
183 181 181
184 182 181
183 181 181
183 181 181
183 182 181
183 181 181
183 181 181
183 181 181
183 181 181
183 181 181
184 182 181
184 182 181
184 182 181
183 181 181
183 181 181
184 182 181
184 182 181
184 182 181
184 182 181
184 182 181
184 182 181
184 182 181
184 182 181
184 182 181
185 182 181
184 182 181
184 182 181
185 182 181
185 182 181
185 182 181
185 182 181
185 183 181
185 182 181
185 183 181
186 183 181
186 183 181
142 159 181
132 153 181
133 154 181
139 157 181
133 154 181
14 29 40
133 154 181
103 85 43
78 68 40
134 140 126
210 208 178
131 139 126
184 195 178
32 26 17
205 206 178
209 208 178
190 198 178
210 208 178
32 52 30
206 215 90
194 209 90
187 205 90
177 200 90
211 218 90
175 199 90
59 199 71
85 65 20
42 19 26
25 9 19
5 7 0
57 41 84
94 62 119
0 0 0
58 41 84
62 214 203
0 0 0
63 215 203
63 216 203
63 217 203
62 215 203
171 198 222
0 0 0
113 136 157
108 133 157
110 133 157
102 129 157
88 100 111
117 138 157
172 199 222
168 197 222
150 186 222
159 191 222
39 75 100
160 192 222
36 21 12
0 0 0
89 70 57
37 21 12
8 2 0
37 21 12
90 71 57
59 32 18
130 152 181
141 158 181
207 228 255
207 228 255
72 86 21
208 228 255
209 229 255
209 229 255
82 61 115
210 229 255
210 229 255
210 229 255
211 230 255
211 230 255
210 229 255
211 230 255
211 230 255
212 230 255
212 230 255
211 230 255
212 231 255
212 230 255
212 230 255
212 231 255
207 227 255
212 231 255
213 231 255
80 189 197
213 231 255
213 231 255
213 231 255
213 231 255
45 138 33
102 17 127
46 138 101
109 118 127
138 157 105
168 166 88
119 20 175
59 97 108
136 143 92
140 72 105
77 92 67
126 131 39
141 155 28
113 120 127
118 122 127
114 120 127
127 127 127
110 119 127
118 122 127
186 183 181
110 118 127
186 183 181
186 183 181
186 183 181
186 183 181
185 183 181
186 183 181
186 183 181
185 182 181
185 182 181
186 183 181
185 182 181
185 183 181
185 182 181
185 182 181
185 182 181
185 182 181
185 182 181
184 182 181
185 182 181
184 182 181
185 182 181
184 182 181
184 182 181
184 182 181
184 182 181
184 182 181
184 182 181
184 182 181
184 182 181
184 182 181
184 182 181
184 182 181
184 182 181
184 182 181
184 182 181
184 182 181
183 181 181
184 182 181
184 182 181
184 182 181
184 182 181
184 182 181
184 182 181
183 182 181
184 182 181
184 182 181
184 182 181
184 182 181
184 182 181
183 182 181
184 182 181
184 182 181
184 182 181
184 182 181
184 182 181
184 182 181
184 182 181
184 182 181
184 182 181
184 182 181
185 182 181
185 182 181
184 182 181
184 182 181
184 182 181
185 182 181
185 182 181
185 182 181
185 182 181
184 182 181
185 182 181
185 182 181
185 182 181
185 182 181
185 182 181
185 183 181
186 183 181
185 182 181
185 183 181
186 183 181
186 183 181
186 183 181
186 183 181
186 183 181
186 183 181
142 159 181
129 152 181
132 153 181
34 59 53
61 49 40
131 153 181
129 152 181
21 21 70
128 137 126
88 73 34
192 199 178
134 140 126
92 65 40
62 45 28
130 138 126
210 208 178
141 143 126
188 206 90
212 219 90
184 204 90
135 146 63
176 200 90
201 213 90
97 89 31
212 219 90
134 146 63
94 62 119
182 203 90
9 12 18
59 41 84
47 35 73
85 59 119
0 0 0
7 3 3
65 220 203
72 230 203
61 213 203
73 233 203
67 223 203
63 216 203
61 212 203
107 132 157
39 17 7
145 183 222
163 194 222
168 197 222
67 55 17
34 129 124
111 135 157
152 187 222
145 183 222
176 201 222
171 198 222
110 134 157
55 0 26
16 6 2
42 23 12
11 4 4
16 6 2
0 0 0
82 68 57
39 22 12
105 131 157
49 200 193
149 162 181
206 227 255
54 56 14
207 228 255
208 228 255
208 228 255
209 229 255
209 229 255
209 229 255
210 229 255
209 229 255
209 229 255
210 229 255
135 155 181
134 155 181
211 230 255
211 230 255
211 230 255
211 230 255
212 230 255
211 230 255
211 230 255
212 230 255
212 230 255
212 230 255
212 230 255
212 230 255
212 230 255
212 230 255
212 231 255
104 45 127
117 122 127
163 147 111
62 124 110
85 103 74
16 46 31
0 0 0
3 31 50
145 161 139
108 117 127
46 111 114
158 163 28
99 100 89
131 105 134
120 123 127
108 117 127
134 155 97
120 123 127
124 125 127
126 126 127
108 156 167
116 121 127
111 119 127
186 183 181
111 119 127
122 124 127
186 183 181
186 183 181
186 183 181
186 183 181
186 183 181
185 183 181
186 183 181
186 183 181
186 183 181
186 183 181
186 183 181
185 182 181
185 182 181
186 183 181
185 182 181
185 182 181
185 182 181
186 183 181
185 182 181
185 183 181
185 182 181
185 182 181
185 182 181
185 182 181
185 183 181
185 182 181
185 182 181
185 183 181
185 182 181
185 182 181
185 182 181
185 182 181
185 182 181
185 182 181
184 182 181
184 182 181
185 182 181
184 182 181
184 182 181
185 182 181
185 182 181
185 182 181
184 182 181
185 182 181
185 182 181
184 182 181
185 182 181
185 182 181
185 182 181
185 182 181
185 182 181
185 182 181
185 182 181
185 183 181
185 183 181
185 183 181
186 183 181
185 182 181
185 182 181
185 183 181
186 183 181
186 183 181
186 183 181
186 183 181
186 183 181
185 182 181
186 183 181
186 183 181
186 183 181
186 183 181
186 183 181
186 183 181
186 183 181
90 153 141
186 183 181
139 112 79
113 120 127
129 128 127
125 111 140
120 123 127
138 156 181
64 45 28
143 159 181
129 152 181
91 71 57
144 160 181
139 157 181
116 49 125
138 156 181
10 11 46
214 210 178
93 38 89
133 140 126
131 138 126
135 140 126
102 93 62
182 203 90
23 87 20
125 142 63
182 174 55
189 206 90
211 218 90
61 202 71
184 204 90
147 113 0
190 207 90
196 210 90
195 210 90
200 212 90
0 0 0
39 19 26
9 1 4
35 16 18
69 225 203
70 227 203
60 211 203
68 223 203
52 168 80
68 223 203
68 223 203
42 149 143
43 151 143
70 227 203
68 224 203
89 115 136
160 192 222
61 80 96
166 195 222
0 0 0
145 183 222
174 200 222
105 131 157
109 133 157
122 141 157
104 131 157
139 157 181
31 106 87
146 161 181
139 157 181
85 69 57
0 0 0
91 71 57
8 2 0
87 70 57
159 171 100
204 226 255
207 227 255
206 227 255
207 228 255
207 228 255
207 228 255
208 228 255
208 228 255
208 228 255
208 228 255
209 229 255
209 229 255
210 229 255
210 229 255
210 229 255
210 229 255
210 229 255
210 229 255
210 229 255
211 230 255
210 230 255
211 230 255
211 230 255
211 230 255
211 230 255
211 230 255
211 230 255
212 230 255
211 230 255
142 153 157
138 150 74
58 104 68
48 93 78
46 28 61
116 121 127
123 125 127
0 0 0
121 124 127
0 0 0
30 76 80
20 73 157
118 122 127
122 102 134
0 0 0
48 100 173
26 27 62
126 147 174
122 132 116
119 123 127
123 112 29
67 50 35
83 100 77
117 122 127
125 126 127
121 124 127
142 125 90
108 117 127
125 154 167
114 120 127
121 124 127
129 128 127
186 183 181
116 122 127
186 183 181
145 148 85
186 183 181
186 183 181
186 183 181
186 183 181
186 183 181
186 183 181
186 183 181
186 183 181
186 183 181
186 183 181
186 183 181
186 183 181
186 183 181
186 183 181
186 183 181
186 183 181
185 183 181
185 183 181
186 183 181
186 183 181
186 183 181
185 183 181
186 183 181
186 183 181
186 183 181
186 183 181
186 183 181
186 183 181
186 183 181
186 183 181
186 183 181
186 183 181
186 183 181
186 183 181
185 182 181
186 183 181
186 183 181
186 183 181
185 183 181
186 183 181
186 183 181
186 183 181
186 183 181
186 183 181
186 183 181
128 128 127
186 183 181
186 183 181
186 183 181
187 183 181
186 183 181
186 183 181
186 183 181
186 183 181
186 183 181
124 125 127
110 118 127
113 120 127
109 118 127
112 119 127
114 120 127
43 174 125
100 121 94
87 151 141
129 128 127
131 120 161
109 118 127
120 123 127
79 74 99
123 101 65
131 153 181
132 153 181
19 57 141
135 155 181
141 158 181
149 162 181
138 157 181
135 155 181
195 201 178
15 12 10
193 200 178
147 146 126
54 160 100
179 119 29
87 63 40
194 209 90
199 212 90
191 208 90
178 201 90
143 151 63
211 218 90
176 200 90
186 205 90
206 215 90
184 204 90
59 198 71
188 206 90
191 208 90
3 0 4
0 0 0
5 1 9
65 219 203
45 154 143
72 231 203
67 222 203
63 215 203
61 214 203
70 227 203
66 220 203
69 225 203
61 212 203
38 135 59
43 150 143
108 133 157
120 139 157
0 0 0
0 0 0
157 190 222
49 173 62
78 119 149
25 32 23
161 91 189
0 0 0
63 50 40
103 130 157
28 15 3
5 1 0
66 51 40
64 50 40
29 16 9
59 48 40
18 7 2
3 1 0
0 0 0
169 176 100
202 225 255
204 226 255
206 227 255
206 227 255
38 28 23
206 227 255
207 228 255
207 228 255
207 228 255
207 228 255
208 228 255
209 228 255
209 228 255
209 229 255
209 229 255
209 229 255
209 229 255
210 229 255
210 229 255
210 229 255
210 229 255
210 230 255
210 229 255
211 230 255
210 229 255
211 230 255
205 226 255
211 230 255
210 230 255
175 177 181
28 101 58
28 101 58
60 109 95
109 137 66
113 120 127
122 124 127
59 97 108
182 181 181
72 80 69
0 0 0
0 0 15
110 119 127
176 178 181
64 68 63
111 119 127
52 104 173
109 118 127
138 140 116
109 118 127
112 101 32
49 23 9
109 118 127
85 154 37
122 124 127
126 126 127
110 151 174
32 33 29
108 80 116
144 110 164
136 110 77
69 116 40
175 156 116
107 117 127
80 74 58
164 157 85
72 167 148
83 179 148
37 112 56
121 124 127
109 118 127
118 72 168
111 119 127
112 120 127
111 119 127
113 120 127
186 183 181
110 118 127
112 119 127
187 183 181
128 127 127
110 118 127
110 119 127
108 118 127
114 120 127
126 126 127
118 123 127
111 119 127
113 120 127
186 183 181
186 183 181
120 123 127
112 119 127
115 121 127
186 183 181
108 118 127
46 45 45
121 124 127
125 126 127
108 117 127
186 183 181
129 128 127
186 183 181
186 183 181
112 119 127
114 120 127
123 125 127
110 118 127
186 183 181
186 183 181
123 125 127
115 121 127
109 118 127
124 126 127
118 122 127
126 127 127
123 125 127
117 122 127
129 128 127
74 54 40
78 152 66
126 126 127
121 124 127
113 120 127
17 112 150
17 110 150
177 178 115
111 119 127
117 122 127
114 120 127
116 145 130
127 118 161
53 144 116
29 62 61
120 123 127
93 74 46
130 152 181
134 154 181
139 157 181
92 98 89
134 155 181
139 157 181
132 153 181
128 151 181
136 156 181
138 142 126
16 8 13
210 208 178
75 107 113
0 0 0
150 148 126
208 216 90
3 70 7
191 208 90
188 206 90
206 216 90
0 0 0
62 203 71
139 149 63
29 99 35
135 147 63
201 213 90
27 63 16
190 207 90
187 205 90
0 0 0
64 217 203
59 41 84
0 0 0
71 228 203
1 26 6
61 213 203
72 230 203
66 221 203
44 152 143
48 158 143
61 214 203
64 217 203
65 219 203
45 154 143
61 213 203
2 32 26
120 139 157
110 134 157
105 131 157
115 137 157
164 92 189
156 190 222
169 197 222
92 117 136
28 15 9
0 0 0
65 50 40
150 163 181
17 7 2
2 0 0
29 16 9
30 16 9
3 0 0
0 0 0
138 156 181
159 171 100
202 225 255
203 226 255
203 225 255
206 227 255
205 227 255
205 227 255
207 228 255
206 227 255
207 228 255
207 227 255
208 228 255
207 228 255
208 228 255
208 228 255
208 228 255
208 228 255
208 228 255
209 229 255
209 229 255
210 229 255
209 229 255
210 229 255
209 229 255
85 195 197
205 226 255
210 230 255
210 229 255
210 229 255
172 176 181
13 40 2
121 124 127
58 116 60
80 93 23
53 9 87
59 93 76
113 115 69
111 119 127
146 152 118
169 163 118
20 73 157
124 125 127
113 120 127
161 126 59
101 115 104
151 167 148
138 88 108
125 114 173
147 123 173
110 119 127
123 125 127
110 119 127
20 146 69
12 92 35
111 132 50
78 97 89
156 132 53
162 134 53
165 172 112
173 176 112
114 120 127
77 119 109
15 19 2
114 120 127
33 36 14
18 86 60
94 45 92
149 68 131
165 172 181
72 33 65
2 5 6
80 141 129
124 125 127
13 41 48
147 143 80
113 120 127
109 118 127
110 118 127
136 104 134
158 115 69
116 122 127
108 117 127
123 125 127
113 120 127
129 128 127
108 118 127
110 118 127
107 117 127
113 120 127
107 117 127
114 120 127
109 118 127
111 119 127
124 126 127
108 118 127
113 120 127
112 119 127
113 120 127
120 123 127
123 125 127
111 119 127
125 126 127
119 123 127
113 120 127
115 121 127
107 117 127
113 120 127
124 125 127
108 117 127
117 122 127
122 124 127
120 123 127
126 127 127
112 119 127
128 127 127
129 128 127
121 124 127
110 118 127
119 123 127
49 101 46
75 121 164
94 144 145
162 127 92
68 144 94
68 144 94
152 166 115
147 57 178
21 30 17
82 119 73
120 123 127
52 142 116
58 138 107
105 105 46
30 70 170
51 112 177
135 155 181
130 152 181
26 8 8
0 0 0
68 85 40
138 157 181
148 162 181
2 26 94
143 159 181
131 153 181
66 63 44
10 2 1
137 141 126
123 58 180
0 0 0
182 203 90
189 206 90
132 145 63
189 207 90
126 142 63
136 140 22
150 158 35
138 148 63
205 215 90
67 211 71
179 202 90
189 206 90
61 201 71
0 0 0
0 0 0
162 192 105
162 192 105
170 196 105
112 42 28
59 210 203
71 229 203
67 222 203
0 0 0
46 156 143
44 152 143
66 221 203
62 214 203
49 161 143
23 124 153
68 224 203
69 226 203
104 130 157
8 4 4
62 81 96
20 12 7
107 132 157
17 23 21
97 21 47
3 20 6
140 157 181
139 157 181
139 157 181
12 4 2
68 47 28
28 15 9
29 16 9
147 161 181
0 0 0
68 52 40
15 6 2
29 16 9
201 224 255
203 225 255
203 225 255
203 226 255
128 151 181
205 227 255
205 227 255
206 227 255
207 228 255
206 227 255
206 227 255
207 228 255
207 228 255
207 227 255
208 228 255
208 228 255
208 228 255
208 228 255
208 228 255
208 228 255
205 226 255
209 229 255
74 183 197
208 228 255
209 228 255
208 228 255
209 229 255
209 229 255
209 229 255
107 117 127
31 106 58
0 0 0
122 145 66
110 119 127
58 92 76
87 88 90
113 120 127
23 55 57
152 155 118
114 120 127
120 123 127
152 122 59
12 8 15
158 171 148
110 118 127
110 119 127
159 63 28
124 113 173
9 72 34
127 127 127
113 120 127
143 144 62
110 113 61
61 67 21
0 69 3
49 157 83
46 154 83
130 128 127
109 118 127
108 118 127
153 116 147
146 113 147
114 120 127
50 67 70
72 96 99
113 120 127
43 16 7
57 72 66
65 91 94
136 73 127
48 43 64
28 76 55
171 111 120
85 76 40
117 122 127
108 118 127
112 119 127
103 76 95
103 87 31
107 117 127
119 123 127
79 121 136
10 59 55
29 117 104
129 128 127
141 106 85
114 120 127
119 123 127
137 132 128
147 137 128
122 124 127
123 125 127
126 126 127
152 136 81
145 133 81
109 118 127
109 118 127
118 122 127
108 117 127
109 118 127
124 125 127
167 99 105
154 150 158
114 121 127
118 143 100
115 121 127
121 144 100
119 123 127
145 31 139
91 111 163
100 115 163
125 126 127
126 126 127
80 72 77
109 118 127
126 126 127
107 117 127
123 125 127
139 93 178
124 88 178
114 120 127
158 126 92
90 124 75
0 0 0
67 89 19
170 143 77
109 118 127
51 84 116
112 119 127
95 106 174
64 145 107
59 139 107
52 114 177
66 35 9
76 67 44
131 153 181
136 155 181
136 155 181
131 153 181
147 161 181
106 115 127
95 99 89
149 162 181
0 0 0
91 28 30
86 33 62
40 16 31
154 165 181
128 143 63
10 33 15
125 141 63
176 200 90
126 142 63
23 70 8
193 209 90
192 208 90
135 147 63
55 155 1
210 217 90
176 200 90
189 207 105
178 201 105
162 192 105
167 195 105
161 192 105
163 193 105
168 195 105
176 199 105
176 200 105
63 215 203
181 203 105
63 216 203
62 214 203
69 226 203
58 197 83
62 215 203
20 77 38
43 151 143
1 151 71
33 19 11
171 198 222
0 0 0
8 5 3
107 132 157
53 190 176
26 15 9
133 154 181
0 0 0
60 48 40
138 156 181
0 0 0
33 29 24
177 180 100
171 177 100
165 174 100
167 175 100
3 0 0
96 110 127
0 0 0
200 224 255
199 223 255
214 231 255
202 225 255
201 224 255
203 225 255
203 226 255
204 226 255
203 226 255
205 226 255
205 227 255
206 227 255
206 227 255
206 227 255
205 227 255
206 227 255
207 228 255
207 228 255
207 228 255
207 227 255
128 151 181
207 228 255
208 228 255
208 228 255
208 228 255
208 228 255
209 229 255
209 229 255
208 228 255
208 228 255
0 0 0
123 125 127
76 70 40
84 101 47
58 71 33
48 71 53
111 119 127
119 123 127
108 118 127
68 36 147
78 38 147
108 117 127
10 2 14
110 87 42
73 83 60
114 120 127
150 109 153
105 77 108
70 60 86
12 74 47
113 120 127
121 124 127
37 61 17
28 22 12
118 122 127
114 120 127
0 0 0
11 99 44
111 119 127
49 79 77
15 35 41
107 97 151
103 66 123
107 82 104
67 110 109
111 119 127
110 118 127
115 121 127
101 41 49
17 28 40
108 117 127
109 118 127
67 165 160
110 75 85
125 80 85
112 120 127
115 121 127
104 117 155
173 153 101
181 157 101
74 101 76
69 92 76
21 83 73
0 13 10
22 84 73
31 120 104
132 86 60
29 76 49
109 118 127
95 62 43
30 97 135
31 99 135
113 120 127
108 118 127
121 124 127
108 96 57
103 86 28
119 109 40
109 118 127
113 120 127
23 25 5
109 118 127
79 58 162
121 124 127
114 120 127
112 120 127
79 98 70
115 121 127
116 121 127
162 33 139
150 123 161
96 113 163
153 125 161
155 98 97
25 21 23
8 8 15
121 124 127
112 119 127
0 0 29
85 85 172
121 87 178
117 122 127
111 119 127
114 120 127
115 121 127
153 136 77
156 48 76
36 32 74
35 99 82
88 102 174
68 75 123
88 102 174
112 119 127
8 44 52
112 119 127
39 141 83
132 153 181
37 138 83
33 131 83
33 130 83
59 87 115
83 124 162
128 151 181
28 13 18
104 103 89
23 55 32
132 153 181
133 154 181
85 40 127
125 142 63
127 143 63
18 75 23
205 215 90
26 22 13
136 147 63
66 48 55
10 100 28
179 202 90
131 145 63
208 216 90
187 205 105
193 209 105
165 194 105
164 193 105
166 194 105
161 192 105
169 196 105
162 192 105
163 193 105
188 206 105
170 196 105
171 197 105
85 123 70
42 127 88
42 149 143
47 157 143
63 216 203
43 150 143
66 221 203
68 225 203
60 79 96
14 21 25
105 131 157
8 13 15
58 74 34
109 133 157
136 156 181
0 0 0
14 7 11
7 19 39
28 26 21
165 174 100
66 51 40
155 169 100
170 176 100
164 174 100
161 172 100
149 163 30
174 179 100
165 174 100
167 175 100
122 173 112
122 173 112
132 179 112
201 224 255
200 224 255
209 229 255
35 27 11
207 228 255
202 225 255
205 226 255
204 226 255
205 227 255
204 226 255
205 227 255
130 152 181
206 227 255
206 227 255
206 227 255
207 228 255
206 227 255
206 227 255
204 226 255
207 227 255
207 228 255
207 227 255
207 228 255
207 228 255
207 228 255
208 228 255
107 117 127
20 72 41
149 146 78
76 97 47
0 5 0
40 64 53
43 66 53
73 76 59
109 118 127
110 118 127
51 26 104
84 60 177
84 60 177
95 63 177
110 118 127
118 122 127
120 123 127
169 115 153
74 54 76
113 120 127
14 36 45
107 117 127
56 160 134
128 72 23
106 37 4
110 118 127
26 39 21
34 110 59
133 125 78
137 126 78
132 124 78
81 58 96
100 55 85
69 55 73
128 127 127
113 120 127
121 124 127
50 68 70
157 92 155
168 95 155
109 118 127
46 115 113
66 163 160
71 170 160
121 124 127
103 117 155
100 115 155
91 110 155
116 121 127
107 102 71
15 20 26
53 83 96
73 116 136
116 121 127
3 26 29
114 121 127
131 129 127
113 120 127
109 118 127
61 66 126
62 66 126
34 104 135
114 120 127
109 118 127
123 125 127
124 111 40
72 60 20
96 82 28
113 34 122
121 35 122
120 35 122
112 34 122
87 61 162
111 119 127
120 123 127
144 131 70
153 135 70
132 126 70
114 121 127
126 126 127
159 127 161
10 9 0
69 94 8
93 154 62
124 126 127
110 118 127
114 121 127
122 124 127
59 60 121
60 86 82
92 126 117
15 11 56
108 117 127
97 83 65
117 122 127
113 98 54
0 0 0
119 123 127
110 41 126
149 66 75
32 56 125
30 27 59
26 57 88
39 17 18
57 131 95
34 131 83
36 135 83
29 103 58
37 137 83
24 110 36
34 132 83
20 78 44
34 132 83
33 130 83
137 156 181
131 153 181
25 85 71
151 163 181
134 155 181
138 156 181
188 206 90
1 33 1
129 144 63
193 208 90
125 142 63
0 0 0
29 99 35
205 215 90
1 44 1
204 214 90
181 202 105
187 206 105
180 202 105
165 194 105
166 194 105
169 196 105
124 89 163
162 192 105
189 207 105
187 206 105
180 202 105
183 203 105
60 45 18
43 150 143
43 150 143
39 86 129
42 150 143
42 149 143
70 227 203
43 150 143
134 154 181
84 98 111
27 43 34
77 94 111
67 84 96
136 155 181
3 0 10
132 153 181
85 99 111
141 158 181
160 171 100
161 172 100
159 171 100
178 181 100
185 184 100
169 176 100
164 174 100
61 41 0
168 176 100
177 180 100
126 175 112
134 181 112
123 174 112
123 173 112
199 223 255
200 224 255
126 175 112
200 224 255
202 225 255
202 225 255
89 121 23
203 225 255
203 225 255
204 226 255
204 226 255
205 226 255
205 226 255
205 227 255
205 227 255
205 227 255
205 227 255
206 227 255
206 227 255
205 227 255
206 227 255
206 227 255
206 227 255
206 227 255
207 227 255
206 227 255
26 39 63
92 99 97
170 155 78
17 7 22
19 37 14
44 67 53
20 27 23
111 119 127
108 118 127
120 123 127
53 27 104
95 63 177
85 60 177
118 122 127
108 117 127
109 118 127
116 121 127
119 123 127
105 97 90
111 119 127
6 51 35
3 10 0
152 93 33
160 96 33
181 102 33
164 97 33
23 77 41
138 71 14
59 47 17
0 0 0
18 20 29
125 126 127
59 65 58
109 118 127
121 124 127
115 121 127
109 118 127
107 64 109
0 0 0
172 96 155
112 120 127
0 0 0
52 69 20
68 166 160
112 119 127
111 119 127
74 83 110
95 112 155
98 114 155
75 67 50
40 21 2
5 5 2
1 6 10
111 119 127
87 66 164
0 0 0
109 118 127
108 117 127
4 13 33
43 46 89
62 66 126
68 69 126
107 117 127
110 118 127
109 118 127
62 55 20
130 129 127
91 80 28
84 77 28
29 13 62
124 36 122
101 26 48
53 40 114
79 76 79
108 117 127
141 130 70
141 130 70
106 74 10
149 133 70
109 118 127
118 93 114
110 166 62
93 153 62
105 162 62
0 0 0
109 118 127
118 122 127
109 118 127
2 26 34
43 90 26
110 118 127
112 119 127
54 86 116
113 120 127
108 117 127
117 100 54
76 68 38
109 118 127
151 66 75
171 70 75
90 144 128
59 70 123
108 118 127
7 4 2
10 52 25
7 86 27
36 136 83
34 132 83
6 36 17
39 142 83
37 137 83
33 130 83
35 134 83
6 80 27
37 138 83
137 156 181
131 153 181
142 158 181
136 156 181
138 156 181
207 216 90
205 215 90
134 146 63
138 148 63
204 214 90
196 210 90
203 214 90
177 190 37
184 204 105
190 207 105
173 198 105
181 202 105
170 196 105
174 199 105
163 193 105
127 90 163
121 88 163
110 84 163
107 83 163
119 87 163
109 84 163
121 88 163
115 86 163
68 223 203
65 219 203
0 0 0
43 150 143
46 156 143
2 217 101
44 152 143
0 0 0
129 152 181
144 159 181
141 158 181
119 139 157
130 152 181
57 47 40
130 152 181
128 151 181
166 175 100
184 184 100
171 177 100
170 177 100
163 173 100
166 175 100
183 183 100
86 106 17
167 175 100
170 177 100
121 172 112
126 175 112
131 178 112
123 174 112
124 174 112
197 222 255
197 222 255
199 223 255
200 224 255
200 224 255
200 224 255
200 224 255
202 225 255
202 225 255
202 225 255
205 227 255
203 226 255
204 226 255
204 226 255
204 226 255
204 226 255
204 226 255
205 227 255
205 227 255
203 226 255
205 227 255
205 226 255
206 227 255
206 227 255
205 227 255
206 227 255
9 11 0
53 54 46
2 2 0
101 99 37
70 23 169
66 23 169
118 122 127
107 99 90
114 120 127
38 19 73
25 6 85
150 161 123
42 29 60
13 6 176
33 16 48
106 77 108
117 122 127
107 117 127
37 110 95
25 76 67
107 117 127
108 117 127
14 8 56
22 18 179
21 18 179
23 19 179
124 125 127
108 118 127
102 75 50
109 118 127
26 13 63
125 126 127
111 119 127
111 119 127
101 96 90
110 118 127
90 27 66
126 127 127
119 67 109
113 120 127
169 143 101
141 131 101
143 132 101
160 139 101
67 32 65
114 120 127
134 128 143
134 128 143
110 118 127
118 123 127
120 123 127
111 119 127
107 117 127
51 36 82
96 69 164
19 12 36
100 70 164
0 8 19
2 21 35
120 123 127
2 2 15
130 128 127
113 120 127
113 120 127
153 168 140
146 164 140
144 163 140
142 162 140
65 57 20
83 24 86
86 25 86
118 122 127
107 117 127
64 62 35
75 69 17
75 67 35
155 141 35
145 137 35
147 138 35
109 118 127
124 125 127
67 74 34
27 69 10
64 108 44
111 119 127
113 120 127
110 118 127
111 119 127
37 23 46
68 91 82
122 124 127
109 118 127
114 120 127
123 125 127
54 39 11
2 75 110
110 118 127
109 47 53
22 29 36
75 132 128
80 136 128
45 51 87
111 119 127
2 19 18
38 90 67
35 134 83
34 132 83
35 134 83
21 83 29
39 141 83
39 141 83
13 17 78
34 132 83
22 105 36
17 37 7
39 141 83
137 148 63
141 158 181
135 155 181
154 165 181
129 152 181
35 17 9
123 141 63
200 212 90
139 149 63
165 183 37
29 99 35
126 142 63
117 137 74
117 137 74
179 201 105
128 91 163
179 201 105
106 83 163
116 86 163
115 86 163
119 87 163
127 90 163
108 83 163
123 89 163
122 88 163
0 0 0
112 85 163
62 214 203
122 88 163
47 156 143
16 156 114
45 153 143
42 149 143
102 129 157
148 154 63
133 154 181
131 153 181
131 153 181
131 153 181
137 156 181
91 129 82
130 152 181
164 173 100
123 126 71
117 123 71
64 145 77
114 122 71
169 176 100
166 174 100
72 74 38
174 179 100
110 140 44
97 102 54
155 169 100
52 48 50
128 176 112
1 4 0
69 109 19
49 147 86
121 172 112
88 123 79
28 85 46
200 224 255
200 224 255
200 224 255
201 224 255
200 224 255
201 224 255
201 224 255
203 226 255
202 225 255
201 225 255
203 225 255
203 225 255
204 226 255
204 226 255
204 226 255
204 226 255
205 226 255
204 226 255
204 226 255
205 227 255
204 226 255
204 226 255
111 119 127
118 122 127
111 119 127
45 43 21
61 22 169
73 24 169
119 123 127
105 103 55
109 118 127
53 26 104
51 23 45
162 167 123
144 158 123
57 41 125
110 118 127
110 119 127
107 117 127
109 118 127
120 123 127
0 0 0
110 118 127
84 49 16
15 12 126
21 9 101
20 17 179
113 120 127
68 63 39
112 119 127
0 0 0
71 64 39
125 126 127
116 121 127
66 62 39
117 122 127
108 117 127
114 121 127
152 136 162
172 144 162
113 120 127
156 137 101
17 11 71
164 141 101
140 130 101
157 138 101
115 121 127
136 129 143
132 127 143
132 127 143
120 122 143
120 123 127
113 120 127
43 33 82
118 122 127
108 117 127
85 55 116
22 26 83
102 71 164
110 119 127
109 118 127
113 120 127
110 119 127
32 9 60
38 29 81
116 121 127
22 70 95
165 174 140
153 168 140
144 163 140
115 121 127
16 13 45
114 120 127
107 117 127
111 119 127
112 119 127
109 118 127
101 96 25
144 137 27
153 140 35
155 141 35
159 143 35
45 76 31
108 118 127
19 49 7
68 110 44
112 119 127
112 119 127
97 94 90
108 118 127
114 121 127
126 126 127
113 120 127
118 122 127
111 119 127
9 82 91
43 142 172
44 144 172
127 127 127
73 114 44
81 137 128
74 131 128
83 138 128
117 122 127
121 124 127
0 1 1
39 92 67
40 143 83
10 29 50
34 132 83
36 136 83
36 136 83
35 135 83
39 141 83
17 57 29
36 136 83
37 137 83
137 156 181
38 140 83
129 152 181
75 24 56
148 162 181
132 153 181
143 151 63
0 0 0
80 36 44
136 147 63
117 124 48
175 170 35
141 150 63
186 205 105
183 204 105
34 125 34
171 197 105
125 89 163
113 85 163
109 84 163
110 84 163
127 90 163
106 83 163
114 86 163
108 83 163
125 90 163
121 88 163
112 85 163
122 88 163
49 161 143
0 0 0
0 137 45
39 118 112
133 154 181
44 152 143
15 27 11
133 145 63
96 73 57
131 153 181
135 155 181
138 156 181
131 153 181
169 176 100
132 153 181
164 173 100
0 0 0
164 173 100
169 176 100
111 120 71
115 122 71
114 122 71
166 175 100
169 176 100
122 173 112
133 180 112
131 178 112
127 176 112
128 176 112
62 81 23
138 183 112
122 173 112
196 222 255
198 223 255
124 174 112
196 222 255
199 223 255
198 223 255
200 224 255
206 227 255
201 225 255
202 225 255
202 225 255
202 225 255
202 225 255
202 225 255
202 225 255
94 127 79
203 225 255
203 225 255
202 225 255
203 225 255
203 226 255
202 225 255
203 226 255
203 226 255
203 226 255
109 118 127
66 28 125
63 69 68
63 22 169
61 22 169
0 0 0
108 118 127
71 75 59
114 120 127
156 164 123
172 172 123
0 0 0
154 163 123
110 119 127
124 125 127
115 121 127
108 117 127
15 106 49
109 118 127
126 127 127
71 79 61
122 125 127
22 18 179
0 0 0
0 0 171
65 62 39
117 122 127
120 123 127
110 118 127
109 118 127
120 123 127
125 126 127
41 33 12
148 135 162
152 136 162
160 139 162
164 141 162
110 119 127
100 93 72
146 109 91
134 108 72
166 142 101
107 117 127
111 119 127
131 104 80
99 76 91
144 133 143
86 86 101
123 125 127
116 121 127
123 125 127
0 0 0
113 120 127
109 118 127
45 33 82
21 9 75
124 125 127
108 118 127
111 119 127
116 121 127
124 126 127
116 121 127
24 23 22
149 166 140
150 166 140
153 168 140
101 115 99
120 123 127
109 118 127
110 118 127
108 117 127
122 124 127
109 118 127
117 122 127
120 123 127
150 139 35
152 140 35
114 120 127
128 128 127
119 123 127
112 119 127
127 127 127
112 119 127
111 119 127
0 0 0
121 124 127
72 66 50
21 52 7
112 119 127
63 43 18
125 126 127
64 73 78
48 149 172
44 143 172
43 142 172
47 147 172
75 33 37
86 141 128
84 139 128
83 139 128
108 117 127
113 120 127
113 120 127
42 95 67
39 141 83
36 135 83
36 136 83
13 57 15
33 130 83
2 22 12
35 134 83
34 133 83
38 138 83
36 136 83
37 138 83
143 159 181
145 160 181
136 155 181
140 157 181
132 153 181
39 16 2
95 73 57
132 153 181
16 61 14
62 63 3
133 146 63
14 43 2
41 139 59
186 205 105
193 209 105
121 88 163
124 89 163
79 60 115
107 83 163
115 86 163
107 83 163
119 87 163
112 85 163
112 85 163
0 0 0
122 88 163
76 59 115
111 84 163
46 7 77
45 153 143
71 228 203
43 150 143
28 85 21
139 157 181
143 159 181
134 154 181
142 144 126
129 152 181
144 159 181
33 84 52
141 158 181
1 36 25
169 176 100
176 180 100
174 179 100
113 121 71
0 0 0
99 68 64
121 125 71
162 173 100
171 177 100
129 177 112
130 178 112
130 178 112
123 173 112
128 177 112
125 175 112
122 173 112
83 120 79
121 172 112
122 173 112
123 173 112
196 222 255
121 172 112
197 222 255
198 223 255
199 223 255
198 223 255
200 224 255
205 227 255
200 224 255
200 224 255
200 224 255
201 225 255
202 225 255
71 179 197
201 224 255
202 225 255
202 225 255
202 225 255
202 225 255
202 225 255
202 225 255
203 225 255
103 98 50
110 118 127
110 118 127
21 18 4
76 73 39
38 15 115
43 15 120
109 118 127
130 129 127
117 122 127
112 119 127
154 163 123
136 130 86
164 168 123
125 71 23
116 121 127
118 122 127
119 123 127
109 118 127
75 46 16
125 126 127
118 123 127
10 8 89
14 12 126
12 12 149
14 12 126
10 5 16
14 12 126
108 117 127
111 119 127
110 118 127
123 125 127
112 120 127
118 122 127
154 137 162
169 143 162
131 107 114
163 141 162
170 143 162
157 138 162
147 109 91
94 169 136
145 133 101
99 95 90
46 36 20
135 128 143
76 68 71
142 131 143
16 16 27
110 95 55
109 118 127
114 120 127
95 94 70
109 118 127
109 99 90
109 118 127
111 119 127
130 129 127
107 117 127
124 125 127
116 121 127
108 117 127
111 119 127
117 122 127
148 165 140
151 167 140
164 174 140
105 117 99
54 91 130
60 95 130
55 91 130
117 122 127
110 119 127
127 127 127
127 127 127
48 39 2
31 8 11
105 98 25
117 122 127
118 123 127
117 122 127
90 91 90
116 121 127
32 61 1
119 123 127
113 120 127
125 126 127
121 124 127
115 121 127
111 119 127
109 118 127
106 98 90
109 118 127
30 99 122
44 143 172
44 143 172
121 124 127
54 68 50
23 117 122
60 99 90
28 59 75
114 120 127
2 16 10
122 124 127
50 40 29
37 136 83
36 136 83
129 143 90
22 75 41
36 136 83
24 94 58
37 137 83
36 136 83
0 0 0
21 53 53
34 132 83
36 135 83
151 163 181
128 151 181
143 159 181
61 66 11
14 13 0
91 101 45
144 160 181
0 0 0
99 105 45
99 105 45
192 209 105
127 142 74
115 136 74
112 85 163
52 38 40
76 59 115
42 21 36
114 85 163
15 37 37
48 23 73
114 86 163
76 59 115
77 59 115
127 90 163
114 86 163
121 88 163
35 25 43
119 87 163
43 151 143
43 151 143
129 152 181
147 161 181
134 154 181
145 160 181
138 156 181
30 106 101
132 153 181
134 154 181
133 154 181
133 154 181
129 152 181
130 152 181
175 179 100
104 70 64
180 181 100
0 0 0
101 69 64
175 179 100
171 177 100
161 172 100
15 21 11
83 120 79
81 119 79
68 65 71
126 175 112
81 119 79
126 175 112
126 175 112
128 176 112
127 176 112
14 41 0
123 173 112
194 221 255
194 221 255
195 221 255
197 222 255
197 222 255
198 223 255
84 195 197
85 196 197
75 184 197
75 184 197
84 194 197
72 181 197
84 195 197
75 185 197
85 196 197
201 224 255
201 225 255
201 224 255
201 224 255
201 224 255
200 224 255
168 173 181
110 119 127
48 33 57
70 72 68
117 122 127
6 1 10
12 1 79
109 118 127
111 119 127
36 12 84
58 41 125
165 168 123
67 64 43
154 163 123
48 32 88
125 126 127
64 43 125
128 127 127
0 7 1
13 4 51
111 119 127
109 118 127
120 123 127
1 0 81
22 18 179
0 0 34
112 120 127
117 122 127
107 117 127
0 0 0
110 118 127
108 118 127
117 122 127
108 117 127
121 124 127
104 80 81
168 143 162
100 78 81
87 133 122
83 159 136
85 161 136
94 168 136
86 162 136
66 63 71
24 17 46
69 65 71
41 35 45
6 2 16
121 124 127
84 71 50
110 118 127
110 119 127
108 117 127
117 122 127
111 119 127
79 69 50
113 120 127
128 127 127
46 33 82
113 120 127
111 119 127
109 118 127
75 83 70
40 108 78
122 124 127
51 58 38
62 97 130
61 96 130
57 93 130
52 90 130
56 92 130
39 65 92
109 118 127
110 118 127
123 125 127
83 73 17
39 36 31
78 71 17
0 0 0
45 62 58
109 118 127
107 117 127
107 117 127
73 114 44
21 11 15
118 122 127
115 121 127
124 125 127
112 119 127
97 90 50
121 124 127
110 118 127
109 118 127
35 108 122
31 102 122
110 126 177
116 121 127
127 127 127
10 56 61
62 101 90
59 98 90
122 124 127
82 34 37
115 121 127
120 124 127
127 142 90
115 135 90
116 136 90
129 143 90
124 140 90
24 94 58
23 107 36
32 108 58
40 142 83
35 134 83
24 94 58
133 154 181
142 159 181
133 154 181
130 152 181
130 152 181
143 159 181
22 51 32
42 44 2
136 155 181
97 104 45
50 162 143
117 137 74
0 0 0
122 88 163
2 0 7
120 88 163
75 58 115
120 88 163
119 87 163
81 60 115
118 87 163
44 21 55
126 90 163
117 87 163
80 60 115
43 26 68
73 56 78
126 90 163
0 0 0
106 83 163
32 108 101
128 151 181
141 158 181
0 0 0
129 152 181
19 45 11
33 139 136
129 152 181
151 163 181
115 121 127
136 155 181
137 156 181
163 173 100
157 170 100
179 181 100
167 175 100
122 125 71
0 0 0
164 173 100
67 149 77
112 121 71
51 47 50
37 34 35
19 65 4
122 173 112
0 0 0
126 176 112
140 185 112
118 170 112
123 174 112
83 120 79
32 100 61
130 178 112
124 174 112
211 230 255
194 221 255
195 221 255
72 181 197
79 188 197
74 182 197
74 183 197
74 183 197
77 187 197
79 189 197
80 190 197
74 135 175
83 193 197
31 56 170
30 72 95
200 224 255
200 224 255
200 224 255
201 224 255
200 224 255
133 154 181
58 138 139
168 170 53
155 164 53
109 118 127
113 120 127
9 2 168
46 16 120
24 5 118
33 50 65
111 119 127
108 118 127
65 55 33
50 40 21
35 11 46
67 56 33
121 124 127
111 119 127
52 25 45
121 124 127
120 123 127
111 119 127
116 68 23
113 120 127
0 0 0
0 0 0
115 121 127
51 58 61
108 118 127
114 120 127
111 119 127
108 118 127
108 118 127
109 118 127
111 119 127
105 95 114
159 139 162
112 98 114
88 163 136
0 0 0
76 112 74
87 163 136
62 115 96
50 13 43
110 118 127
116 121 127
108 118 127
61 61 71
115 121 127
108 118 127
60 61 71
123 125 127
128 128 127
119 123 127
122 124 127
112 119 127
109 118 127
107 117 127
109 118 127
90 91 90
121 124 127
110 118 127
108 118 127
30 56 51
123 125 127
109 118 127
59 95 130
58 94 130
57 93 130
58 94 130
57 93 130
52 75 25
110 118 127
111 119 127
111 119 127
78 70 17
119 123 127
2 14 21
39 123 135
39 122 135
40 123 135
115 121 127
115 121 127
95 117 47
110 119 127
114 120 127
108 117 127
111 119 127
145 172 67
155 177 67
121 124 127
115 121 127
108 117 127
3 104 156
109 126 177
92 98 125
112 127 177
117 130 177
3 16 11
7 31 22
117 122 127
107 117 127
111 119 127
110 118 127
108 117 127
114 135 90
118 137 90
133 145 90
115 135 90
130 143 90
114 135 90
116 136 90
125 140 90
24 93 58
40 142 83
36 135 83
21 52 53
0 0 0
131 153 181
135 155 181
139 149 63
135 155 181
150 163 181
152 164 181
60 66 11
130 152 181
131 153 181
95 104 45
191 208 105
109 84 163
0 0 0
71 53 75
118 87 163
113 85 163
32 26 56
120 88 163
124 89 163
116 86 163
107 83 163
35 17 52
76 59 115
118 87 163
118 87 163
121 88 163
123 89 163
124 89 163
135 155 181
32 109 101
11 112 80
130 152 181
142 159 181
143 159 181
132 154 181
140 157 181
134 154 181
143 159 181
140 157 181
78 80 20
105 70 64
155 169 100
0 0 0
112 120 71
177 180 100
169 176 100
93 93 50
169 176 100
110 120 71
131 179 112
40 69 24
133 180 112
137 183 112
138 184 112
85 121 79
122 173 112
123 174 112
83 120 79
123 173 112
123 173 112
138 183 112
122 172 112
85 121 79
191 219 255
78 187 197
75 184 197
77 186 197
0 0 0
0 0 0
85 196 197
72 152 139
75 184 197
84 194 197
73 181 197
81 191 197
75 184 197
79 188 197
40 48 155
70 178 197
199 223 255
198 223 255
197 222 255
199 223 255
199 223 255
171 172 53
18 20 18
17 5 34
17 7 14
30 11 31
0 0 0
109 118 127
125 126 127
30 70 69
119 120 86
116 121 127
0 0 0
0 0 0
95 93 90
114 120 127
107 117 127
115 121 127
64 117 96
0 0 0
107 117 127
109 118 127
108 118 127
122 124 127
43 37 31
112 119 127
46 83 68
112 119 127
112 120 127
109 118 127
124 125 127
116 100 114
111 119 127
116 121 127
121 102 114
104 95 114
11 21 18
82 158 136
27 81 21
77 129 96
87 162 136
13 7 22
68 63 89
114 120 127
115 121 127
110 118 127
8 5 3
112 119 127
109 118 127
110 119 127
110 119 127
118 122 127
114 120 127
120 123 127
118 122 127
113 120 127
122 124 127
110 118 127
109 118 127
108 117 127
108 117 127
129 128 127
113 120 127
0 0 0
131 129 127
0 0 0
38 64 92
45 36 85
61 96 130
10 48 68
38 64 92
122 124 127
128 127 127
110 118 127
113 120 127
121 124 127
0 0 0
39 122 135
37 101 95
41 124 135
40 124 135
108 118 127
72 68 17
117 122 127
115 102 25
110 118 127
135 166 67
143 170 67
155 177 67
131 164 67
77 33 37
113 120 127
113 128 177
127 135 177
108 125 177
111 127 177
119 131 177
41 68 64
7 40 43
113 120 127
121 124 127
124 125 127
125 126 127
62 101 90
114 120 39
179 189 111
212 205 111
178 189 111
0 0 0
178 189 111
184 191 111
182 190 111
128 142 90
13 35 37
26 97 58
38 138 83
134 154 181
132 153 181
134 154 181
155 165 181
131 153 181
140 158 181
32 109 101
133 154 181
41 111 89
137 156 181
131 153 181
119 138 74
11 27 26
76 59 115
126 90 163
106 83 163
77 59 115
112 85 163
126 90 163
74 58 115
118 87 163
82 61 115
0 0 0
102 68 115
47 35 62
80 60 115
119 87 163
123 89 163
81 61 115
114 85 163
131 153 181
135 155 181
130 152 181
132 153 181
132 153 181
141 158 181
131 153 181
147 161 181
136 155 181
133 154 181
137 156 181
32 29 2
186 185 100
126 128 71
111 120 71
150 140 71
115 122 71
111 120 71
172 178 100
26 110 19
88 123 79
11 13 78
125 175 112
13 17 2
120 171 112
86 115 39
85 121 79
80 70 71
86 122 79
38 48 8
84 121 79
84 121 79
122 173 112
88 123 79
82 119 79
52 129 139
71 179 197
74 183 197
74 183 197
51 128 139
84 195 197
80 190 197
75 184 197
71 156 190
70 178 197
74 183 197
79 189 197
77 186 197
52 128 139
27 44 31
70 150 139
197 222 255
197 222 255
196 222 255
197 222 255
87 88 90
105 114 38
123 125 127
124 126 127
2 0 37
116 121 127
22 53 7
116 121 127
109 118 127
107 117 127
108 117 127
124 126 127
76 81 61
113 120 127
110 118 127
129 113 98
122 124 127
117 122 127
119 123 127
114 120 127
118 122 127
11 9 89
120 123 127
126 126 127
125 126 127
116 121 127
104 113 86
111 119 127
117 122 127
0 0 1
64 64 63
120 123 127
110 119 127
113 120 127
81 70 81
77 68 81
65 118 96
91 166 136
98 172 136
58 112 96
96 170 136
51 46 63
108 117 127
107 117 127
107 117 127
107 117 127
125 126 127
109 99 90
132 67 118
124 126 127
127 66 118
126 66 118
130 67 118
72 82 70
114 120 127
112 119 127
110 118 127
118 123 127
123 125 127
125 126 127
115 121 127
108 117 127
114 120 127
118 122 127
116 121 127
38 64 92
39 65 92
7 34 48
1 18 25
119 123 127
116 121 127
109 118 127
113 120 127
28 87 95
44 129 135
39 103 95
40 124 135
46 132 135
39 122 135
39 122 135
44 129 135
122 124 127
116 121 127
21 70 86
152 175 67
129 162 67
149 174 67
132 164 67
116 130 47
2 0 0
33 37 16
116 129 177
93 98 125
76 88 125
118 130 177
113 128 177
114 120 127
122 124 127
53 93 90
121 124 127
108 118 127
108 117 127
112 119 127
128 142 90
177 188 111
193 196 111
180 189 111
186 192 111
180 190 111
195 197 111
188 193 111
183 191 111
187 193 111
0 0 0
14 37 37
130 152 181
141 158 181
134 154 181
143 159 181
62 23 34
35 114 101
51 37 31
0 127 14
131 153 181
145 160 181
132 153 181
132 153 181
120 139 74
126 90 163
107 83 163
111 128 137
120 88 163
20 18 3
112 85 163
75 58 115
122 88 163
113 85 163
6 21 34
78 60 115
121 88 163
76 59 115
78 60 115
84 61 115
125 90 163
77 59 115
146 161 181
130 152 181
144 160 181
131 153 181
130 152 181
153 165 181
133 154 181
133 154 181
28 61 91
146 161 181
131 153 181
0 0 0
178 180 100
176 180 100
119 124 71
126 127 71
186 184 100
125 127 71
68 67 19
63 76 12
115 122 71
59 100 34
121 172 112
54 69 22
65 89 56
128 177 112
87 123 79
123 173 112
89 124 79
134 180 112
126 175 112
133 180 112
122 173 112
55 96 34
78 188 197
76 185 197
75 184 197
84 194 197
80 190 197
76 185 197
74 183 197
82 193 197
84 194 197
76 186 197
71 180 197
67 147 139
85 196 197
78 188 197
77 186 197
71 179 197
74 182 197
77 186 197
195 221 255
144 160 181
62 141 139
117 122 127
60 52 13
113 120 127
110 118 127
66 48 34
32 11 84
120 123 127
109 118 127
111 119 127
34 83 80
112 119 127
120 123 127
4 1 3
126 126 127
131 113 98
126 111 98
128 112 98
131 114 98
124 111 98
115 121 127
111 119 127
122 124 127
10 9 89
122 124 127
127 127 127
44 55 75
116 121 127
112 120 127
113 120 127
107 117 127
110 119 127
113 120 127
63 43 125
113 120 127
115 121 127
89 74 81
60 114 96
49 87 68
0 0 0
84 159 136
93 168 136
85 160 136
113 120 127
116 121 127
72 68 63
131 129 127
114 120 127
44 81 68
132 68 118
135 68 118
148 71 118
142 70 118
150 72 118
150 72 118
138 69 118
125 126 127
109 118 127
126 126 127
114 121 127
113 120 127
107 117 127
120 123 127
56 17 61
111 119 127
42 67 92
43 68 92
3 26 49
43 68 92
39 65 92
112 119 127
124 125 127
124 125 127
119 123 127
39 122 135
0 0 0
23 67 67
39 122 135
34 96 95
42 127 135
43 127 135
123 125 127
117 122 127
19 29 6
0 0 0
106 123 47
134 165 67
81 92 33
1 1 46
132 164 67
56 91 23
107 125 177
93 123 65
88 95 125
90 97 125
90 97 125
110 119 127
7 36 17
58 97 90
108 117 127
111 119 127
31 41 74
112 119 127
113 120 127
184 191 111
184 191 111
0 0 0
196 197 111
177 188 111
0 0 0
199 199 111
187 193 111
203 201 111
211 204 111
198 198 111
143 159 181
96 113 111
144 159 181
134 154 181
122 127 111
128 151 181
143 159 181
137 156 181
128 151 181
137 156 181
26 5 9
147 161 181
152 164 181
105 105 97
79 60 115
110 128 137
120 133 137
112 129 137
79 87 47
107 126 137
111 128 137
116 86 163
118 87 163
79 60 115
76 59 115
77 59 115
117 87 163
20 30 50
49 38 33
122 88 163
83 97 52
138 157 181
132 153 181
138 156 181
133 154 181
60 48 40
139 157 181
138 156 181
128 151 181
138 156 181
86 89 78
2 78 45
177 180 100
182 183 100
117 123 71
110 120 71
174 178 100
0 0 0
43 38 5
112 121 71
77 98 31
116 123 71
9 54 4
89 124 79
137 183 112
50 71 42
85 121 79
113 140 79
126 175 112
131 179 112
91 125 79
39 68 24
60 100 34
97 129 79
121 172 112
77 186 197
72 181 197
76 185 197
81 191 197
75 184 197
70 179 197
81 191 197
60 140 139
76 185 197
44 100 98
47 112 106
50 127 139
81 190 197
33 73 69
50 127 139
77 187 197
83 193 197
71 179 197
130 152 181
194 221 255
195 221 255
195 221 255
52 38 32
164 169 53
48 65 39
46 16 120
18 24 37
120 123 127
74 80 61
111 119 127
125 126 127
113 120 127
109 118 127
110 118 127
111 119 127
124 111 98
43 62 49
133 114 98
127 112 98
123 110 98
89 79 69
108 117 127
108 117 127
61 114 96
107 117 127
63 55 49
110 119 127
123 125 127
0 0 0
116 122 127
108 117 127
41 79 68
42 80 68
117 122 127
110 118 127
47 85 68
109 118 127
15 53 36
52 89 68
97 171 136
58 112 96
51 89 68
0 0 0
95 90 101
45 83 68
109 118 127
107 117 127
0 0 0
110 118 127
140 69 118
109 45 64
122 55 83
106 51 83
120 54 83
136 68 118
132 67 118
111 119 127
109 118 127
111 119 127
127 127 127
122 125 127
114 121 127
107 117 127
114 121 127
108 117 127
40 65 92
26 45 65
19 61 67
0 0 0
110 118 127
123 125 127
118 122 127
30 90 95
108 118 127
30 90 95
40 124 135
28 87 95
42 127 135
22 102 115
46 133 135
43 128 135
122 124 127
109 118 127
23 84 35
143 171 67
132 164 67
143 171 67
136 166 67
142 170 67
19 64 25
149 174 67
16 22 0
90 122 65
63 68 88
46 49 62
18 59 84
87 94 125
114 120 127
128 127 127
120 124 127
107 117 127
108 117 127
107 117 127
58 75 106
194 196 111
209 204 111
178 189 111
187 193 111
201 199 111
193 196 111
198 198 111
187 193 111
190 194 111
189 194 111
188 194 111
123 120 59
180 189 111
133 154 181
132 153 181
135 155 181
135 155 181
133 154 181
133 154 181
148 162 181
133 154 181
135 155 181
129 152 181
114 129 137
111 128 137
106 125 137
114 130 137
86 83 74
113 129 137
114 130 137
32 12 27
64 69 68
108 126 137
116 130 137
85 61 34
121 88 163
75 58 115
0 0 0
76 69 71
128 90 163
79 60 115
121 88 163
151 163 181
130 144 74
131 153 181
136 155 181
134 154 181
140 157 181
130 152 181
136 155 181
151 164 181
131 153 181
130 152 181
137 156 181
117 117 29
143 159 181
34 69 51
115 122 71
23 78 23
99 96 50
116 123 71
127 128 71
91 125 79
5 2 4
84 120 79
89 124 79
91 125 79
82 119 79
36 34 35
32 99 61
88 123 79
82 106 34
135 181 112
45 141 86
0 0 0
97 129 79
73 182 197
83 194 197
79 168 86
53 130 139
51 128 139
76 185 197
71 180 197
57 117 86
77 187 197
52 129 139
29 83 94
79 188 197
76 185 197
52 129 139
80 189 197
82 192 197
51 128 139
81 190 197
192 220 255
191 219 255
193 220 255
190 218 255
120 123 127
92 111 122
100 115 122
108 117 127
109 118 127
112 119 127
123 125 127
110 118 127
105 98 90
114 120 127
115 121 127
124 126 127
113 120 127
136 115 98
123 110 98
116 90 69
87 78 69
28 7 14
139 117 98
132 114 98
115 121 127
126 127 127
110 118 127
112 119 127
108 118 127
108 118 127
116 121 127
108 118 127
112 120 127
35 54 37
110 118 127
110 118 127
33 26 76
42 80 68
107 117 127
111 119 127
68 121 96
41 79 68
17 55 36
17 56 36
119 123 127
119 123 127
109 118 127
61 61 71
74 69 63
117 122 127
111 119 127
152 72 118
132 68 118
138 69 118
32 0 3
112 53 83
129 67 118
133 68 118
140 69 118
118 122 127
109 118 127
109 118 127
111 119 127
113 120 127
90 91 90
115 121 127
22 18 42
27 45 65
115 121 127
111 119 127
37 66 64
116 121 127
117 122 127
107 117 127
110 119 127
123 125 127
27 86 95
30 90 95
6 13 133
4 10 30
13 24 60
46 131 135
41 125 135
119 123 127
9 8 86
26 89 35
28 93 35
153 176 67
123 134 47
14 94 0
152 175 67
152 176 67
15 18 42
37 74 32
72 91 46
118 130 177
13 15 30
108 118 127
109 118 127
116 121 127
108 117 127
109 118 127
35 58 79
116 122 127
113 120 127
110 118 127
92 25 0
189 194 111
195 197 111
185 192 111
182 191 111
176 188 111
172 156 78
190 109 20
202 200 111
118 117 59
178 189 111
212 205 111
195 197 111
131 153 181
134 154 181
140 157 181
147 161 181
132 153 181
134 154 181
150 163 181
132 153 181
128 137 137
106 126 137
28 22 67
110 128 137
114 130 137
0 0 0
111 128 137
116 130 137
112 128 137
108 126 137
106 126 137
114 130 137
119 132 137
37 17 52
88 63 115
112 85 163
74 52 87
32 51 89
85 62 115
16 9 2
91 71 57
157 167 181
143 159 181
136 155 181
147 161 181
147 161 181
141 158 181
132 153 181
140 158 181
47 47 14
132 153 181
134 154 181
127 142 74
128 151 181
119 124 71
116 123 71
112 103 28
112 121 71
118 123 71
122 126 71
180 182 100
112 121 71
53 48 50
129 177 112
87 123 79
47 144 86
38 67 24
86 122 79
61 101 34
90 125 79
87 123 79
48 145 86
85 121 79
82 119 79
86 122 79
83 194 197
77 186 197
43 100 98
5 24 6
1 1 13
55 133 139
16 11 40
75 184 197
53 130 139
53 130 139
22 61 67
51 128 139
50 127 139
50 126 139
0 0 0
43 99 98
84 194 197
73 182 197
190 219 255
189 218 255
93 72 220
189 218 255
115 121 127
92 111 122
97 114 122
99 114 122
102 96 90
109 118 127
121 124 127
110 119 127
109 118 127
107 98 90
115 121 127
114 120 127
111 119 127
111 88 69
125 111 98
124 93 69
98 61 37
65 19 14
71 108 74
78 62 49
121 124 127
108 118 127
116 121 127
3 3 3
109 118 127
63 37 73
111 119 127
109 118 127
120 124 127
110 118 127
110 118 127
71 68 63
68 121 96
115 121 127
3 3 3
110 118 127
67 119 96
112 119 127
112 120 127
114 121 127
109 118 127
57 111 96
45 83 68
27 53 32
112 120 127
94 93 90
35 21 32
61 45 29
51 17 82
89 39 59
74 36 59
119 54 83
149 71 118
110 52 83
146 71 118
117 122 127
123 125 127
126 127 127
68 34 59
22 41 44
16 25 32
15 24 32
111 119 127
116 121 127
108 118 127
109 118 127
33 51 65
109 118 127
30 48 65
119 123 127
91 91 90
110 118 127
27 86 95
28 87 95
23 66 67
3 22 45
26 70 67
111 119 127
51 35 41
109 118 127
74 86 33
3 32 13
110 127 47
95 117 47
14 17 11
77 89 33
101 120 47
20 27 83
36 36 44
63 68 88
0 0 0
129 136 177
86 93 125
34 6 7
59 76 106
107 117 127
114 69 81
109 118 127
122 124 127
56 80 52
116 121 127
87 94 125
208 203 111
201 200 111
13 5 11
181 190 111
189 194 111
127 134 78
177 188 111
182 191 111
179 189 111
188 194 111
181 190 111
208 203 111
190 194 111
179 189 111
133 154 181
140 157 181
129 144 74
133 154 181
132 153 181
142 159 181
115 130 137
116 131 137
82 92 97
113 129 137
113 129 137
109 127 137
111 128 137
113 129 137
111 128 137
106 126 137
77 74 115
116 131 137
126 136 137
124 135 137
111 128 137
117 131 137
79 60 115
82 61 115
75 58 115
36 41 4
122 88 163
81 60 115
130 152 181
134 154 181
142 159 181
116 137 74
132 153 181
130 152 181
133 154 181
131 153 181
128 151 181
20 63 28
143 159 181
130 152 181
149 162 181
124 141 74
23 23 12
71 69 19
7 9 0
11 16 0
22 37 6
112 121 71
173 178 100
112 121 71
180 209 76
181 210 76
72 106 16
70 66 71
103 134 79
128 176 112
86 122 79
84 120 79
83 120 79
93 126 79
47 145 86
138 183 112
60 139 139
75 184 197
52 129 139
82 193 197
75 185 197
58 136 139
22 54 53
49 126 139
50 126 139
29 75 75
78 187 197
51 128 139
78 187 197
73 181 197
50 126 139
85 69 220
0 0 0
71 180 197
88 70 220
91 71 220
84 68 220
89 70 220
0 0 0
163 168 53
75 85 86
99 115 122
76 84 86
1 3 33
109 118 127
116 122 127
109 118 127
112 119 127
107 98 90
109 118 127
112 120 127
109 118 127
124 93 69
128 112 98
58 44 39
124 111 98
48 75 52
137 116 98
94 81 69
123 125 127
117 122 127
113 120 127
109 118 127
111 119 127
119 123 127
111 119 127
115 121 127
115 121 127
115 121 127
116 122 127
120 123 127
109 118 127
115 121 127
53 25 41
38 35 31
103 92 55
117 122 127
41 79 68
108 117 127
112 117 86
112 119 127
121 124 127
123 125 127
113 120 127
111 119 127
78 45 80
146 71 118
27 11 14
79 37 59
133 68 118
104 50 83
47 29 69
109 118 127
108 117 127
108 117 127
120 123 127
92 92 90
107 117 127
111 119 127
110 119 127
109 99 90
107 117 127
110 118 127
65 65 63
38 64 92
92 92 90
125 126 127
119 123 127
110 118 127
0 0 0
38 64 92
0 17 18
22 65 67
16 57 79
5 48 50
108 117 127
98 94 90
109 118 127
93 48 83
42 46 16
51 47 19
93 116 47
8 13 8
0 0 0
9 24 6
65 28 125
112 119 127
0 0 0
65 65 63
4 0 3
121 124 127
111 119 127
55 63 88
89 90 90
108 117 127
109 118 127
111 119 127
120 123 127
119 123 127
40 53 75
183 191 111
74 25 104
209 204 111
0 0 0
195 197 111
118 117 59
146 143 78
184 191 111
150 146 78
190 194 111
210 204 111
190 195 111
183 191 111
195 197 111
180 190 111
149 162 181
130 152 181
57 40 28
132 153 181
59 45 135
109 127 137
126 136 137
10 1 60
123 134 137
110 127 137
111 128 137
110 128 137
76 89 97
112 128 137
119 133 137
126 136 137
106 125 137
118 132 137
75 88 97
105 125 137
126 136 137
85 62 115
44 34 62
75 59 115
121 88 163
107 115 127
140 158 181
128 151 181
142 159 181
137 156 181
139 157 181
71 48 45
146 161 181
82 87 50
134 154 181
132 153 181
132 153 181
14 33 13
72 77 20
145 160 181
130 152 181
53 48 50
129 152 181
0 2 0
188 213 76
6 5 1
175 207 76
0 0 0
146 160 53
188 213 76
194 217 76
181 210 76
88 123 79
50 47 50
123 154 48
38 67 24
84 121 79
0 0 0
24 53 10
37 67 24
133 154 181
23 115 108
80 190 197
69 158 86
49 123 95
31 76 75
76 185 197
0 0 0
0 0 0
67 147 139
75 184 197
60 140 139
42 98 98
80 190 197
51 128 139
0 42 22
87 69 220
81 67 220
89 70 220
83 68 220
0 0 0
95 73 220
96 73 220
82 68 220
113 120 127
100 115 122
93 111 122
64 78 86
110 118 127
116 121 127
111 119 127
122 125 127
113 120 127
109 118 127
64 66 61
110 118 127
46 39 29
126 126 127
135 115 98
69 49 34
129 113 98
105 85 69
145 119 98
141 117 98
126 127 127
102 84 69
111 119 127
109 99 90
66 57 49
109 118 127
110 118 127
114 120 127
109 118 127
101 96 90
111 119 127
97 94 90
121 124 127
112 119 127
47 84 68
112 119 127
0 0 0
38 64 48
96 89 55
118 122 127
69 34 59
121 124 127
32 81 80
108 118 127
70 35 59
69 66 63
109 118 127
105 51 83
0 0 0
90 39 59
12 4 5
86 39 59
122 124 127
110 118 127
41 6 7
108 117 127
68 34 59
115 121 127
123 125 127
109 118 127
93 92 90
112 119 127
108 117 127
113 120 127
111 119 127
61 53 45
116 121 127
114 120 127
23 66 67
19 61 67
20 62 67
23 66 67
0 0 0
11 11 89
99 95 90
10 33 12
19 61 67
0 0 0
97 94 90
111 119 127
18 62 25
114 120 127
19 64 25
15 22 1
36 38 7
110 119 127
28 36 22
108 117 127
110 119 127
113 120 127
62 90 17
43 49 87
83 92 125
46 48 62
110 119 127
115 121 127
12 8 5
125 126 127
90 91 90
116 121 127
107 117 127
182 191 111
0 0 0
191 190 75
132 136 78
209 203 111
193 196 111
179 189 111
191 195 111
186 193 111
122 119 59
139 140 78
64 59 14
196 197 111
193 196 111
190 194 111
10 26 26
129 152 181
119 124 71
133 154 181
117 131 137
119 132 137
95 87 74
115 130 137
128 137 137
116 130 137
114 130 137
115 130 137
49 18 129
107 126 137
111 128 137
51 60 20
56 63 20
2 3 1
127 137 137
123 135 137
115 130 137
102 121 40
77 59 115
81 60 115
95 103 52
146 161 181
140 157 181
128 151 181
77 59 115
139 157 181
134 154 181
0 0 0
137 156 181
82 97 52
129 152 181
129 152 181
82 87 50
141 158 181
29 66 16
108 117 127
136 156 181
33 73 38
130 152 181
25 15 3
177 208 76
191 215 76
162 167 53
179 209 76
187 213 76
122 122 38
176 207 76
184 211 76
111 116 38
175 207 76
184 211 76
3 12 0
92 126 79
5 14 1
59 85 56
133 154 181
133 154 181
79 189 197
31 25 185
55 132 139
33 82 49
82 193 197
51 128 139
83 193 197
71 176 58
74 183 197
56 134 139
84 195 197
0 0 0
10 45 64
83 67 65
33 9 207
84 68 220
87 69 220
85 69 220
79 56 156
75 55 156
83 68 220
81 67 220
88 70 220
117 122 127
118 122 127
88 91 86
105 118 122
0 0 0
109 118 127
112 119 127
72 59 49
112 119 127
65 65 63
110 118 127
117 122 127
22 14 9
110 118 127
121 110 98
80 63 49
0 0 0
93 80 69
113 89 69
59 53 33
100 83 69
111 119 127
109 118 127
108 118 127
64 64 63
111 119 127
111 119 127
65 65 63
65 65 63
63 64 63
119 123 127
93 92 90
97 62 76
97 94 90
111 119 127
125 126 127
121 124 127
122 124 127
61 115 96
105 98 90
18 12 4
93 92 90
65 33 59
115 121 127
10 3 13
119 123 127
106 51 83
21 6 17
33 7 19
38 18 29
33 14 20
89 47 83
114 120 127
112 119 127
125 126 127
105 98 90
116 121 127
109 118 127
122 124 127
0 0 0
73 68 63
111 119 127
103 97 90
110 119 127
110 119 127
120 123 127
11 13 20
49 35 82
107 117 127
109 118 127
114 121 127
107 117 127
67 66 63
124 125 127
77 84 70
22 65 67
108 117 127
111 119 127
63 68 23
90 91 90
96 93 90
100 95 90
0 0 0
111 119 127
107 117 127
115 121 127
76 93 46
107 117 127
128 127 127
72 54 40
110 118 127
63 67 88
97 88 53
120 123 127
89 95 125
119 123 127
123 125 127
95 93 90
125 126 127
5 10 26
12 18 71
194 196 111
182 190 111
195 197 111
131 136 78
170 156 78
139 140 78
129 135 78
136 138 78
108 71 109
209 203 111
126 133 78
186 192 111
193 196 111
118 117 59
110 58 67
130 152 181
63 45 81
83 30 240
82 30 240
76 29 240
119 132 137
83 30 240
114 130 137
0 0 10
106 125 137
127 137 137
78 90 97
106 125 137
116 131 137
107 126 137
110 127 137
122 134 137
58 88 56
113 129 137
112 129 137
125 136 137
106 125 137
33 28 83
153 164 181
84 62 115
117 137 74
124 127 71
140 158 181
130 152 181
129 152 181
130 152 181
132 153 181
92 108 127
85 88 50
130 152 181
142 159 181
130 152 181
141 158 181
74 49 45
77 98 31
129 152 181
133 154 181
180 209 76
180 209 76
64 112 32
165 169 53
185 212 76
14 12 37
191 215 76
74 76 0
194 217 76
104 137 51
176 207 76
27 38 13
178 208 76
46 45 13
28 49 17
0 1 0
4 9 0
130 152 181
26 46 17
55 133 139
51 128 139
55 133 139
70 150 139
75 184 197
55 132 139
76 185 197
10 16 58
38 91 29
67 147 139
25 38 41
53 130 139
86 69 220
82 68 220
83 68 220
75 54 156
89 70 220
81 67 220
82 57 156
80 67 220
82 67 220
83 68 220
67 52 156
49 37 110
122 124 127
114 120 127
100 115 122
107 119 122
111 119 127
8 1 56
109 99 90
109 118 127
11 3 21
111 119 127
125 126 127
112 119 127
4 2 0
12 2 12
25 3 24
37 22 13
86 77 69
82 56 37
20 4 8
70 58 49
16 13 126
109 118 127
113 120 127
111 119 127
110 118 127
0 0 0
116 121 127
117 122 127
118 122 127
108 118 127
58 111 96
119 123 127
116 121 127
112 120 127
115 121 127
114 120 127
108 99 90
102 96 90
109 118 127
111 119 127
114 120 127
114 120 127
122 124 127
109 118 127
120 123 127
62 14 38
14 0 5
118 122 127
122 124 127
72 35 59
125 126 127
67 34 59
113 120 127
65 33 59
124 125 127
4 30 27
113 120 127
108 117 127
107 117 127
111 119 127
97 82 69
109 118 127
109 118 127
119 123 127
56 51 45
114 120 127
110 119 127
115 121 127
125 126 127
5 47 50
111 119 127
43 68 92
118 122 127
117 122 127
115 121 127
107 117 127
125 126 127
110 118 127
39 35 31
4 9 21
111 119 127
113 120 127
11 22 26
3 31 35
120 123 127
111 119 127
94 93 90
110 118 127
126 126 127
122 124 127
116 122 127
107 117 127
116 121 127
116 121 127
46 56 75
96 93 90
109 118 127
23 73 86
50 59 75
108 117 127
126 134 78
201 200 111
131 136 78
200 199 111
183 191 111
121 149 67
110 113 59
116 128 22
191 195 111
211 205 111
0 0 0
197 198 111
78 80 42
82 82 42
80 30 240
77 29 240
88 31 240
84 30 240
73 29 240
80 30 240
48 16 120
78 29 240
86 31 240
83 30 240
83 93 97
0 0 0
86 94 97
106 125 137
114 129 137
117 131 137
50 43 78
120 130 40
76 89 97
48 61 66
79 90 97
116 131 137
110 127 137
115 130 137
90 91 50
133 154 181
25 9 15
60 44 81
132 153 181
143 159 181
84 83 42
0 0 0
147 161 181
129 152 181
129 128 127
131 153 181
58 136 139
136 155 181
134 154 181
131 153 181
71 42 102
131 153 181
178 208 76
58 150 47
184 211 76
196 218 76
202 221 76
190 215 76
188 213 76
132 105 45
187 213 76
195 217 76
177 208 76
192 216 76
108 139 51
179 209 76
178 208 76
135 155 181
141 158 181
135 155 181
134 154 181
91 125 79
78 187 197
84 194 197
14 76 76
56 134 139
56 133 139
55 132 139
23 28 114
56 134 139
55 133 139
77 186 197
46 103 98
56 110 166
80 67 220
94 72 220
95 73 220
80 67 220
94 72 220
81 57 156
62 49 156
82 57 156
86 69 220
70 53 156
76 55 156
82 68 220
65 43 110
111 119 127
8 7 5
64 78 86
65 78 86
110 116 86
115 121 127
110 118 127
63 64 63
40 81 69
64 64 63
112 119 127
124 125 127
54 48 69
111 119 127
122 92 69
0 0 0
14 3 0
104 97 90
68 57 49
109 118 127
109 118 127
111 119 127
122 124 127
68 58 49
109 118 127
109 118 127
5 1 9
101 96 90
119 123 127
56 61 77
70 67 63
108 117 127
17 25 44
121 124 127
102 96 90
65 65 63
101 96 90
110 118 127
112 119 127
110 118 127
115 121 127
73 66 35
116 122 127
107 117 127
110 119 127
109 118 127
125 126 127
106 98 90
113 120 127
109 103 71
124 125 127
64 33 59
123 125 127
109 118 127
49 35 24
101 84 69
109 118 127
38 64 92
111 119 127
122 124 127
113 120 127
96 94 90
110 118 127
126 126 127
111 119 127
124 125 127
115 121 127
23 35 46
123 125 127
111 119 127
124 126 127
98 94 90
122 125 127
117 122 127
109 118 127
97 118 47
127 127 127
111 119 127
107 117 127
27 86 95
118 122 127
118 123 127
92 91 90
128 128 127
65 65 63
70 67 63
114 120 127
111 119 127
113 120 127
125 126 127
117 122 127
59 52 45
90 91 90
110 119 127
118 122 127
7 4 25
109 118 127
117 122 127
67 82 33
84 27 104
132 159 64
64 102 46
131 136 78
189 194 111
129 135 78
127 134 78
189 194 111
159 150 78
142 141 78
124 133 78
136 138 78
74 78 42
80 30 240
88 31 240
74 29 240
67 20 130
0 0 0
74 29 240
76 29 240
74 29 240
0 0 0
76 29 240
73 29 240
74 29 240
115 130 137
72 38 63
24 9 64
8 12 1
116 131 137
45 17 129
115 130 137
109 127 137
77 90 97
81 92 97
46 17 129
106 126 137
85 94 97
4 2 0
129 152 181
144 160 181
132 153 181
56 49 50
141 158 181
140 158 181
143 159 181
140 158 181
77 58 34
132 153 181
125 126 127
94 72 57
134 154 181
137 156 181
144 159 181
142 158 181
200 220 76
148 159 53
174 206 76
150 172 0
181 210 76
134 151 53
0 0 0
180 209 76
184 211 76
182 210 76
199 219 76
207 224 76
96 109 0
182 210 76
187 213 76
147 160 53
57 46 46
138 157 181
144 160 181
134 154 181
138 156 181
131 153 181
134 154 181
50 127 139
51 128 139
51 128 139
18 42 20
52 129 139
51 128 139
58 135 139
13 74 76
83 193 197
46 35 32
80 67 220
82 67 220
86 69 220
95 73 220
86 69 220
92 71 220
87 69 220
80 67 220
81 67 220
81 57 156
89 70 220
82 68 220
87 70 220
69 52 156
37 42 43
65 78 86
70 81 86
118 122 127
76 57 76
110 119 127
120 123 127
110 119 127
114 120 127
112 119 127
106 98 90
18 9 32
92 92 90
38 27 18
119 123 127
8 16 9
16 13 126
107 117 127
120 101 114
110 118 127
124 125 127
38 31 24
104 97 90
111 119 127
109 118 127
111 119 127
115 121 127
109 118 127
61 27 41
128 127 127
110 118 127
87 39 59
15 18 10
106 98 90
110 118 127
110 118 127
107 117 127
118 123 127
89 90 90
9 38 48
109 118 127
39 18 16
108 118 127
109 118 127
109 118 127
111 119 127
90 91 90
31 13 35
99 95 90
122 124 127
48 20 29
107 117 127
108 117 127
122 124 127
111 119 127
41 66 92
110 118 127
119 123 127
109 118 127
108 117 127
110 119 127
124 126 127
11 61 51
110 118 127
109 118 127
108 117 127
112 120 127
105 97 90
111 119 127
37 36 49
108 118 127
117 122 127
16 10 113
103 96 90
103 97 90
70 71 88
114 120 127
116 122 127
68 81 106
119 123 127
5 39 26
66 82 33
77 89 125
28 93 35
113 120 127
29 32 37
55 63 88
111 119 127
112 119 127
111 119 127
93 92 90
111 119 127
104 97 90
109 118 127
118 122 127
127 127 127
107 117 127
118 122 127
186 192 111
204 201 111
125 133 78
213 206 111
199 198 111
56 18 73
208 203 111
119 132 64
146 143 78
130 135 78
76 29 240
76 29 240
80 30 240
77 29 240
0 0 0
73 28 240
75 29 240
20 7 27
48 16 120
75 29 240
76 29 240
79 30 240
83 30 240
80 30 240
77 29 240
51 20 163
76 29 240
115 130 137
123 134 137
23 8 64
83 93 97
77 90 97
116 131 137
124 135 137
113 129 137
0 1 0
124 135 137
107 126 137
9 2 6
133 154 181
0 0 0
0 0 0
145 160 181
150 163 181
38 93 98
143 159 181
112 117 86
130 152 181
90 90 50
132 153 181
144 160 181
153 165 181
131 153 181
139 157 181
131 153 181
179 208 76
204 222 76
185 212 76
177 208 76
199 219 76
0 0 0
197 218 76
135 152 53
182 210 76
130 149 53
193 216 76
135 152 53
186 212 76
186 212 76
44 29 23
160 167 53
176 207 76
190 215 76
141 158 181
120 149 173
136 155 181
149 162 181
145 160 181
51 127 139
79 168 86
0 2 2
83 193 197
53 130 139
17 29 2
53 130 139
81 191 197
0 0 14
60 48 156
60 49 156
86 69 220
84 68 220
93 72 220
81 67 220
97 73 220
72 53 156
80 67 220
43 29 78
39 34 106
71 53 156
80 67 220
17 29 45
51 38 110
111 119 127
66 78 86
29 36 7
19 26 29
118 123 127
39 36 31
110 118 127
114 120 127
91 91 90
109 118 127
111 119 127
111 119 127
116 121 127
123 125 127
97 94 90
128 127 127
72 59 49
0 0 0
107 117 127
112 119 127
112 120 127
105 77 108
65 33 59
109 118 127
118 81 108
120 123 127
109 118 127
62 55 49
113 120 127
102 96 90
59 65 88
108 118 127
105 97 90
90 91 90
113 120 127
108 117 127
128 127 127
111 119 127
109 118 127
68 121 96
108 118 127
103 97 90
114 120 127
109 100 90
122 124 127
109 118 127
108 118 127
122 124 127
107 117 127
113 120 127
72 68 63
112 119 127
64 33 59
109 118 127
110 118 127
112 119 127
121 124 127
123 125 127
119 123 127
116 122 127
100 49 83
107 117 127
110 119 127
113 120 127
111 119 127
114 120 127
118 122 127
104 97 90
117 122 127
63 64 63
20 15 11
23 19 15
62 27 41
50 88 68
115 121 127
111 119 127
76 16 69
118 122 127
69 66 63
77 89 33
112 119 127
109 118 127
113 120 127
110 118 127
54 62 88
27 30 37
115 121 127
117 122 127
114 120 127
108 118 127
117 122 127
120 123 127
113 120 127
108 118 127
116 121 127
113 120 127
126 126 127
112 119 127
206 202 111
128 134 78
188 193 111
141 140 78
134 137 78
192 195 111
92 85 24
127 134 78
76 79 42
210 204 111
80 30 240
80 30 240
20 2 142
74 29 240
85 31 240
77 29 240
71 24 169
73 29 240
85 31 240
86 31 240
76 29 240
87 31 240
0 0 0
51 20 163
52 20 169
73 28 240
78 29 240
31 12 91
64 69 68
78 90 97
96 101 97
75 89 97
112 129 137
58 77 95
116 130 137
94 99 97
40 30 21
75 89 97
140 157 181
142 158 181
129 152 181
143 159 181
153 165 181
31 72 38
145 160 181
139 157 181
0 0 0
128 151 181
130 152 181
136 155 181
137 156 181
23 21 4
135 155 181
131 153 181
189 214 76
194 217 76
57 18 22
116 138 36
52 20 50
195 217 76
191 215 76
206 223 76
180 209 76
150 162 53
188 213 76
0 0 0
75 98 36
0 0 0
119 148 173
119 148 173
115 146 173
118 148 173
120 149 173
117 147 173
115 146 173
123 151 173
0 0 0
137 156 181
50 127 139
55 132 139
1 27 22
45 110 106
57 135 139
56 134 139
54 132 139
10 37 47
14 75 76
96 73 220
91 71 220
90 71 220
6 4 34
60 48 156
88 70 220
5 5 17
81 67 220
90 71 220
86 69 220
86 57 198
78 56 156
39 28 78
57 40 110
49 37 110
11 5 4
98 94 90
0 0 0
125 126 127
25 24 21
108 117 127
110 119 127
110 118 127
94 93 90
109 118 127
118 122 127
124 125 127
122 124 127
108 117 127
113 120 127
114 120 127
109 113 69
120 123 127
128 127 127
125 126 127
109 118 127
0 0 0
110 118 127
109 118 127
107 117 127
108 117 127
93 92 90
108 118 127
52 78 52
112 119 127
71 35 59
122 125 127
112 119 127
113 120 127
109 118 127
122 124 127
126 126 127
65 65 63
107 117 127
115 121 127
117 122 127
128 127 127
115 121 127
110 119 127
121 124 127
113 120 127
99 95 90
118 122 127
71 85 33
118 122 127
110 118 127
115 121 127
118 122 127
27 39 24
113 120 127
110 119 127
117 122 127
97 94 90
113 120 127
110 118 127
118 122 127
60 61 71
121 124 127
111 119 127
37 63 92
112 119 127
126 126 127
126 126 127
120 123 127
111 119 127
112 119 127
125 126 127
112 120 127
109 118 127
113 120 127
111 119 127
98 92 101
0 3 0
35 28 22
123 125 127
108 118 127
109 118 127
17 22 9
39 67 64
110 118 127
110 118 127
130 128 127
108 118 127
44 38 31
93 92 90
66 65 63
111 119 127
104 97 90
116 121 127
11 33 33
111 119 127
114 120 127
107 117 127
198 198 111
195 197 111
133 137 78
131 136 78
131 136 78
136 138 78
132 136 78
129 135 78
179 93 0
115 116 59
87 31 240
80 30 240
84 30 240
87 31 240
47 19 206
0 0 14
76 29 240
73 28 240
83 30 240
87 31 240
73 28 163
74 29 240
75 29 240
55 21 169
85 31 240
86 31 240
78 29 240
81 30 240
6 0 41
80 91 97
45 59 66
85 94 97
109 125 40
117 131 137
34 12 91
78 90 97
52 40 35
107 126 137
133 154 181
88 94 55
138 157 181
134 154 181
75 94 47
132 153 181
70 73 38
134 154 181
128 127 127
129 152 181
146 161 181
132 153 181
131 153 181
137 156 181
131 153 181
139 157 181
187 213 76
200 220 76
71 27 71
126 147 53
123 146 53
210 225 76
131 150 53
192 216 76
160 167 53
175 206 76
198 219 76
199 219 76
0 0 0
126 153 173
118 148 173
122 150 173
117 147 173
113 145 173
120 149 173
112 144 173
109 142 173
118 147 173
0 0 0
124 152 173
119 148 173
22 112 108
84 194 197
14 75 76
50 69 40
44 126 51
0 1 1
87 70 220
38 21 56
84 68 220
82 68 220
76 55 156
57 46 106
48 45 150
10 7 64
92 71 220
29 24 75
79 56 156
37 21 49
24 49 116
86 69 220
57 47 156
38 18 110
59 48 156
71 43 186
49 37 110
73 83 86
0 0 0
109 118 127
113 120 127
127 127 127
125 126 127
94 92 90
109 118 127
115 121 127
122 125 127
114 120 127
116 121 127
114 121 127
109 118 127
120 123 127
110 118 127
73 68 63
106 98 90
119 123 127
75 69 63
67 79 86
73 31 45
96 94 90
108 118 127
111 119 127
115 121 127
105 98 90
113 120 127
97 94 90
119 123 127
120 123 127
111 119 127
107 117 127
107 117 127
111 119 127
113 120 127
110 119 127
107 117 127
110 118 127
109 118 127
111 119 127
108 117 127
110 119 127
125 126 127
89 39 59
108 51 83
64 33 59
126 127 127
108 117 127
109 118 127
74 69 63
120 124 127
109 118 127
120 123 127
108 118 127
122 124 127
122 124 127
130 129 127
108 117 127
109 118 127
111 119 127
111 119 127
109 118 127
116 121 127
110 118 127
109 118 127
114 120 127
114 120 127
110 119 127
109 118 127
95 93 90
121 124 127
111 119 127
108 117 127
5 2 25
90 91 90
125 126 127
118 122 127
107 117 127
121 124 127
117 122 127
113 120 127
112 119 127
116 121 127
115 121 127
116 121 127
91 96 125
113 120 127
110 119 127
117 122 127
5 3 1
125 126 127
108 117 127
111 119 127
110 118 127
51 8 9
146 143 78
143 142 78
133 137 78
148 144 78
197 198 111
126 133 78
2 1 0
74 78 42
102 89 24
113 46 0
88 31 240
74 29 240
76 29 240
81 30 240
72 28 163
85 31 240
86 31 240
18 2 192
78 29 240
83 30 240
37 6 133
59 21 169
81 30 240
78 29 240
82 30 240
64 22 169
85 31 240
81 30 240
62 22 169
0 0 0
89 97 97
63 68 53
45 49 48
83 93 97
77 90 97
84 93 97
119 132 137
132 153 181
128 151 181
128 151 181
132 153 181
150 163 181
82 86 90
140 157 181
141 158 181
129 152 181
138 157 181
148 162 181
147 161 181
135 155 181
130 152 181
129 152 181
144 160 181
143 159 181
206 223 76
185 212 76
177 208 76
191 215 76
38 31 2
34 14 34
133 151 53
128 148 53
180 209 76
150 162 53
196 218 76
129 155 173
127 153 173
117 147 173
0 0 0
111 143 173
109 142 173
118 148 173
108 142 173
111 144 173
118 148 173
108 142 173
111 144 173
114 145 173
114 145 173
152 164 181
0 0 0
144 159 181
53 130 139
149 162 181
51 127 139
5 65 59
73 53 46
95 73 220
84 68 220
79 56 156
94 72 220
91 71 220
92 71 220
8 6 19
13 10 26
88 70 220
67 51 156
83 68 220
19 31 85
95 73 220
14 38 69
84 68 220
33 21 55
104 96 26
47 56 61
18 14 18
110 119 127
28 31 41
127 127 127
21 18 25
108 118 127
109 118 127
100 95 90
97 82 69
99 83 69
39 65 92
62 55 49
111 119 127
53 43 34
76 70 63
108 117 127
108 118 127
115 121 127
64 64 63
109 118 127
123 125 127
107 117 127
115 121 127
117 122 127
121 124 127
110 118 127
122 125 127
58 45 34
111 119 127
124 125 127
114 121 127
110 118 127
102 50 83
109 118 127
123 125 127
119 123 127
58 51 45
62 51 36
70 35 59
71 35 59
107 117 127
103 97 90
121 124 127
110 119 127
123 125 127
102 96 90
108 117 127
124 125 127
111 119 127
66 34 59
129 128 127
108 118 127
110 118 127
94 48 83
111 119 127
124 125 127
112 119 127
113 120 127
107 99 90
114 120 127
110 118 127
128 127 127
112 120 127
116 121 127
61 53 45
113 120 127
110 118 127
107 117 127
127 127 127
112 119 127
112 120 127
63 54 45
95 93 90
126 126 127
70 67 63
9 11 11
112 119 127
8 77 0
127 127 127
119 123 127
111 119 127
128 127 127
109 118 127
112 119 127
111 119 127
111 119 127
64 64 63
120 123 127
110 118 127
107 99 90
112 119 127
111 119 127
95 93 90
110 119 127
108 118 127
145 142 78
88 83 24
134 137 78
127 134 78
149 146 78
9 3 10
0 0 0
137 139 78
3 6 47
51 20 169
73 28 240
55 21 169
84 30 240
72 28 240
52 20 169
15 16 163
82 30 240
86 31 240
52 20 169
73 29 240
73 29 240
8 3 4
59 21 169
87 31 240
54 20 169
57 21 169
51 20 169
54 20 169
79 30 240
82 30 240
76 75 68
73 86 28
47 53 52
77 89 97
74 88 97
50 55 52
77 90 97
136 156 181
138 156 181
128 151 181
130 152 181
139 157 181
140 158 181
132 153 181
94 102 64
145 160 181
142 158 181
140 158 181
94 127 79
132 154 181
130 152 181
131 153 181
137 156 181
134 154 181
125 147 53
13 4 3
201 220 76
145 158 53
188 214 76
182 210 76
174 174 53
124 146 53
178 208 76
142 156 53
0 0 0
112 144 173
117 147 173
107 141 173
114 145 173
117 147 173
109 142 173
112 144 173
90 110 122
90 109 122
117 147 173
105 118 122
110 143 173
119 148 173
120 149 173
123 151 173
154 165 181
131 153 181
38 93 98
0 18 16
139 157 181
142 159 181
87 69 220
58 47 46
52 46 150
36 32 106
80 67 220
28 20 55
47 36 75
93 72 220
84 68 220
86 69 220
92 72 220
3 2 4
60 48 156
57 47 156
78 56 156
58 48 156
64 31 81
1 1 0
108 118 127
108 117 127
111 119 127
115 121 127
64 64 63
108 118 127
124 125 127
115 121 127
118 122 127
49 35 40
122 124 127
118 122 127
124 125 127
95 93 90
104 97 90
119 123 127
98 95 90
125 126 127
110 119 127
114 121 127
111 119 127
65 65 63
87 78 69
109 118 127
109 118 127
126 126 127
124 125 127
116 121 127
102 96 90
117 122 127
117 122 127
125 126 127
127 127 127
110 118 127
108 117 127
63 116 96
120 123 127
116 121 127
120 123 127
121 124 127
51 46 63
117 122 127
119 123 127
97 94 90
108 118 127
58 95 68
42 37 31
108 99 90
109 118 127
102 96 90
112 119 127
105 98 90
107 117 127
68 34 59
106 98 90
103 97 90
122 124 127
113 120 127
66 65 63
108 117 127
109 99 90
0 0 0
118 122 127
112 120 127
109 118 127
95 93 90
119 123 127
126 126 127
18 50 47
115 121 127
99 119 47
109 118 127
83 38 59
38 43 53
112 120 127
115 121 127
111 119 127
113 120 127
107 117 127
93 92 90
117 122 127
118 122 127
119 123 127
122 124 127
121 124 127
66 65 63
68 66 63
111 119 127
108 118 127
124 125 127
108 118 127
120 123 127
112 120 127
67 66 63
107 117 127
24 14 59
126 133 78
136 138 78
54 78 33
125 133 78
128 134 78
131 136 78
132 136 78
149 144 78
52 20 169
79 28 157
51 20 169
23 4 138
52 20 169
51 20 169
73 29 240
1 1 16
23 5 118
80 30 240
73 29 240
85 31 240
6 2 19
25 2 51
76 29 240
43 15 120
86 31 240
80 30 240
88 31 240
51 20 169
36 14 115
81 92 97
84 94 97
80 91 97
46 17 38
84 94 97
2 13 11
11 6 2
79 89 28
131 153 181
144 160 181
103 111 38
142 159 181
139 157 181
135 155 181
131 153 181
140 158 181
134 154 181
144 160 181
128 151 181
152 164 181
151 163 181
143 159 181
129 128 127
133 154 181
128 148 53
136 153 53
203 221 76
128 148 53
177 208 76
140 154 53
188 213 76
193 216 76
169 171 53
201 220 76
51 20 163
128 154 173
121 150 173
124 151 173
108 142 173
114 146 173
108 142 173
110 143 173
112 144 173
108 142 173
111 144 173
99 115 122
109 143 173
112 144 173
93 111 122
57 41 27
129 154 173
130 155 173
137 156 181
35 90 98
140 158 181
142 158 181
132 153 181
85 69 220
94 72 220
86 69 220
81 67 220
27 15 134
17 24 26
5 8 4
84 69 220
80 56 156
24 12 95
88 70 220
10 21 27
84 69 220
41 19 153
91 71 220
95 73 220
45 30 78
63 50 156
35 26 78
109 118 127
46 55 61
91 91 90
109 118 127
23 18 16
111 119 127
113 120 127
115 121 127
115 121 127
113 120 127
110 118 127
117 122 127
111 119 127
94 93 90
110 118 127
125 126 127
116 121 127
63 64 63
115 121 127
111 119 127
110 118 127
114 120 127
121 124 127
91 91 90
123 125 127
108 117 127
119 123 127
128 127 127
124 125 127
119 123 127
37 64 48
69 67 63
110 118 127
123 125 127
110 119 127
64 64 63
109 118 127
94 93 90
104 97 90
111 119 127
118 122 127
54 50 45
112 119 127
113 120 127
120 123 127
111 119 127
110 119 127
117 122 127
108 99 90
110 119 127
108 118 127
65 65 63
53 26 41
67 34 59
115 121 127
118 122 127
122 124 127
113 120 127
126 126 127
108 118 127
127 127 127
110 118 127
68 66 63
108 117 127
108 118 127
94 92 90
107 117 127
122 124 127
112 119 127
110 118 127
117 122 127
115 121 127
108 118 127
108 117 127
104 122 47
113 120 127
17 16 65
71 67 63
65 82 33
107 117 127
120 123 127
125 126 127
105 98 90
108 117 127
109 118 127
112 119 127
108 117 127
122 125 127
110 119 127
111 119 127
111 119 127
112 119 127
127 127 127
108 117 127
118 122 127
56 29 64
0 0 0
128 134 78
136 138 78
90 75 10
207 203 111
162 152 78
13 5 5
52 20 169
43 10 236
80 30 240
80 30 240
4 0 15
86 31 240
80 30 240
73 28 240
82 30 240
86 31 240
80 30 240
87 31 240
76 29 240
79 30 240
85 31 240
75 29 240
76 29 240
83 30 240
76 29 240
75 29 240
23 5 41
17 2 66
34 38 36
78 90 97
80 91 97
79 91 97
78 90 97
78 90 97
132 153 181
13 8 3
135 155 181
135 155 181
131 153 181
148 162 181
135 155 181
133 154 181
58 65 68
130 152 181
137 156 181
68 78 90
143 159 181
138 156 181
135 155 181
130 152 181
87 99 64
132 153 181
190 214 76
181 210 76
194 217 76
201 220 76
182 210 76
143 156 53
179 209 76
197 218 76
0 0 0
0 0 0
130 155 173
109 142 173
122 150 173
119 148 173
118 148 173
119 148 173
116 147 173
112 144 173
107 141 173
91 110 122
107 141 173
92 111 122
110 143 173
102 116 122
113 144 173
114 146 173
118 148 173
127 153 173
132 153 181
147 161 181
139 157 181
143 159 181
24 14 40
91 71 220
0 0 0
75 55 156
55 39 110
19 10 95
33 31 106
85 69 220
64 50 156
18 10 95
81 67 220
62 49 156
94 72 220
47 44 71
88 70 220
0 0 0
70 43 186
61 49 156
88 70 220
116 121 127
39 28 78
91 91 90
118 122 127
107 117 127
107 99 90
60 39 82
108 118 127
118 123 127
51 42 34
91 115 47
95 81 69
121 124 127
112 119 127
38 33 20
55 50 45
102 96 90
121 124 127
121 124 127
111 119 127
65 65 63
102 96 90
111 119 127
128 127 127
105 98 90
110 118 127
99 95 90
115 121 127
114 120 127
101 96 90
100 95 90
109 99 90
110 118 127
115 121 127
108 117 127
109 118 127
64 54 45
94 92 90
102 96 90
120 123 127
108 118 127
30 41 46
110 119 127
63 116 96
110 118 127
109 118 127
119 123 127
98 94 90
124 126 127
118 123 127
0 0 0
108 118 127
127 127 127
67 65 63
127 127 127
119 123 127
113 120 127
106 98 90
114 120 127
128 127 127
123 125 127
122 124 127
111 119 127
123 125 127
115 121 127
116 121 127
109 100 90
67 65 63
108 117 127
98 94 90
109 118 127
91 91 90
112 120 127
111 119 127
121 124 127
106 98 90
109 118 127
114 120 127
108 117 127
109 99 90
109 118 127
64 78 106
92 92 90
127 127 127
124 125 127
61 53 45
119 123 127
104 97 90
110 118 127
112 119 127
112 119 127
86 94 33
114 120 127
0 0 5
124 126 127
171 203 173
194 216 173
21 75 24
10 4 0
60 118 107
39 15 0
56 26 27
19 13 11
52 20 169
52 20 169
53 20 169
57 21 169
74 29 240
86 31 240
78 29 163
87 31 240
83 30 240
77 29 240
79 30 240
74 29 240
82 30 240
83 30 240
54 20 169
86 31 240
85 31 240
52 20 169
73 28 240
81 30 240
56 21 169
23 2 159
35 39 36
32 37 36
87 95 97
75 89 97
135 155 181
5 3 2
152 164 181
143 159 181
135 155 181
92 101 64
133 154 181
135 155 181
132 153 181
132 153 181
138 156 181
56 64 68
89 96 97
134 154 181
138 156 181
136 155 181
133 154 181
157 167 181
133 154 181
130 152 181
205 223 76
181 210 76
125 147 53
126 147 53
129 149 53
180 209 76
117 120 38
76 100 122
44 19 163
19 19 144
115 146 173
119 148 173
122 150 173
123 151 173
116 146 173
111 143 173
112 144 173
111 144 173
110 143 173
109 120 122
106 118 122
108 119 122
114 145 173
108 119 122
121 149 173
66 79 86
104 117 122
129 154 173
130 152 181
135 155 181
149 162 181
134 154 181
61 49 156
92 72 220
92 72 220
96 73 220
92 71 220
3 1 39
82 68 220
39 32 32
11 6 22
90 70 220
57 47 156
65 50 156
65 50 156
49 45 150
58 48 156
14 6 47
63 41 186
94 72 220
66 51 156
86 69 220
47 56 61
43 52 41
108 118 127
114 120 127
109 118 127
107 117 127
111 119 127
114 121 127
102 96 90
122 124 127
109 118 127
108 118 127
122 124 127
106 98 90
109 118 127
127 127 127
119 123 127
109 118 127
98 94 90
107 117 127
109 118 127
115 121 127
113 120 127
118 122 127
67 64 19
111 119 127
107 117 127
98 94 90
128 128 127
126 126 127
107 117 127
123 125 127
111 119 127
111 119 127
124 125 127
121 124 127
97 94 90
69 67 63
109 118 127
111 119 127
111 119 127
41 16 62
108 118 127
0 0 0
26 70 67
124 125 127
108 117 127
123 125 127
110 118 127
45 29 18
113 120 127
104 50 83
118 122 127
95 93 90
108 118 127
126 127 127
124 125 127
127 127 127
65 64 63
110 118 127
115 121 127
62 115 96
64 64 63
22 19 15
119 123 127
119 123 127
118 123 127
100 95 90
96 94 90
115 121 127
114 120 127
113 120 127
112 119 127
65 65 63
113 120 127
113 120 127
109 118 127
107 99 90
113 120 127
110 118 127
108 117 127
75 69 63
96 93 90
112 119 127
101 96 90
103 97 90
124 125 127
102 96 90
111 119 127
123 125 127
106 98 90
113 120 127
118 122 127
123 125 127
51 83 58
175 206 173
179 208 173
98 98 55
33 32 3
0 0 0
84 77 39
140 158 181
73 28 240
42 10 236
59 21 169
72 28 240
73 29 240
0 0 0
80 30 240
3 2 4
86 31 240
81 30 240
26 7 32
83 30 240
8 5 11
77 29 240
52 20 169
73 28 240
78 29 240
76 29 240
56 21 169
0 0 0
31 11 84
72 85 28
0 0 0
79 90 97
18 21 5
81 92 97
131 85 172
143 159 181
42 41 21
130 152 181
63 68 68
53 63 68
100 112 127
131 153 181
134 154 181
131 136 78
148 162 181
142 159 181
135 155 181
153 165 181
134 154 181
137 156 181
133 154 181
131 153 181
135 155 181
135 155 181
137 153 53
175 207 76
206 223 76
133 151 53
128 148 53
116 114 23
204 222 76
114 129 75
120 149 173
115 146 173
117 147 173
115 146 173
123 151 173
109 142 173
110 143 173
112 144 173
119 148 173
128 154 173
122 150 173
109 142 173
121 149 173
107 119 122
104 117 122
26 36 41
103 117 122
100 115 122
54 49 73
126 152 173
130 152 181
134 154 181
131 153 181
131 153 181
130 152 181
87 70 220
56 47 156
58 48 156
49 45 150
0 0 0
58 48 156
97 73 220
20 15 23
62 49 156
30 25 75
49 37 110
57 47 156
0 0 0
92 71 220
56 47 156
58 48 156
58 48 156
56 47 156
89 70 220
131 153 181
125 126 127
110 118 127
112 119 127
61 64 61
108 117 127
94 92 90
128 127 127
111 119 127
119 123 127
125 126 127
120 124 127
113 120 127
114 120 127
109 118 127
112 120 127
115 121 127
120 123 127
71 50 34
122 124 127
112 119 127
117 122 127
16 48 47
123 125 127
112 120 127
116 121 127
118 122 127
118 122 127
121 124 127
111 119 127
119 123 127
109 118 127
112 119 127
113 120 127
109 118 127
116 121 127
45 98 66
54 50 45
121 124 127
118 122 127
108 117 127
117 122 127
111 119 127
110 118 127
3 2 1
115 121 127
107 117 127
115 121 127
30 90 95
0 0 0
126 126 127
97 94 90
113 120 127
109 118 127
115 121 127
129 128 127
34 28 22
111 119 127
111 119 127
126 126 127
111 119 127
54 50 45
109 118 127
102 96 90
117 122 127
120 123 127
116 121 127
112 119 127
111 119 127
113 120 127
124 126 127
107 117 127
110 119 127
64 54 45
99 95 90
109 118 127
110 119 127
122 124 127
105 98 90
108 99 90
13 36 33
110 118 127
68 70 88
126 127 127
119 123 127
114 120 127
109 118 127
108 117 127
4 10 36
109 100 90
112 119 127
38 31 41
117 122 127
109 118 127
200 219 173
172 204 173
127 147 123
143 157 123
189 213 173
76 19 0
16 9 21
10 5 0
138 156 181
81 30 240
52 20 169
19 4 80
0 0 0
79 29 163
75 29 240
85 31 240
51 20 169
77 29 240
46 19 206
18 11 122
85 31 240
55 21 169
74 29 240
59 21 169
0 0 0
0 0 0
59 21 50
83 30 240
53 20 169
87 95 97
0 0 0
0 0 0
77 90 97
146 160 181
152 164 181
139 157 181
145 160 181
20 52 53
1 1 0
98 74 57
132 153 181
128 151 181
0 0 0
55 63 68
135 155 181
139 157 181
144 160 181
50 41 30
131 153 181
134 154 181
132 153 181
139 157 181
137 156 181
136 155 181
149 163 181
92 109 0
132 151 53
128 148 53
140 155 53
79 81 8
201 220 76
0 0 0
83 104 122
121 149 173
117 147 173
117 144 118
118 145 118
127 153 173
129 154 173
116 147 173
116 147 173
117 147 173
117 147 173
103 117 122
65 78 86
67 79 86
129 155 173
87 86 53
20 17 53
71 80 25
125 152 173
126 152 173
0 0 0
146 161 181
144 160 181
134 154 181
156 166 181
136 155 181
54 47 150
59 48 156
58 48 156
95 72 220
26 40 32
64 50 156
58 40 110
60 48 156
60 49 156
62 37 85
19 11 95
18 10 95
68 51 156
60 49 156
58 48 156
48 37 110
143 159 181
132 153 181
134 154 181
146 161 181
96 93 90
111 119 127
115 121 127
116 121 127
118 122 127
110 119 127
97 82 69
97 94 90
103 97 90
123 125 127
102 96 90
107 99 90
68 58 49
114 120 127
111 119 127
26 77 67
84 64 49
59 52 45
108 118 127
125 126 127
114 120 127
64 64 63
6 5 44
119 123 127
72 68 63
114 121 127
103 97 90
109 118 127
75 36 59
98 94 90
50 65 12
119 123 127
33 51 34
30 38 41
124 125 127
106 98 90
109 118 127
113 120 127
113 120 127
110 118 127
118 122 127
116 121 127
109 118 127
122 124 127
70 67 63
119 123 127
112 119 127
126 126 127
97 94 90
20 62 67
112 119 127
64 64 63
109 118 127
43 37 31
114 120 127
27 73 67
116 121 127
97 94 90
70 67 63
109 118 127
109 118 127
115 121 127
105 97 90
110 119 127
57 38 82
64 64 63
108 99 90
97 94 90
42 37 31
112 119 127
111 119 127
74 69 63
109 100 90
27 46 34
110 119 127
111 119 127
18 50 47
110 118 127
53 8 9
109 118 127
101 96 90
90 91 90
110 118 127
114 121 127
109 118 127
108 99 90
70 71 88
106 98 90
0 0 0
123 125 127
124 125 127
119 123 127
148 160 123
207 223 173
198 218 173
175 205 173
194 216 173
119 120 86
142 158 181
87 95 97
53 20 169
11 1 116
25 4 138
84 30 240
58 21 169
44 10 236
87 31 240
80 30 240
16 2 112
55 20 115
57 21 169
89 31 240
55 21 169
56 21 169
74 29 240
70 23 169
84 30 240
30 13 146
82 30 240
84 30 240
79 30 240
53 20 169
0 0 0
2 1 3
149 162 181
24 20 59
0 0 0
145 160 181
107 117 127
56 64 68
136 155 181
24 27 26
9 11 8
134 154 181
139 157 181
135 155 181
61 67 68
131 153 181
129 152 181
89 96 97
135 155 181
130 152 181
136 155 181
143 159 181
140 157 181
35 14 35
133 154 181
131 153 181
29 11 27
125 147 53
79 89 28
140 155 53
0 0 0
0 0 0
129 155 173
42 46 59
117 147 173
128 154 173
102 114 83
114 146 173
117 147 173
127 153 173
120 149 173
77 100 122
104 102 94
34 13 16
125 152 173
63 65 61
79 102 122
73 83 86
69 80 86
107 119 122
8 9 26
78 101 122
78 101 122
129 151 181
139 157 181
131 153 181
130 152 181
0 0 0
23 5 64
57 47 156
58 48 156
65 50 156
62 49 156
57 47 156
57 47 156
51 38 110
2 1 3
57 48 156
56 47 156
54 39 110
63 49 156
37 20 42
51 31 131
52 38 110
68 51 156
62 49 156
131 153 181
131 153 181
139 157 181
33 32 31
112 119 127
125 126 127
116 121 127
123 125 127
107 117 127
50 37 32
111 119 127
116 121 127
113 120 127
127 127 127
113 120 127
107 117 127
120 124 127
102 96 90
112 120 127
124 126 127
14 23 17
114 120 127
116 121 127
118 122 127
128 128 127
121 124 127
123 125 127
111 119 127
106 96 114
112 120 127
124 126 127
66 65 63
80 62 33
64 53 50
93 92 90
109 118 127
110 119 127
118 122 127
115 121 127
36 20 28
108 117 127
116 121 127
111 119 127
71 67 63
121 124 127
96 94 90
111 119 127
120 123 127
89 90 90
114 120 127
108 118 127
23 67 67
104 97 90
76 70 63
103 97 90
108 117 127
111 119 127
124 125 127
107 98 90
109 125 47
66 65 63
104 97 90
110 118 127
111 119 127
39 35 31
4 42 58
103 97 90
9 5 9
128 128 127
109 118 127
16 23 16
108 118 127
71 67 63
99 95 90
113 120 127
118 122 127
0 0 0
123 125 127
111 119 127
108 99 90
111 119 127
64 64 63
112 119 127
40 36 31
43 10 27
126 127 127
107 117 127
116 122 127
119 123 127
44 38 31
54 39 110
109 118 127
118 123 127
107 117 127
206 223 173
173 204 173
0 0 0
185 211 173
10 7 54
182 209 173
181 209 173
53 20 169
54 20 169
52 20 169
81 29 163
61 22 169
82 30 240
54 20 169
77 29 240
53 20 169
80 30 240
74 24 169
82 30 240
76 29 240
75 29 240
76 29 240
51 20 163
0 0 144
55 21 169
17 18 126
56 21 169
54 20 169
53 20 169
58 84 56
56 64 68
54 63 68
132 153 181
88 95 97
55 64 68
141 158 181
138 157 181
22 26 26
129 152 181
6 2 10
134 154 181
4 0 30
141 158 181
136 155 181
56 64 68
132 153 181
19 20 18
154 165 181
131 153 181
130 152 181
149 162 181
128 151 181
136 155 181
131 153 181
135 155 181
139 157 181
141 158 181
131 147 16
205 223 76
126 147 53
201 221 76
126 152 173
33 14 115
119 148 173
119 148 173
90 109 122
126 153 173
121 150 173
82 103 122
86 94 94
113 145 173
65 68 66
91 109 122
122 150 173
63 77 86
78 101 122
110 121 122
58 75 83
61 66 83
99 115 122
118 148 173
17 19 0
129 155 173
144 159 181
137 156 181
133 154 181
147 161 181
81 94 1
128 151 181
58 48 156
57 47 156
14 14 50
34 31 106
6 5 5
47 44 150
48 44 150
0 0 0
50 45 150
7 2 44
58 48 156
0 0 5
9 4 33
58 48 156
64 50 156
86 95 97
3 1 0
60 88 114
133 154 181
130 128 127
117 122 127
46 55 61
115 121 127
99 95 90
112 119 127
24 43 34
117 122 127
63 64 63
47 56 61
104 97 90
86 65 49
110 119 127
124 126 127
106 98 90
109 118 127
90 73 39
116 121 127
101 96 90
127 127 127
125 126 127
123 125 127
114 120 127
117 122 127
113 120 127
109 118 127
43 37 31
113 120 127
121 124 127
121 124 127
116 121 127
62 53 45
83 92 125
110 119 127
109 118 127
66 65 63
62 115 96
113 120 127
101 96 90
64 64 63
116 122 127
64 64 63
116 121 127
63 54 45
107 117 127
0 0 0
114 120 127
122 124 127
74 69 63
29 13 35
115 121 127
74 69 63
122 124 127
112 120 127
115 121 127
64 64 63
120 123 127
115 121 127
113 120 127
107 99 90
109 118 127
67 66 63
0 11 4
118 122 127
112 120 127
113 120 127
113 120 127
119 123 127
103 97 90
121 124 127
131 129 127
109 99 90
77 70 63
26 18 6
0 4 2
105 98 90
122 124 127
99 95 90
18 28 19
116 121 127
104 97 90
96 94 90
109 99 90
110 119 127
121 124 127
113 120 127
118 122 127
116 121 127
119 123 127
66 65 63
118 122 127
133 154 181
196 217 173
183 210 173
190 214 173
180 208 173
182 209 173
79 96 32
189 213 173
129 152 181
35 59 53
52 20 169
84 30 240
60 22 169
54 20 169
53 20 169
52 20 169
1 0 55
86 31 240
54 20 169
0 0 0
59 21 169
52 20 169
87 31 240
20 22 179
54 20 169
7 2 168
52 20 169
34 6 78
23 9 81
152 164 181
140 157 181
55 63 68
135 155 181
8 17 0
1 1 0
139 157 181
137 156 181
130 152 181
147 161 181
144 159 181
152 164 181
130 152 181
143 159 181
148 162 181
133 154 181
143 159 181
132 153 181
37 61 53
138 156 181
142 158 181
141 158 181
134 154 181
141 158 181
146 160 181
142 158 181
131 153 181
129 152 181
96 107 38
130 149 53
136 152 53
30 26 6
135 152 53
0 0 0
78 101 122
122 150 173
76 100 122
125 152 173
124 151 173
59 66 64
44 40 33
86 106 122
125 152 173
120 149 173
47 49 47
66 79 86
91 96 94
97 113 122
65 40 80
53 71 83
49 69 83
65 78 86
79 102 122
77 101 122
59 37 136
156 166 181
131 153 181
134 154 181
131 153 181
140 158 181
143 159 181
42 34 110
3 2 6
58 48 156
0 0 0
5 2 58
59 48 156
89 70 220
34 26 78
0 0 0
64 50 156
65 50 156
18 10 95
0 0 0
91 71 220
22 5 64
65 51 156
130 152 181
130 152 181
76 56 177
47 56 61
59 74 86
40 33 110
30 26 17
98 94 90
67 66 63
109 118 127
117 122 127
107 117 127
109 118 127
126 126 127
111 119 127
99 95 90
53 43 34
34 61 48
111 119 127
105 98 90
70 67 63
117 122 127
110 118 127
59 52 45
60 52 45
65 65 63
126 126 127
100 95 90
100 95 90
115 121 127
64 64 63
109 118 127
111 119 127
104 97 90
55 50 45
104 97 90
117 122 127
38 40 16
100 95 90
65 65 63
108 99 90
113 120 127
114 121 127
98 95 90
58 51 45
124 125 127
97 94 90
44 48 62
116 121 127
117 122 127
120 123 127
62 53 45
110 119 127
112 119 127
105 98 90
67 66 63
110 118 127
111 119 127
48 46 30
36 29 22
68 66 63
112 119 127
119 123 127
122 125 127
54 62 88
58 26 125
122 124 127
115 121 127
105 98 90
120 123 127
119 123 127
97 94 90
111 119 127
124 126 127
66 48 21
110 119 127
19 18 22
97 94 90
98 94 90
59 52 45
117 122 127
123 125 127
123 125 127
69 66 63
118 122 127
104 97 90
127 127 127
61 53 45
111 119 127
114 120 127
118 122 127
110 119 127
78 84 90
123 125 127
136 156 181
35 6 4
187 212 173
173 205 173
6 17 0
180 208 173
175 206 173
186 212 173
164 168 123
129 152 181
130 152 181
83 30 240
46 8 110
55 21 169
82 30 240
52 20 169
83 30 240
76 29 240
59 21 169
81 30 240
7 0 54
52 20 169
53 20 169
55 21 169
5 1 32
62 19 130
0 0 23
31 13 115
51 20 169
137 156 181
135 155 181
157 167 181
129 152 181
120 127 174
146 161 181
138 156 181
128 151 181
54 63 68
85 94 97
139 154 53
140 158 181
129 152 181
143 159 181
57 65 68
129 152 181
89 104 38
46 49 48
133 154 181
133 154 181
88 104 38
130 152 181
151 164 181
133 154 181
131 153 181
130 152 181
139 157 181
97 108 38
176 156 139
22 24 0
146 142 139
176 155 139
152 145 139
163 149 139
151 144 139
83 104 122
126 152 173
82 104 122
41 44 43
76 100 122
125 152 173
112 81 31
48 56 61
36 31 25
82 103 122
128 154 173
77 100 122
17 31 23
7 7 24
28 31 30
67 79 86
12 2 45
65 78 86
84 105 122
54 47 150
18 14 41
128 151 181
131 153 181
113 118 38
31 37 12
131 153 181
145 160 181
137 156 181
0 0 0
142 159 181
8 4 10
57 47 156
57 47 156
18 10 95
62 49 156
58 48 156
18 10 95
5 1 46
151 164 181
0 0 11
21 11 95
46 35 110
117 122 127
129 128 127
0 0 0
128 151 181
130 128 127
141 158 181
150 163 181
109 118 127
116 122 127
93 92 90
41 37 31
111 119 127
122 124 127
101 96 90
72 68 63
109 118 127
71 67 63
10 30 18
127 127 127
127 127 127
112 119 127
115 121 127
107 99 90
55 44 34
72 56 57
3 1 2
115 121 127
103 97 90
127 127 127
62 55 49
114 120 127
104 97 90
113 120 127
33 28 22
122 124 127
106 98 90
121 124 127
109 118 127
115 121 127
91 91 90
116 121 127
118 122 127
33 50 65
111 119 127
63 54 45
119 123 127
121 124 127
107 117 127
111 119 127
119 123 127
92 92 90
119 123 127
20 12 23
119 123 127
69 67 63
106 98 90
108 118 127
109 99 90
110 118 127
114 120 127
119 123 127
23 19 15
112 120 127
123 125 127
67 66 63
25 91 80
108 118 127
106 98 90
110 119 127
101 96 90
111 119 127
109 118 127
110 119 127
124 125 127
108 99 90
121 124 127
113 120 127
39 40 49
122 124 127
55 50 45
126 127 127
101 96 90
127 127 127
108 117 127
108 118 127
119 123 127
78 33 37
122 124 127
110 118 127
40 52 75
111 119 127
110 119 127
116 121 127
145 160 181
133 154 181
195 216 173
190 213 173
171 204 173
173 168 155
194 216 173
172 204 173
179 208 173
2 17 0
136 155 181
137 156 181
131 153 181
85 31 240
57 21 169
80 30 240
83 30 240
3 1 80
53 20 169
21 3 98
80 30 240
38 14 35
56 21 169
53 20 169
57 21 169
54 20 169
64 22 190
52 20 169
0 0 1
6 2 119
71 66 81
131 153 181
116 121 127
130 152 181
144 160 181
131 153 181
88 96 97
118 122 127
130 152 181
131 153 181
136 156 181
140 158 181
129 152 181
130 152 181
135 155 181
131 153 181
129 152 181
148 162 181
130 152 181
103 112 38
55 64 68
135 155 181
145 160 181
11 6 17
130 152 181
90 104 38
135 155 181
174 154 139
154 146 139
133 114 98
156 146 139
172 153 139
163 150 139
146 142 139
134 115 98
154 145 139
62 55 49
160 148 139
152 145 139
128 154 173
84 105 122
76 100 122
0 0 0
80 102 122
84 105 122
85 105 122
78 101 122
77 101 122
78 101 122
77 100 122
53 59 61
76 100 122
14 27 20
80 102 122
131 153 181
141 158 181
131 153 181
46 35 32
45 35 110
133 150 123
3 6 31
0 0 0
142 158 181
0 0 3
3 1 41
151 163 181
1 0 10
57 47 156
33 28 83
25 19 55
0 0 0
14 7 67
26 19 55
4 1 41
0 0 0
145 160 181
46 36 110
95 103 64
41 34 110
15 40 32
114 120 127
133 154 181
132 153 181
107 117 127
134 154 181
108 117 127
7 3 1
115 121 127
119 123 127
106 98 90
118 122 127
11 14 14
116 121 127
121 124 127
106 98 90
63 25 64
65 65 63
112 119 127
99 95 90
115 121 127
71 67 63
122 124 127
108 99 90
107 98 90
118 122 127
121 124 127
72 68 63
126 127 127
117 122 127
110 118 127
122 124 127
128 128 127
126 127 127
109 118 127
120 123 127
125 126 127
42 37 31
110 118 127
117 122 127
109 118 127
75 69 63
122 124 127
60 52 45
75 56 64
122 124 127
125 126 127
123 125 127
118 123 127
111 119 127
69 67 63
27 19 81
121 124 127
113 120 127
107 99 90
75 69 63
21 14 30
11 7 80
109 118 127
29 88 95
101 96 90
111 119 127
120 123 127
110 118 127
115 121 127
105 98 90
24 20 15
110 119 127
91 96 125
70 67 63
69 66 63
66 65 63
4 2 1
115 121 127
116 121 127
114 120 127
96 94 90
68 66 63
23 19 15
115 121 127
54 49 50
41 36 31
127 127 127
74 69 63
67 82 33
21 15 11
119 123 127
111 119 127
94 93 90
42 22 71
78 46 109
130 152 181
143 159 181
121 144 123
126 147 123
134 124 110
124 145 123
186 212 173
175 206 173
202 220 173
110 116 86
101 111 86
62 59 17
133 154 181
79 30 240
54 20 169
55 21 169
57 21 169
83 30 240
56 21 169
44 16 120
69 23 169
53 20 169
86 31 240
59 21 169
52 20 169
4 0 74
8 1 54
53 20 169
12 1 79
133 154 181
0 0 10
130 152 181
145 160 181
142 159 181
37 14 120
60 22 169
132 153 181
133 154 181
53 87 76
144 160 181
8 4 4
137 156 181
129 152 181
128 151 181
129 152 181
136 155 181
130 152 181
132 153 181
143 159 181
128 151 181
84 94 97
144 157 53
71 68 63
144 160 181
20 4 0
152 144 139
129 113 98
147 142 139
147 142 139
151 144 139
0 0 0
166 151 139
161 148 139
157 147 139
149 143 139
155 146 139
168 152 139
162 149 139
153 145 139
148 143 139
36 86 73
78 101 122
77 100 122
76 100 122
77 100 122
85 105 122
74 83 86
33 22 26
81 103 122
80 102 122
81 103 122
27 30 30
77 101 122
52 59 61
22 26 26
131 153 181
35 76 69
130 152 181
88 103 38
133 154 181
88 103 38
138 157 181
36 23 45
139 157 181
33 21 93
11 2 9
21 11 95
8 8 25
150 163 181
132 153 181
41 34 110
140 129 162
71 67 63
146 161 181
132 153 181
31 20 93
150 163 181
107 111 113
34 18 65
137 156 181
12 6 47
104 121 177
31 20 93
133 154 181
137 156 181
109 118 127
99 95 90
115 121 127
115 121 127
36 35 30
117 122 127
110 118 127
102 96 90
111 119 127
115 121 127
126 126 127
98 94 90
110 118 127
123 125 127
111 119 127
46 55 61
68 66 63
113 120 127
107 117 127
110 100 90
115 121 127
74 69 63
113 120 127
125 126 127
116 121 127
109 118 127
114 120 127
120 123 127
68 120 96
103 96 90
110 118 127
121 124 127
124 125 127
109 118 127
70 67 63
116 121 127
75 67 81
126 126 127
75 70 63
33 5 7
75 70 63
120 123 127
56 50 45
105 97 90
99 95 90
109 118 127
23 19 15
67 65 63
123 125 127
32 49 65
21 12 9
116 121 127
111 119 127
44 113 113
117 122 127
107 117 127
121 124 127
126 126 127
5 15 16
65 65 63
109 118 127
125 126 127
110 118 127
64 64 63
101 96 90
69 66 63
116 121 127
123 125 127
130 128 127
94 93 90
66 65 63
110 119 127
124 125 127
126 126 127
71 67 63
108 117 127
107 117 127
109 118 127
98 94 90
124 125 127
14 65 61
116 121 127
135 155 181
140 158 181
150 163 181
154 165 181
131 153 181
170 203 173
120 115 53
204 221 173
0 0 2
129 148 123
127 147 123
174 205 173
11 10 86
77 71 47
144 159 181
136 155 181
11 1 79
42 10 236
0 0 0
87 31 240
0 0 0
54 21 169
15 1 112
81 29 163
54 20 169
15 1 112
54 20 169
14 1 112
17 2 112
132 153 181
0 0 153
60 73 25
130 152 181
0 0 0
139 157 181
131 153 181
129 152 181
60 21 169
62 22 169
85 101 86
130 152 181
153 164 181
132 153 181
129 151 181
133 154 181
130 152 181
139 157 181
131 153 181
139 157 181
11 9 19
140 157 181
140 154 53
143 159 181
134 154 181
144 160 181
130 152 181
143 159 181
20 15 137
160 148 139
160 148 139
153 145 139
154 146 139
168 152 139
149 143 139
177 156 139
153 145 139
155 146 139
0 0 0
158 147 139
159 147 139
152 144 139
168 152 139
154 145 139
121 110 98
127 112 98
77 101 122
89 108 122
81 103 122
24 10 81
44 46 43
79 102 122
86 106 122
71 82 86
77 85 86
83 104 122
65 78 86
77 101 122
133 154 181
3 2 31
46 16 120
131 153 181
115 121 127
0 0 0
97 108 86
130 152 181
0 0 0
132 153 181
131 153 181
133 154 181
138 157 181
130 152 181
45 35 110
142 159 181
114 120 127
128 151 181
0 0 0
139 157 181
63 72 8
130 152 181
130 152 181
136 155 181
146 161 181
6 1 63
126 126 127
37 28 106
131 153 181
130 152 181
129 152 181
82 86 90
132 153 181
121 124 127
39 35 31
50 38 28
121 124 127
108 99 90
124 125 127
122 124 127
114 120 127
129 128 127
107 99 90
111 119 127
24 20 15
28 20 22
107 98 90
126 126 127
95 93 90
122 124 127
119 123 127
108 99 90
113 120 127
23 19 15
64 54 45
114 120 127
110 118 127
63 64 63
115 121 127
71 67 63
98 95 90
110 118 127
0 0 0
107 98 90
68 66 63
42 26 34
37 35 31
97 94 90
103 97 90
110 118 127
95 93 90
107 99 90
110 118 127
61 53 45
128 127 127
109 118 127
0 0 0
14 11 7
107 99 90
109 118 127
96 93 90
25 27 11
41 36 31
58 52 45
117 122 127
116 121 127
119 123 127
15 20 31
38 64 92
0 2 0
114 120 127
40 36 31
65 65 63
103 97 90
124 125 127
110 118 127
63 64 63
116 121 127
127 127 127
125 126 127
123 125 127
111 119 127
31 91 95
126 126 127
111 119 127
113 120 127
74 69 63
114 120 127
1 2 2
122 125 127
61 53 45
100 95 90
154 165 181
20 5 56
117 122 127
131 153 181
134 154 181
48 28 100
121 144 123
157 164 123
72 18 37
184 210 173
89 77 47
156 164 123
123 145 123
194 216 173
126 146 123
55 21 169
10 1 79
26 9 46
129 152 181
15 1 112
38 6 196
30 7 167
24 2 159
27 7 167
14 1 79
53 20 169
16 2 112
16 2 112
0 0 0
49 16 120
110 118 127
135 155 181
17 16 179
140 157 181
137 156 181
130 128 127
61 44 106
39 15 120
142 158 181
37 14 120
135 155 181
134 155 181
135 155 181
132 153 181
79 84 90
137 156 181
0 0 0
131 153 181
136 155 181
148 162 181
134 154 181
124 125 127
54 20 169
117 122 127
130 152 181
152 164 181
155 146 139
115 105 98
157 147 139
157 147 139
156 146 139
163 149 139
123 110 98
147 142 139
0 0 0
163 149 139
29 20 45
142 118 98
172 153 139
22 57 52
164 150 139
156 146 139
115 106 98
153 145 139
81 63 49
159 148 139
31 15 28
11 17 20
46 55 61
51 70 83
69 81 86
77 101 122
69 80 86
12 14 14
76 100 122
81 103 122
70 81 86
133 154 181
13 27 81
129 152 181
146 161 181
78 101 122
25 23 75
36 26 23
137 156 181
130 152 181
75 69 63
129 152 181
149 162 181
131 153 181
152 164 181
41 34 110
89 104 38
134 154 181
88 87 114
63 27 125
143 159 181
148 162 181
129 152 181
66 53 76
133 154 181
146 161 181
81 85 90
149 162 181
130 152 181
143 159 181
131 153 181
84 105 122
133 154 181
130 152 181
152 164 181
110 119 127
102 96 90
109 118 127
4 3 1
75 69 63
104 97 90
0 0 0
68 66 63
126 126 127
0 0 0
26 43 30
5 3 7
119 123 127
111 119 127
70 67 63
80 83 26
111 119 127
62 53 45
120 123 127
106 98 90
112 119 127
58 27 41
28 9 60
117 122 127
121 124 127
116 121 127
124 125 127
42 37 31
33 28 22
73 68 63
116 121 127
69 66 63
110 118 127
68 66 63
126 126 127
10 7 63
130 129 127
113 120 127
41 36 31
83 71 71
122 124 127
38 30 75
66 65 63
94 93 90
72 68 63
109 118 127
111 119 127
112 119 127
119 123 127
41 27 58
7 12 2
121 124 127
65 65 63
120 124 127
123 125 127
113 120 127
117 122 127
14 1 1
69 67 63
124 125 127
27 26 31
68 66 63
64 54 45
76 70 63
75 69 63
116 121 127
99 95 90
113 120 127
118 122 127
113 120 127
125 126 127
118 122 127
113 120 127
112 119 127
59 52 45
114 120 127
120 123 127
122 124 127
130 152 181
136 155 181
120 124 127
136 155 181
137 156 181
140 158 181
152 164 181
198 218 173
123 145 123
131 149 123
134 151 123
207 223 173
125 146 123
171 203 173
126 147 123
127 147 123
140 157 181
132 153 181
2 0 34
151 164 181
0 0 0
11 1 79
0 0 6
43 15 120
30 10 57
15 2 112
20 2 89
0 0 0
17 2 112
39 15 120
150 163 181
41 15 120
137 156 181
135 155 181
141 158 181
16 1 49
85 94 97
139 157 181
24 12 44
133 154 181
140 157 181
87 106 122
15 2 66
129 152 181
135 155 181
123 125 127
147 161 181
140 157 181
150 163 181
59 50 76
147 161 181
131 153 181
133 154 181
51 31 131
138 156 181
141 158 181
123 109 98
165 150 139
107 102 98
154 145 139
14 24 30
142 115 124
154 145 139
173 154 139
22 16 137
160 148 139
136 115 98
168 152 139
146 142 139
165 150 139
32 13 40
156 146 139
136 116 98
161 148 139
157 147 139
146 142 139
142 118 98
87 79 57
74 83 86
34 14 115
51 70 83
46 55 61
89 108 122
12 12 48
29 25 19
78 101 122
62 75 25
52 58 61
133 154 181
153 164 181
129 152 181
41 41 4
130 152 181
129 152 181
133 154 181
29 51 35
129 152 181
133 154 181
130 152 181
132 153 181
113 120 127
57 47 156
117 122 127
84 87 90
128 151 181
136 155 181
128 151 181
134 154 181
137 156 181
37 44 0
132 153 181
129 152 181
133 154 181
12 6 11
19 14 39
131 153 181
76 100 122
6 1 14
17 10 5
131 153 181
54 71 86
133 154 181
120 123 127
152 164 181
109 118 127
121 124 127
0 0 0
67 66 63
69 66 63
38 35 31
112 119 127
111 119 127
22 19 4
109 118 127
109 118 127
118 122 127
122 124 127
115 121 127
125 126 127
114 121 127
24 20 15
118 122 127
124 125 127
54 57 121
0 0 0
114 121 127
109 118 127
121 124 127
64 64 63
108 99 90
66 65 63
73 68 63
68 66 63
86 77 69
70 67 63
108 99 90
124 126 127
122 124 127
98 94 90
122 124 127
0 0 0
0 0 0
44 69 92
72 68 63
74 69 63
110 119 127
111 119 127
122 125 127
41 36 31
73 68 63
118 122 127
11 27 17
112 119 127
20 14 30
113 120 127
122 124 127
66 119 96
120 123 127
113 120 127
99 95 90
57 51 45
127 127 127
114 120 127
44 7 37
41 36 31
95 93 90
64 64 63
110 119 127
125 126 127
118 122 127
92 92 90
102 96 90
119 123 127
63 54 45
116 121 127
119 123 127
110 119 127
8 7 6
56 51 45
131 153 181
128 151 181
108 117 127
142 158 181
77 83 90
136 155 181
131 153 181
129 152 181
203 221 173
185 211 173
138 153 123
143 156 123
199 218 173
190 214 173
122 144 123
85 101 5
14 60 30
136 155 181
79 84 90
136 155 181
3 0 52
43 15 120
6 0 68
41 15 120
26 4 138
145 160 181
42 15 120
0 0 15
7 0 39
0 0 0
142 158 181
37 14 120
1 0 32
3 0 13
134 154 181
37 14 120
28 8 101
25 10 81
136 155 181
120 123 127
152 164 181
51 19 50
37 14 120
38 14 120
137 156 181
66 51 156
131 153 181
87 107 122
131 153 181
144 159 181
77 101 122
133 154 181
138 156 181
134 154 181
129 152 181
131 153 181
132 153 181
102 100 98
150 144 139
103 100 98
172 154 139
8 4 95
151 144 139
115 105 98
154 145 139
20 6 21
158 147 139
171 153 139
150 144 139
162 149 139
171 153 139
167 151 139
155 120 124
159 148 139
149 143 139
146 142 139
6 32 15
146 142 139
161 149 139
161 148 139
0 0 0
33 48 58
52 59 61
11 17 20
77 101 122
68 80 86
80 102 122
77 101 122
129 152 181
86 106 122
92 106 38
41 37 37
133 154 181
132 153 181
133 154 181
141 158 181
30 26 22
12 41 15
8 4 30
134 155 181
92 91 90
57 73 86
134 155 181
130 152 181
135 155 181
115 121 127
79 84 90
141 158 181
141 158 181
74 71 69
132 153 181
21 10 46
138 157 181
118 107 98
79 56 40
127 127 127
141 158 181
136 155 181
131 153 181
135 155 181
131 153 181
81 67 46
129 152 181
139 157 181
26 15 34
124 125 127
141 158 181
108 118 127
60 52 45
99 95 90
122 124 127
65 65 63
112 120 127
69 66 63
65 65 63
92 92 90
65 65 63
57 51 45
70 67 63
119 123 127
108 99 90
40 66 92
118 122 127
107 99 90
40 45 16
66 65 63
105 98 90
112 119 127
118 122 127
119 123 127
21 64 67
44 81 68
117 122 127
102 96 90
55 50 45
112 119 127
127 127 127
126 126 127
113 120 127
73 68 63
120 123 127
69 67 63
115 121 127
118 122 127
112 119 127
64 54 45
107 98 90
97 94 90
109 125 47
116 121 127
120 123 127
113 120 127
38 35 31
5 3 1
0 0 0
118 122 127
124 126 127
60 53 45
72 68 63
74 69 63
120 124 127
110 119 127
117 122 127
104 97 90
115 121 127
117 122 127
25 69 67
107 98 90
103 96 90
56 62 75
108 118 127
105 98 90
37 28 38
26 30 37
126 126 127
63 64 63
111 119 127
106 98 90
64 64 63
88 89 90
134 154 181
139 157 181
154 165 181
74 69 63
144 160 181
132 153 181
115 121 127
132 153 181
103 112 86
110 140 100
137 152 123
146 159 123
65 64 32
101 97 66
163 167 123
122 144 123
112 102 66
129 151 181
84 151 135
144 159 181
144 160 181
121 124 127
134 155 181
0 0 0
16 7 57
37 14 120
123 125 127
3 0 52
61 75 86
14 1 79
132 150 123
132 153 181
131 153 181
0 0 0
128 151 181
134 154 181
135 151 123
138 156 181
14 4 30
146 161 181
131 153 181
91 125 79
113 120 127
133 154 181
6 2 17
134 154 181
21 8 19
144 159 181
135 155 181
131 153 181
112 119 127
133 154 181
133 154 181
134 154 181
133 154 181
140 157 181
130 152 181
161 149 139
172 154 139
107 102 98
171 126 124
146 142 139
147 142 139
21 64 39
104 101 98
153 145 139
158 147 139
170 153 139
157 147 139
166 151 139
164 150 139
152 145 139
0 0 0
116 106 98
109 103 98
149 143 139
147 142 139
152 144 139
111 104 98
147 142 139
161 148 139
76 84 86
35 49 58
11 10 5
4 3 4
35 49 58
89 108 122
131 153 181
31 45 17
42 34 110
129 152 181
65 49 46
88 103 38
0 0 0
137 156 181
143 159 181
129 152 181
132 153 181
70 76 8
156 166 181
128 151 181
128 151 181
142 159 181
144 160 181
130 128 127
83 86 90
137 156 181
132 153 181
124 146 53
131 153 181
147 161 181
137 156 181
129 152 181
122 125 127
135 155 181
123 125 127
131 153 181
123 125 127
67 47 58
84 87 90
90 90 90
141 158 181
139 157 181
129 152 181
132 153 181
133 154 181
138 156 181
112 120 127
47 62 37
118 122 127
42 37 31
24 20 15
111 119 127
112 119 127
122 124 127
107 99 90
64 64 63
66 65 63
70 67 63
112 119 127
126 126 127
123 125 127
69 67 63
126 126 127
112 120 127
121 124 127
73 30 41
112 120 127
127 127 127
75 69 63
114 121 127
104 97 90
3 3 3
8 6 3
67 66 63
126 126 127
3 0 0
69 67 63
120 123 127
96 117 47
75 69 63
31 23 53
112 119 127
38 35 31
64 64 63
109 99 90
27 13 12
42 37 31
127 127 127
65 65 63
97 94 90
106 98 90
89 79 69
66 65 63
121 124 127
67 70 88
109 118 127
125 126 127
115 121 127
114 121 127
63 54 45
100 95 90
103 97 90
123 125 127
114 121 127
34 28 22
75 69 63
68 66 63
104 97 90
124 125 127
72 68 63
72 68 63
65 65 63
116 122 127
128 128 127
64 64 63
63 54 45
132 153 181
153 164 181
145 160 181
153 164 181
129 152 181
131 153 181
149 163 181
137 156 181
56 26 125
131 153 181
140 157 181
84 98 59
200 219 173
27 95 49
172 204 173
0 0 0
123 145 123
161 166 123
122 144 123
128 151 181
132 153 181
138 157 181
80 57 177
37 14 120
140 158 181
76 83 90
129 152 181
12 1 79
118 140 36
129 152 181
142 158 181
149 162 181
143 159 181
133 154 181
131 153 181
133 154 181
108 117 127
140 158 181
143 159 181
130 152 181
129 152 181
133 154 181
150 163 181
138 156 181
139 157 181
135 155 181
14 12 17
50 38 125
134 154 181
138 156 181
132 153 181
131 153 181
134 155 181
133 154 181
133 154 181
131 153 181
0 0 31
90 71 57
59 21 169
130 152 181
120 108 98
106 102 98
148 143 139
168 152 139
148 143 139
148 143 139
145 142 139
150 144 139
9 7 68
152 145 139
105 101 98
0 0 0
116 106 98
145 142 139
160 148 139
153 145 139
40 58 37
93 80 69
155 146 139
0 0 0
100 83 69
156 146 139
76 61 49
129 113 98
89 107 122
32 47 58
0 2 6
16 20 20
63 76 86
121 124 127
64 77 86
0 0 0
133 154 181
54 63 37
87 107 122
97 108 38
59 74 86
53 59 61
54 71 86
142 158 181
114 120 127
156 166 181
134 154 181
133 154 181
140 157 181
142 158 181
144 160 181
137 156 181
144 159 181
130 152 181
134 154 181
134 154 181
131 153 181
132 153 181
138 156 181
129 152 181
143 159 181
132 153 181
128 127 127
132 153 181
127 127 127
139 157 181
143 159 181
42 33 32
141 158 181
130 152 181
147 161 181
7 3 82
134 154 181
133 154 181
144 160 181
128 151 181
119 123 127
101 96 90
24 20 15
36 29 22
12 7 4
104 97 90
123 125 127
65 65 63
15 14 4
125 126 127
64 64 63
100 95 90
27 10 18
112 120 127
49 50 62
126 126 127
69 67 63
98 95 90
14 10 7
21 15 11
43 37 31
6 8 8
67 65 63
119 123 127
62 53 45
108 99 90
123 125 127
114 120 127
116 102 25
32 27 15
7 5 3
125 126 127
120 123 127
65 64 63
60 53 45
105 98 90
66 65 63
66 65 63
73 68 63
106 98 90
67 66 63
125 126 127
69 66 63
50 51 16
39 36 31
122 124 127
122 124 127
122 124 127
115 121 127
105 97 90
7 9 4
41 36 31
122 124 127
72 68 63
99 95 90
104 97 90
119 123 127
116 122 127
105 98 90
110 118 127
122 124 127
124 125 127
69 66 63
59 27 125
60 52 45
64 47 56
132 153 181
131 129 127
133 154 181
76 83 90
130 152 181
146 161 181
143 159 181
134 154 181
134 154 181
132 153 181
85 87 90
131 153 181
142 159 181
187 212 173
126 146 123
183 210 173
129 148 123
138 153 123
106 114 86
198 218 173
0 0 0
129 152 181
129 152 181
130 152 181
135 155 181
128 151 181
144 159 181
144 159 181
144 160 181
84 87 90
152 164 181
130 152 181
135 155 181
150 163 181
138 156 181
129 152 181
131 153 181
131 153 181
129 152 181
37 14 120
135 155 181
59 137 139
136 155 181
123 146 53
39 14 120
36 14 120
137 156 181
140 157 181
151 163 181
137 156 181
132 153 181
131 152 181
137 156 181
129 152 181
142 158 181
133 154 181
47 37 0
139 157 181
147 161 181
131 153 181
64 77 86
135 155 181
109 84 88
156 146 139
158 147 139
102 100 98
161 148 139
160 148 139
105 101 98
146 142 139
151 144 139
162 149 139
107 102 98
107 102 98
60 47 37
176 155 139
105 101 98
106 101 98
147 142 139
107 102 98
139 117 98
71 46 33
6 0 0
151 144 139
87 78 69
106 101 98
39 28 18
0 0 0
8 12 14
33 39 43
54 71 86
130 128 127
144 160 181
132 153 181
107 117 127
138 156 181
4 1 16
53 38 110
155 166 181
128 151 181
132 153 181
134 155 181
139 157 181
137 156 181
127 127 127
140 158 181
138 156 181
112 119 127
142 158 181
87 88 90
134 154 181
86 88 90
78 84 90
87 88 90
138 157 181
121 124 127
0 8 7
138 157 181
0 0 0
128 151 181
131 153 181
118 122 127
145 160 181
28 19 55
24 18 16
35 38 20
135 155 181
142 159 181
130 152 181
139 157 181
1 6 5
42 34 110
84 87 90
145 160 181
136 156 181
68 66 63
124 126 127
15 7 15
96 93 69
38 29 22
119 123 127
15 11 7
95 93 90
40 36 31
115 121 127
68 66 63
116 121 127
91 89 61
125 126 127
60 53 45
118 122 127
33 27 22
69 67 63
107 99 90
122 125 127
73 68 63
52 36 24
119 123 127
39 65 92
76 70 63
1 0 0
69 66 63
13 10 7
1 1 0
51 21 29
70 67 63
70 67 63
65 65 63
70 67 63
123 125 127
120 123 127
5 3 1
9 4 7
113 120 127
112 119 127
46 49 62
106 98 90
127 127 127
63 54 45
65 65 63
115 121 127
1 0 0
69 66 63
100 95 90
83 92 33
65 65 63
70 67 63
121 124 127
69 67 63
123 125 127
0 0 0
125 126 127
108 99 90
41 39 44
67 65 63
38 37 44
72 68 63
109 118 127
132 153 181
137 156 181
136 155 181
92 91 90
144 160 181
130 152 181
136 156 181
49 24 125
63 27 125
133 154 181
131 153 181
122 124 127
132 153 181
141 158 181
61 36 64
154 163 123
92 103 59
38 61 28
130 149 123
81 97 59
140 154 123
82 80 37
142 158 181
133 154 181
150 163 181
146 161 181
130 152 181
71 79 61
143 159 181
37 57 6
130 152 181
141 158 181
92 105 86
38 14 120
132 153 181
0 0 0
133 154 181
148 162 181
128 151 181
139 157 181
129 152 181
152 164 181
132 153 181
8 8 81
137 156 181
129 152 181
136 155 181
20 9 55
89 96 97
143 159 181
139 157 181
133 154 181
133 154 181
149 162 181
140 158 181
138 156 181
144 160 181
130 152 181
69 75 8
138 156 181
134 154 181
152 164 181
139 157 181
168 152 139
159 148 139
14 10 97
173 154 139
167 151 139
33 51 41
171 153 139
105 101 98
108 102 98
172 153 139
148 143 139
177 156 139
86 77 69
155 146 139
170 152 139
107 102 98
89 143 105
162 149 139
103 100 98
165 150 139
152 145 139
89 79 69
120 89 55
148 143 139
78 62 49
0 25 5
0 0 0
0 0 4
20 22 21
90 107 127
136 155 181
55 71 86
0 0 1
150 163 181
47 16 120
139 157 181
137 156 181
52 43 34
137 156 181
0 0 0
66 68 66
78 84 90
131 153 181
138 156 181
3 1 5
132 153 181
130 152 181
128 151 181
135 155 181
133 154 181
128 151 181
129 152 181
38 38 34
20 73 41
137 156 181
132 153 181
140 157 181
80 85 90
48 47 45
129 152 181
138 156 181
128 151 181
136 155 181
84 72 107
121 124 127
141 158 181
156 166 181
139 157 181
68 52 40
123 125 127
55 71 86
135 155 181
84 87 90
77 83 90
148 162 181
3 1 3
41 36 31
119 123 127
13 5 6
102 96 90
17 60 25
66 65 63
75 70 63
15 11 7
28 26 21
25 20 15
74 69 63
124 125 127
59 52 45
122 125 127
106 98 90
124 126 127
16 27 25
114 120 127
125 126 127
41 37 31
128 127 127
103 97 90
102 96 90
22 34 46
123 125 127
122 124 127
66 65 63
121 124 127
61 53 45
35 28 22
105 98 90
73 68 63
43 37 31
117 122 127
66 65 63
81 63 49
21 15 11
13 10 7
4 3 3
54 50 45
34 47 15
106 98 90
0 0 0
122 124 127
24 20 15
124 126 127
117 122 127
122 124 127
112 119 127
107 99 90
74 69 63
120 123 127
124 125 127
71 68 63
104 97 90
18 23 16
72 68 63
4 2 1
101 49 83
117 122 127
118 122 127
133 154 181
146 161 181
129 152 181
28 57 49
136 155 181
123 125 127
77 83 90
139 157 181
119 123 127
143 159 181
133 154 181
134 154 181
138 156 181
134 154 181
112 119 127
125 146 123
121 144 123
126 147 123
180 208 173
122 145 123
128 147 123
139 154 123
151 163 181
147 161 181
131 153 181
133 154 181
98 82 69
142 159 181
134 154 181
132 153 181
134 154 181
139 157 181
34 68 28
145 160 181
135 155 181
130 152 181
129 152 181
134 154 181
129 152 181
131 153 181
131 153 181
12 2 16
138 156 181
135 155 181
130 152 181
123 125 127
0 0 6
134 155 181
130 152 181
130 152 181
138 156 181
137 156 181
134 154 181
129 152 181
151 163 181
128 151 181
129 128 127
65 135 133
151 164 181
129 152 181
131 153 181
137 156 181
146 161 181
20 15 137
67 47 44
156 146 139
107 102 98
21 15 137
104 101 98
108 102 98
170 153 139
105 101 98
114 105 98
103 100 98
158 147 139
117 106 98
170 152 139
107 102 98
173 154 139
145 142 139
104 101 98
113 104 98
167 151 139
104 101 98
120 108 98
89 69 53
0 0 0
135 115 98
130 152 181
17 17 15
142 158 181
90 108 122
134 154 181
3 0 67
0 0 0
130 152 181
18 13 8
64 64 63
147 161 181
71 81 86
129 127 35
7 1 3
149 162 181
133 154 181
147 161 181
129 152 181
71 82 86
113 124 174
133 154 181
142 159 181
131 153 181
131 153 181
130 152 181
149 162 181
130 152 181
46 46 45
132 153 181
129 152 181
136 152 53
142 158 181
125 126 127
91 109 122
76 83 90
135 155 181
131 153 181
138 156 181
149 162 181
143 159 181
146 160 181
132 153 181
136 155 181
133 154 181
136 155 181
76 83 90
133 154 181
80 85 90
44 38 31
78 84 90
49 47 45
57 47 156
139 157 181
46 56 75
39 36 31
43 37 31
99 119 47
35 28 22
75 61 49
127 127 127
72 68 63
73 68 63
11 12 2
127 127 127
126 126 127
42 37 31
116 121 127
83 38 59
96 93 90
0 0 0
33 35 11
57 51 45
65 65 63
70 67 63
117 122 127
26 70 67
69 66 63
114 120 127
112 119 127
38 35 31
114 120 127
126 126 127
74 69 63
58 75 106
120 123 127
4 8 4
115 121 127
73 68 63
124 126 127
117 122 127
65 65 63
24 20 15
112 119 127
105 98 90
68 34 59
108 99 90
14 10 7
66 65 63
116 121 127
119 123 127
62 53 45
104 97 90
9 13 22
31 91 95
0 0 0
120 123 127
0 0 0
0 0 13
94 92 90
32 27 36
79 84 90
132 153 181
10 4 16
107 95 152
86 88 90
4 15 24
131 153 181
53 25 125
126 126 127
134 155 181
129 152 181
78 84 90
77 83 90
3 0 0
133 154 181
130 152 181
79 84 90
126 147 123
12 6 42
121 144 123
127 147 123
0 0 0
198 218 173
126 147 123
134 154 181
132 153 181
149 162 181
143 159 181
100 82 42
145 160 181
150 163 181
130 152 181
130 152 181
140 157 181
94 104 59
140 157 181
129 152 181
136 155 181
138 157 181
136 155 181
131 153 181
133 154 181
154 165 181
130 152 181
139 157 181
132 153 181
136 156 181
143 159 181
128 151 181
120 138 118
139 157 181
144 160 181
129 152 181
140 157 181
131 153 181
147 161 181
130 152 181
144 159 181
135 155 181
132 153 181
145 160 181
140 158 181
109 61 118
145 160 181
130 152 181
114 105 98
151 144 139
175 155 139
104 101 98
166 151 139
164 150 139
159 148 139
161 149 139
172 154 139
120 108 98
172 154 139
91 79 69
110 103 98
2 0 0
74 29 50
115 106 98
146 142 139
69 56 39
166 151 139
108 102 98
130 113 98
0 0 0
140 117 98
129 113 98
148 143 139
83 86 90
107 117 127
128 151 181
65 68 66
83 86 90
136 155 181
45 45 45
29 17 70
135 155 181
76 83 90
36 18 73
132 153 181
77 83 90
110 118 127
137 156 181
138 157 181
74 54 40
51 67 59
131 153 181
153 165 181
137 156 181
132 153 181
145 160 181
135 155 181
32 32 51
7 22 46
131 153 181
0 0 0
150 163 181
148 162 181
129 152 181
0 0 0
132 153 181
129 152 181
152 164 181
15 12 37
131 153 181
43 37 31
151 163 181
76 83 90
129 128 127
141 158 181
152 164 181
81 85 90
121 124 127
145 160 181
76 67 107
125 126 127
82 86 90
136 156 181
82 86 90
48 46 45
88 89 90
72 68 63
1 0 1
28 20 55
13 15 4
24 20 15
100 95 90
6 16 1
117 122 127
40 36 31
105 98 90
72 68 63
68 66 63
119 123 127
65 64 63
105 98 90
64 64 63
16 10 8
65 65 63
103 97 90
67 66 63
32 49 65
3 1 0
43 37 31
41 36 31
67 66 63
7 9 4
70 67 63
22 19 15
68 66 63
103 97 90
121 124 127
62 53 45
25 20 15
99 95 90
45 19 88
41 37 31
39 35 31
41 37 31
65 65 63
1 11 8
117 122 127
107 99 90
0 0 0
2 7 3
118 123 127
68 66 63
39 35 31
25 20 15
8 6 3
54 63 23
25 29 37
103 97 90
26 20 15
133 154 181
17 6 13
38 35 31
82 86 90
49 47 45
141 158 181
40 18 50
44 36 53
133 154 181
136 155 181
120 123 127
41 36 31
120 123 127
119 123 127
129 152 181
152 164 181
149 162 181
137 156 181
76 83 90
131 153 181
28 5 8
127 147 123
126 147 123
121 144 123
114 118 86
132 150 123
129 152 181
139 157 181
131 153 181
131 153 181
123 125 127
129 152 181
10 85 23
87 102 86
143 159 181
143 159 181
0 0 6
140 158 181
145 160 181
135 155 181
144 159 181
102 97 66
129 152 181
150 163 181
138 157 181
130 152 181
34 38 20
138 156 181
129 152 181
148 162 181
133 154 181
132 153 181
141 158 181
142 159 181
131 153 181
130 152 181
108 117 127
143 159 181
132 153 181
131 153 181
129 152 181
131 153 181
139 157 181
78 101 122
133 154 181
137 156 181
133 154 181
134 154 181
119 123 127
66 57 49
107 102 98
168 151 139
104 100 98
23 16 137
155 146 139
109 103 98
170 153 139
154 146 139
102 100 98
0 1 0
104 100 98
110 103 98
120 108 98
105 101 98
153 145 139
119 107 98
160 148 139
174 154 139
105 101 98
160 148 139
121 110 98
167 151 139
106 101 98
46 53 25
131 153 181
130 152 181
153 165 181
132 153 181
142 159 181
85 87 90
141 158 181
76 70 63
132 153 181
130 152 181
130 152 181
77 101 122
67 28 125
89 108 122
145 160 181
142 159 181
136 155 181
129 128 127
149 162 181
131 153 181
145 160 181
129 128 127
143 159 181
47 46 45
144 160 181
147 161 181
151 164 181
77 83 90
150 163 181
149 163 181
117 122 127
150 163 181
129 152 181
146 160 181
133 154 181
142 159 181
131 153 181
132 153 181
88 89 90
135 155 181
130 152 181
45 45 45
118 122 127
133 154 181
147 161 181
75 70 63
124 125 127
147 162 181
127 127 127
34 27 38
8 6 3
127 127 127
144 159 181
133 154 181
142 159 181
47 46 45
87 88 90
34 27 38
144 159 181
121 124 127
25 20 15
74 69 63
66 65 63
25 20 15
116 122 127
126 126 127
39 65 92
119 123 127
14 11 7
15 11 7
25 20 15
11 5 4
67 66 63
115 121 127
9 6 3
62 53 45
71 67 63
72 68 63
38 35 31
22 10 14
107 99 90
123 125 127
45 38 31
106 98 90
98 94 90
0 0 0
54 26 41
73 69 63
126 126 127
64 64 63
24 20 15
0 0 0
37 63 48
8 6 3
66 65 63
5 2 9
67 66 63
72 68 63
52 42 52
38 35 31
19 6 22
37 78 53
49 76 64
12 8 5
43 37 31
4 2 4
0 0 0
51 28 36
79 84 90
152 164 181
90 121 74
76 83 90
89 89 90
124 125 127
151 163 181
130 152 181
122 124 127
19 17 31
132 153 181
134 154 181
154 165 181
47 37 53
134 154 181
144 160 181
132 153 181
119 123 127
141 158 181
80 96 59
123 145 123
124 146 123
143 156 123
110 116 86
84 102 83
118 122 127
144 160 181
139 157 181
131 153 181
131 153 181
27 70 44
139 157 181
90 109 122
135 151 123
128 151 181
134 154 181
135 155 181
135 155 181
106 114 38
119 123 127
89 104 86
130 152 181
131 86 33
128 151 181
145 160 181
131 153 181
136 156 181
132 153 181
134 154 181
131 152 181
147 161 181
129 152 181
128 151 181
133 154 181
131 153 181
142 159 181
139 157 181
146 161 181
59 21 169
150 163 181
128 151 181
146 161 181
80 102 122
144 159 181
133 154 181
128 151 181
132 153 181
106 102 98
154 145 139
161 149 139
95 81 69
167 151 139
149 143 139
109 103 98
0 0 0
160 148 139
169 152 139
108 103 98
116 106 98
17 12 97
107 102 98
161 148 139
171 153 139
156 146 139
159 148 139
104 101 98
157 147 139
171 153 139
51 22 32
87 66 49
13 9 6
37 8 1
10 3 30
131 153 181
129 152 181
129 152 181
81 85 90
139 157 181
29 31 30
143 159 181
128 151 181
134 154 181
128 151 181
138 156 181
54 71 86
146 161 181
15 12 126
136 155 181
146 161 181
136 155 181
142 159 181
147 161 181
32 27 22
52 58 52
147 161 181
137 156 181
143 159 181
29 38 41
142 159 181
131 153 181
140 157 181
138 157 181
66 51 40
150 163 181
122 124 127
127 127 127
123 125 127
129 152 181
130 152 181
0 0 0
153 165 181
76 83 90
29 26 22
138 156 181
85 87 90
125 126 127
81 85 90
43 43 30
137 156 181
145 160 181
29 26 22
77 83 90
86 88 90
5 3 1
87 88 90
117 122 127
38 28 13
32 39 53
86 87 90
86 88 90
84 87 90
2 1 0
37 29 22
69 67 63
71 68 63
27 7 26
26 37 46
68 83 33
65 65 63
118 122 127
56 51 45
34 28 22
1 2 1
0 0 0
67 66 63
125 126 127
119 123 127
36 30 24
8 5 3
70 67 63
4 3 1
125 126 127
58 52 45
33 28 22
30 21 6
52 58 61
65 65 63
18 13 8
123 125 127
3 1 0
68 66 63
105 98 90
124 125 127
24 20 15
118 122 127
61 53 45
63 54 45
88 95 33
38 35 31
35 28 22
117 122 127
21 16 11
38 35 31
104 97 90
75 69 63
86 88 90
141 158 181
18 14 11
139 157 181
55 22 88
1 0 0
45 30 55
140 157 181
16 76 36
144 160 181
47 56 75
114 120 127
142 158 181
54 26 51
78 84 90
142 159 181
156 166 181
69 59 84
114 120 127
70 42 51
149 162 181
138 157 181
131 153 181
130 152 181
65 64 32
130 149 123
54 57 43
0 0 0
139 157 181
143 159 181
138 156 181
144 160 181
91 104 86
128 151 181
141 158 181
132 153 181
130 152 181
140 158 181
131 153 181
33 12 145
132 153 181
133 154 181
138 156 181
153 165 181
138 156 181
131 153 181
128 151 181
131 153 181
136 156 181
135 155 181
137 156 181
54 71 86
136 155 181
144 160 181
125 111 169
141 158 181
136 156 181
138 156 181
109 115 86
43 34 110
130 152 181
132 153 181
128 151 181
149 162 181
137 156 181
129 152 181
132 153 181
83 86 90
133 154 181
55 71 86
0 0 0
134 154 181
142 159 181
176 155 139
13 10 97
108 102 98
104 101 98
163 150 139
109 103 98
161 149 139
104 100 98
107 102 98
74 12 32
168 152 139
141 117 98
155 146 139
99 83 69
109 103 98
148 143 139
165 150 139
170 153 139
63 48 37
173 154 139
109 103 98
68 102 67
163 149 139
32 9 2
134 154 181
132 153 181
6 19 11
79 84 90
114 120 127
126 127 127
149 162 181
138 156 181
74 69 63
149 162 181
135 155 181
57 21 169
140 158 181
128 151 181
82 86 90
149 155 98
50 150 134
50 47 45
79 84 90
0 0 0
131 129 127
86 88 90
132 153 181
111 139 108
129 152 181
129 152 181
130 152 181
139 157 181
137 156 181
149 162 181
130 152 181
94 72 57
41 68 52
49 47 45
133 154 181
2 0 4
141 158 181
112 119 127
71 81 86
134 154 181
143 159 181
70 34 59
120 123 127
138 156 181
3 25 66
77 83 90
49 98 66
147 161 181
55 80 52
46 47 61
148 162 181
17 10 20
81 85 90
142 158 181
51 48 45
29 23 28
137 156 181
175 92 167
170 90 167
80 19 54
6 4 2
154 86 167
94 48 83
152 86 167
44 38 31
155 87 167
151 86 167
134 68 118
12 13 18
7 5 44
73 68 63
64 27 46
66 65 63
72 68 63
38 35 31
24 20 15
104 97 90
0 0 0
24 36 46
13 8 5
40 36 31
123 125 127
122 124 127
23 19 15
0 0 0
44 37 31
41 36 31
0 0 0
102 96 90
100 95 90
118 122 127
0 0 0
128 127 127
73 68 63
10 1 42
8 6 3
33 28 22
103 97 90
5 3 1
152 164 181
48 47 45
148 162 181
152 164 181
44 38 31
148 162 181
0 0 0
88 89 90
30 26 22
28 25 22
83 86 90
48 47 45
53 25 49
47 46 45
147 161 181
144 160 181
85 87 90
145 160 181
135 155 181
133 154 181
148 162 181
149 162 181
41 19 88
142 159 181
79 84 90
148 162 181
41 26 46
145 160 181
64 72 41
48 35 46
10 12 0
144 160 181
41 34 110
92 105 86
0 0 0
147 161 181
128 151 181
39 59 66
135 155 181
146 161 181
131 153 181
142 158 181
131 153 181
128 151 181
133 154 181
138 156 181
128 151 181
131 153 181
132 153 181
131 153 181
136 156 181
90 102 69
147 161 181
141 158 181
136 155 181
68 65 43
34 36 14
136 156 181
132 153 181
129 152 181
136 155 181
138 157 181
148 162 181
149 163 181
132 153 181
150 163 181
55 71 86
134 155 181
130 152 181
138 156 181
130 152 181
128 151 181
81 85 90
136 155 181
142 158 181
128 151 181
131 153 181
93 109 84
110 103 98
60 47 37
158 147 139
104 101 98
172 154 139
154 145 139
108 102 98
103 100 98
151 144 139
105 101 98
71 59 49
66 49 37
9 6 48
158 147 139
155 146 139
114 105 98
159 148 139
28 5 1
60 47 37
166 151 139
48 34 24
105 101 98
154 165 181
85 87 90
142 158 181
113 120 127
141 158 181
138 156 181
131 153 181
141 158 181
78 84 90
137 156 181
101 207 193
113 120 127
133 154 181
129 128 127
132 153 181
125 126 127
146 161 181
135 155 181
78 84 90
131 153 181
131 153 181
87 88 90
143 159 181
132 153 181
124 126 127
46 45 45
128 151 181
132 153 181
143 159 181
142 159 181
138 156 181
145 160 181
90 90 90
133 154 181
144 159 181
149 162 181
116 121 127
132 153 181
128 128 127
71 53 40
128 127 127
75 69 63
45 38 31
43 37 31
74 69 63
138 156 181
149 163 181
78 84 90
118 122 127
117 122 127
137 156 181
72 68 63
139 157 181
137 156 181
121 124 127
78 82 26
30 26 22
168 90 167
159 88 167
164 89 167
155 87 167
181 93 167
180 93 167
156 87 167
176 92 167
158 87 167
152 86 167
151 86 167
160 88 167
153 86 167
0 0 0
36 25 17
125 126 127
41 36 31
71 67 63
44 38 31
12 8 5
9 2 2
58 94 68
29 22 18
24 20 15
0 0 0
0 0 0
126 127 127
42 37 31
36 15 20
73 68 63
25 20 15
123 125 127
123 125 127
102 96 90
74 69 63
37 29 22
122 124 127
25 20 15
27 85 95
47 38 35
15 11 7
27 10 44
22 15 39
127 127 127
83 86 90
16 3 4
16 20 26
29 7 5
85 87 90
2 0 0
139 157 181
149 163 181
85 87 90
139 157 181
80 85 90
40 29 38
78 84 90
142 159 181
86 88 90
77 83 90
142 159 181
137 156 181
142 158 181
78 84 90
1 1 0
136 156 181
139 157 181
30 16 104
112 97 152
88 88 90
149 162 181
145 160 181
101 110 86
29 32 63
132 153 181
62 22 169
27 32 9
12 92 33
68 74 41
87 102 86
63 70 28
131 153 181
128 151 181
79 73 69
128 148 123
138 153 123
131 153 181
132 153 181
137 156 181
86 88 90
136 155 181
133 154 181
121 124 127
140 158 181
122 125 127
49 102 96
135 155 181
130 152 181
144 160 181
143 159 181
133 154 181
0 0 0
115 105 98
147 161 181
108 118 127
150 163 181
132 153 181
134 151 53
130 152 181
147 161 181
131 153 181
50 103 96
131 153 181
151 163 181
117 122 127
132 153 181
139 157 181
134 154 181
132 153 181
116 121 127
131 153 181
16 47 28
120 108 98
109 103 98
157 147 139
174 154 139
103 100 98
114 105 98
81 137 105
121 108 98
105 101 98
169 152 139
117 107 98
60 77 72
147 142 139
104 101 98
170 152 139
111 104 98
113 105 98
169 152 139
134 101 30
108 102 98
91 79 69
128 151 181
142 159 181
107 213 193
118 223 193
72 199 57
99 205 193
103 209 193
100 206 193
111 216 193
101 207 193
111 216 193
131 153 181
140 157 181
154 165 181
134 154 181
50 47 45
97 82 69
82 86 90
2 0 17
138 156 181
116 121 127
131 153 181
134 154 181
120 123 98
139 157 181
130 152 181
131 153 181
146 161 181
121 124 127
139 157 181
138 156 181
80 85 90
132 153 181
79 84 90
81 85 90
127 127 127
120 123 127
146 161 181
70 67 63
129 128 127
131 153 181
43 35 110
120 123 127
53 49 45
118 122 127
89 89 90
87 88 90
66 65 63
143 159 181
85 87 90
85 87 90
14 10 27
65 81 125
71 68 63
45 45 45
28 25 22
20 38 145
154 86 167
183 94 167
182 94 167
159 88 167
157 87 167
183 94 167
152 86 167
182 94 167
151 72 118
151 86 167
170 90 167
169 90 167
176 92 167
166 89 167
180 93 167
83 86 90
37 42 43
72 68 63
1 0 0
26 20 15
13 10 7
24 20 15
25 20 15
35 28 22
66 66 49
0 0 0
35 25 29
72 68 63
14 11 7
44 37 31
128 127 127
127 127 127
4 3 0
16 9 9
123 125 127
87 88 90
89 89 90
53 25 41
52 49 45
27 25 22
49 47 45
88 89 90
0 0 0
85 87 90
30 26 22
76 83 90
10 7 5
52 49 45
0 0 0
47 56 75
143 159 181
146 161 181
78 84 90
35 6 7
145 160 181
135 155 181
80 85 90
28 12 35
147 161 181
52 48 45
6 4 2
129 128 127
68 66 63
137 156 181
83 86 90
57 11 14
133 154 181
148 162 181
17 21 26
132 153 181
11 7 61
142 159 181
14 21 13
136 156 181
10 1 79
143 156 123
132 153 181
100 109 86
97 108 86
148 162 181
12 93 33
39 65 48
134 87 33
122 124 127
139 154 123
65 78 86
33 102 95
62 54 33
132 153 181
142 159 181
52 48 45
149 162 181
130 152 181
132 153 181
135 155 181
78 43 83
128 151 181
150 163 181
133 154 181
130 152 181
143 159 181
136 155 181
145 160 181
133 154 181
148 162 181
149 162 181
131 153 181
132 153 181
152 164 181
145 160 181
133 154 181
144 159 181
133 154 181
90 108 122
132 153 181
146 160 181
143 159 181
144 159 181
132 153 181
132 153 181
138 157 181
67 50 37
105 101 98
109 103 98
107 102 98
104 101 98
161 149 139
172 153 139
166 151 139
86 43 69
13 9 6
102 84 69
97 82 69
113 105 98
166 151 139
113 105 98
77 62 49
164 150 139
174 154 139
105 101 98
108 102 98
63 55 49
170 153 139
106 212 193
104 210 193
105 210 193
100 206 193
100 206 193
107 212 193
110 215 193
114 219 193
102 208 193
111 216 193
103 208 193
129 152 181
118 224 193
131 153 181
103 209 193
141 158 181
151 163 181
131 153 181
155 165 181
0 0 0
133 154 181
123 125 127
133 154 181
142 159 181
144 160 181
141 158 181
86 88 90
148 162 181
89 47 83
140 157 181
33 38 12
140 158 181
142 158 181
133 154 181
124 125 127
64 56 49
129 128 127
3 0 40
132 153 181
78 84 90
45 31 38
6 4 2
77 70 63
9 1 24
84 87 90
24 17 12
144 160 181
136 155 181
24 20 15
139 157 181
141 158 181
16 14 11
156 166 181
82 86 90
87 88 90
87 84 126
162 88 167
165 89 167
153 86 167
163 89 167
160 88 167
178 93 167
163 89 167
161 88 167
152 86 167
175 92 167
163 89 167
157 87 167
179 93 167
182 94 167
102 78 134
158 87 167
168 90 167
45 45 45
0 0 0
6 1 2
6 8 5
10 8 5
2 0 3
151 164 181
18 21 21
0 0 0
2 0 1
0 0 0
0 0 0
36 29 22
30 26 22
40 78 68
127 127 127
6 4 2
4 2 1
8 3 3
0 0 0
1 1 0
30 26 22
11 8 9
10 7 5
50 47 45
87 88 90
0 0 0
3 2 1
8 5 3
52 49 45
37 15 25
149 162 181
33 41 53
72 37 77
60 25 119
39 13 53
30 26 22
152 164 181
138 156 181
121 124 127
45 45 45
137 156 181
113 120 127
144 159 181
54 79 52
31 26 22
40 36 31
118 122 127
151 163 181
109 61 118
147 161 181
154 165 181
74 69 63
150 163 181
138 157 181
139 157 181
56 58 43
45 67 53
60 70 41
11 45 111
128 151 181
0 0 0
156 166 181
143 159 181
130 152 181
140 154 123
80 74 69
153 164 181
129 152 181
116 121 127
135 155 181
139 157 181
129 152 181
138 156 181
145 160 181
131 153 181
134 154 181
140 158 181
130 152 181
73 71 69
129 152 181
129 152 181
129 152 181
147 161 181
150 163 181
138 157 181
109 118 127
131 153 181
131 153 181
131 153 181
129 152 181
142 159 181
44 78 30
115 121 127
176 173 229
177 174 229
130 152 181
179 175 229
128 151 181
181 175 229
131 153 181
136 155 181
137 156 181
143 159 181
119 123 127
109 103 98
106 102 98
122 109 98
104 100 98
117 107 98
170 153 139
34 25 17
47 57 53
113 105 98
163 149 139
78 42 22
90 69 53
174 154 139
113 104 98
104 101 98
105 101 98
103 100 98
118 107 98
143 118 98
174 154 139
109 214 193
110 216 193
118 223 193
113 218 193
105 210 193
100 206 193
0 72 7
97 203 193
110 215 193
97 203 193
9 174 63
93 201 150
116 221 193
43 66 25
67 89 176
84 83 126
100 206 193
109 214 193
134 154 181
141 158 181
130 152 181
149 162 181
128 151 181
135 155 181
133 154 181
133 154 181
139 157 181
132 153 181
136 155 181
150 163 181
124 125 127
144 160 181
88 66 49
132 153 181
151 163 181
123 125 127
140 158 181
86 88 90
126 126 127
81 85 90
146 161 181
83 86 90
140 158 181
150 163 181
70 67 63
17 7 14
144 159 181
1 0 0
77 83 90
77 83 90
87 88 90
152 164 181
71 94 125
46 45 45
39 29 28
53 49 45
108 61 118
170 91 167
172 91 167
162 88 167
159 88 167
158 87 167
162 88 167
154 86 167
183 94 167
159 88 167
152 86 167
162 88 167
177 92 167
162 88 167
155 87 167
182 94 167
182 93 167
12 26 71
115 63 118
160 88 167
89 89 90
126 127 127
3 2 1
0 0 0
1 0 0
73 68 63
87 88 90
149 162 181
69 34 59
0 0 0
52 49 45
151 164 181
27 12 35
18 14 11
26 28 31
18 14 11
8 6 3
16 14 11
149 162 181
11 10 11
146 161 181
87 88 90
152 164 181
42 37 31
2 2 1
50 47 45
5 4 2
49 47 45
76 70 63
31 27 22
27 3 17
10 7 5
143 159 181
75 83 90
48 47 45
8 15 8
149 163 181
2 1 0
133 154 181
118 122 127
123 125 127
45 38 31
132 153 181
139 157 181
133 154 181
0 9 10
87 88 90
133 154 181
1 10 3
45 45 45
140 158 181
138 156 181
139 157 181
116 121 127
138 156 181
46 35 26
131 152 181
128 151 181
129 152 181
134 154 181
133 154 181
132 153 181
136 155 181
132 153 181
133 154 181
150 163 181
128 151 181
143 159 181
106 101 98
136 155 181
153 165 181
131 153 181
135 155 181
141 158 181
128 151 181
145 160 181
88 103 86
128 151 181
131 153 181
131 153 181
145 160 181
131 153 181
132 153 181
134 154 181
135 155 181
130 152 181
128 151 181
142 158 181
136 155 181
199 183 229
131 153 181
58 167 106
197 183 229
184 177 229
144 14 61
176 173 229
180 175 229
0 0 0
130 128 127
199 183 229
140 158 181
142 89 33
135 155 181
131 153 181
13 7 50
61 137 123
67 57 49
0 0 0
108 102 98
0 0 0
113 105 98
103 100 98
116 106 98
112 104 98
106 101 98
121 108 98
155 146 139
171 153 139
55 44 34
89 79 69
97 82 69
64 49 37
106 102 98
101 84 69
107 212 193
110 215 193
99 205 193
95 165 173
97 203 193
105 211 193
110 216 193
108 213 193
106 211 193
98 204 193
112 217 193
106 211 193
114 220 193
111 216 193
37 47 88
100 206 193
104 210 193
97 203 193
140 158 181
135 155 181
142 158 181
129 152 181
73 56 73
143 159 181
82 75 69
138 156 181
138 157 181
135 155 181
142 158 181
73 68 63
47 82 76
137 156 181
132 153 181
78 84 90
148 162 181
15 53 36
135 155 181
117 122 127
73 67 71
76 83 90
148 162 181
133 154 181
44 38 31
0 0 0
85 87 90
52 48 45
115 121 127
131 153 181
21 10 19
47 46 45
73 68 63
0 0 0
3 2 0
150 163 181
67 51 35
71 67 63
164 89 167
155 86 167
109 61 118
171 91 167
163 89 167
141 68 132
154 86 167
170 90 167
141 68 132
176 92 167
151 86 167
114 62 118
160 88 167
153 86 167
151 86 167
156 87 167
161 88 167
14 18 61
159 88 167
151 86 167
162 88 167
171 91 167
0 0 0
2 2 1
153 165 181
28 31 30
12 10 8
30 26 22
15 11 7
145 160 181
156 166 181
129 128 127
149 162 181
70 145 136
87 88 90
88 89 90
85 87 90
126 126 127
43 37 31
15 11 7
42 37 31
18 14 11
88 89 90
90 90 90
89 89 90
55 63 88
7 10 8
47 46 45
30 26 22
81 85 90
81 85 90
45 45 45
61 51 75
1 3 8
73 68 63
126 127 127
28 25 22
118 122 127
144 160 181
114 120 127
79 84 90
138 156 181
50 49 61
84 87 90
0 0 0
90 90 90
116 122 127
0 1 3
125 126 127
124 125 127
153 164 181
1 0 0
88 89 90
151 164 181
138 156 181
131 153 181
131 152 181
134 154 181
76 56 177
132 153 181
128 151 181
151 164 181
133 154 181
138 157 181
135 155 181
130 152 181
130 152 181
130 152 181
132 153 181
131 153 181
130 152 181
135 155 181
130 152 181
128 151 181
131 153 181
133 154 181
132 153 181
138 157 181
134 154 181
130 152 181
132 153 181
129 152 181
138 157 181
87 103 86
138 156 181
139 157 181
148 162 181
188 178 229
201 184 229
133 154 181
190 179 229
210 189 229
181 176 229
179 175 229
177 174 229
184 177 229
212 189 229
187 178 229
179 175 229
202 185 229
214 190 229
211 189 229
134 154 181
193 181 229
179 174 229
128 151 181
169 152 139
170 153 139
113 66 65
115 105 98
97 71 53
167 151 139
1 5 21
0 0 0
56 54 47
20 45 24
104 85 69
105 101 98
33 17 37
105 101 98
86 78 69
87 78 69
102 208 193
101 206 193
114 219 193
116 221 193
104 210 193
0 55 1
98 204 193
109 214 193
100 169 108
113 218 193
31 192 110
112 217 193
99 205 193
110 215 193
104 210 193
102 208 193
81 152 153
98 204 193
103 208 193
102 208 193
104 209 193
89 164 136
83 86 90
134 154 181
110 118 127
115 121 127
151 163 181
138 156 181
76 83 90
127 127 127
0 0 0
141 158 181
140 157 181
153 165 181
145 160 181
79 84 90
131 153 181
146 161 181
130 152 181
58 97 74
149 162 181
123 125 127
116 63 118
5 30 13
80 85 90
78 84 90
139 157 181
133 154 181
2 3 1
147 161 181
123 125 127
26 20 15
78 84 90
144 160 181
78 84 90
0 0 0
162 88 167
159 88 167
163 89 167
157 87 167
174 91 167
181 93 167
173 91 167
167 90 167
179 93 167
183 94 167
177 92 167
163 88 167
176 92 167
53 46 120
167 90 167
166 89 167
158 87 167
95 13 44
158 87 167
3 0 3
180 93 167
84 31 149
48 1 16
49 47 45
90 90 90
2 1 0
30 26 22
80 85 90
44 38 31
85 87 90
140 104 153
52 48 45
144 160 181
77 70 63
84 87 90
46 26 39
52 48 45
17 14 11
30 26 22
123 125 127
53 49 45
6 4 2
77 84 90
83 86 90
39 35 31
70 34 177
29 26 22
92 47 83
143 159 181
43 37 31
19 45 33
125 126 127
51 48 45
76 83 90
35 36 44
135 155 181
128 127 127
137 156 181
57 32 36
140 158 181
141 158 181
72 68 63
119 123 127
139 157 181
124 126 127
139 157 181
133 154 181
153 165 181
128 128 127
3 0 3
134 154 181
77 83 90
82 86 90
123 125 127
77 83 90
140 157 181
130 152 181
129 152 181
133 154 181
143 159 181
152 164 181
146 161 181
143 159 181
146 161 181
129 151 181
131 153 181
12 84 25
129 152 181
131 153 181
130 152 181
104 103 173
134 154 181
120 123 127
145 160 181
136 155 181
145 160 181
91 105 86
30 98 95
47 24 41
137 156 181
15 12 37
131 153 181
128 151 181
131 153 181
111 116 86
131 153 181
132 153 181
151 163 181
193 148 205
176 173 229
201 184 229
183 99 41
193 181 229
209 188 229
139 107 192
177 174 229
189 147 129
206 187 229
164 137 129
183 176 229
205 186 229
193 181 229
177 174 229
178 174 229
181 175 229
177 174 229
176 173 229
141 158 181
0 0 0
140 158 181
175 155 139
173 154 139
63 49 37
164 150 139
158 147 139
9 7 68
175 155 139
117 106 98
0 0 0
104 101 98
97 72 53
135 60 91
50 42 42
104 210 193
108 214 193
99 205 193
111 216 193
75 150 136
106 119 35
106 212 193
114 219 193
108 214 193
117 222 193
110 215 193
107 212 193
101 207 193
103 208 193
113 218 193
110 216 193
105 211 193
97 203 193
108 214 193
98 167 82
82 82 126
103 208 193
106 211 193
83 75 69
134 154 181
9 7 5
124 125 127
131 153 181
146 161 181
134 88 115
131 153 181
143 159 181
103 84 69
145 160 181
29 26 22
130 129 127
9 15 40
138 156 181
128 66 118
113 120 127
79 84 90
146 161 181
130 152 181
80 85 90
144 160 181
137 156 181
77 83 90
78 84 90
89 87 101
130 128 127
134 154 181
83 86 90
73 68 63
45 45 45
128 127 127
26 20 15
11 33 33
177 92 167
180 93 167
87 45 93
156 87 167
165 89 167
0 0 0
152 86 167
183 94 167
168 90 167
154 86 167
177 92 167
106 61 91
170 91 167
170 90 167
0 0 1
172 91 167
153 86 167
103 48 46
163 89 167
158 87 167
176 92 167
41 65 124
154 86 167
179 93 167
117 63 118
73 68 63
16 11 7
40 66 48
30 26 22
45 45 45
46 46 45
149 162 181
35 18 73
5 4 2
6 1 10
15 45 47
85 87 90
77 83 90
78 84 90
47 46 45
150 163 181
0 0 0
80 74 69
154 165 181
65 65 63
21 5 56
85 87 90
43 37 31
86 88 90
6 4 3
148 162 181
41 21 27
38 64 92
89 25 86
81 85 90
18 14 11
80 85 90
124 125 127
36 91 75
82 86 90
143 159 181
81 85 90
150 163 181
50 48 45
39 120 135
17 14 11
116 122 127
126 126 127
133 154 181
81 85 90
135 155 181
112 120 127
138 156 181
132 153 181
118 122 127
145 160 181
133 154 181
145 160 181
133 154 181
135 155 181
135 155 181
136 155 181
131 153 181
151 163 181
31 57 32
149 162 181
135 155 181
139 157 181
131 153 181
149 162 181
147 161 181
133 154 181
136 156 181
74 71 69
138 156 181
132 153 181
118 123 127
144 159 181
8 3 14
132 153 181
1 0 41
55 21 169
131 153 181
145 160 181
140 158 181
146 160 181
43 33 26
146 161 181
132 153 181
189 179 229
176 173 229
199 183 229
173 120 186
187 178 229
187 178 229
182 176 229
199 184 229
197 183 229
181 175 229
175 173 229
179 175 229
190 179 229
200 184 229
185 177 229
209 188 229
185 177 229
125 131 60
192 180 229
195 182 229
132 153 181
0 0 0
110 103 98
99 72 53
12 5 2
110 103 98
106 102 98
0 0 0
141 112 60
23 5 1
112 104 98
99 72 53
25 18 13
104 210 193
111 216 193
106 211 193
97 204 193
112 218 193
97 203 193
98 204 193
100 206 193
113 218 193
103 209 193
71 145 136
98 204 193
100 206 193
103 209 193
117 222 193
116 221 193
109 214 193
100 206 193
108 214 193
104 210 193
0 27 1
100 206 193
100 206 193
97 204 193
113 218 193
139 157 181
147 161 181
142 159 181
145 160 181
141 158 181
138 156 181
97 82 69
131 153 181
136 155 181
47 84 68
128 151 181
149 162 181
128 127 127
132 153 181
29 88 95
54 30 42
83 86 90
138 156 181
132 153 181
145 160 181
54 57 43
136 155 181
82 86 90
153 165 181
54 71 86
47 46 45
131 153 181
140 157 181
37 35 31
60 74 86
148 162 181
122 124 127
81 85 90
0 0 0
161 88 167
172 91 167
162 88 167
178 92 167
159 87 167
162 88 167
171 91 167
84 83 126
98 47 46
155 87 167
168 90 167
69 87 148
96 38 59
157 87 167
165 89 167
181 93 167
158 87 167
162 88 167
159 88 167
157 87 167
178 93 167
167 90 167
151 86 167
174 91 167
72 68 63
128 127 127
83 86 90
33 34 63
148 162 181
149 163 181
143 159 181
44 37 31
90 90 90
72 68 63
139 157 181
148 162 181
53 49 45
83 86 90
6 6 7
50 47 45
139 157 181
20 19 22
116 121 127
51 48 45
138 156 181
120 123 127
69 66 63
140 157 181
81 155 136
145 160 181
14 36 27
49 44 48
134 154 181
138 157 181
148 162 181
129 128 127
88 89 90
51 48 45
139 157 181
129 128 127
88 89 90
60 70 123
130 152 181
146 161 181
152 164 181
151 163 181
138 156 181
45 48 62
148 162 181
145 160 181
129 128 127
122 125 127
141 158 181
49 47 45
74 69 63
148 162 181
57 99 92
132 153 181
132 153 181
121 144 123
131 153 181
129 152 181
136 155 181
123 109 98
54 40 125
140 158 181
130 152 181
141 158 181
64 50 40
128 151 181
135 155 181
139 157 181
135 155 181
149 162 181
143 159 181
128 151 181
126 147 123
129 152 181
143 159 181
132 153 181
134 154 181
132 153 181
12 94 49
131 153 181
141 158 181
133 154 181
200 184 229
177 174 229
186 178 229
180 175 229
185 177 229
185 145 129
183 176 229
181 175 229
0 0 0
207 187 229
211 189 229
187 178 229
182 176 229
180 175 229
204 186 229
153 136 162
206 187 229
188 178 229
105 173 173
175 173 229
195 181 229
156 138 162
2 20 29
37 26 18
120 108 98
64 102 74
35 51 62
117 106 98
33 22 14
173 154 139
33 22 14
7 5 37
121 108 98
49 102 96
154 165 181
103 208 193
101 170 173
103 209 193
98 204 193
79 153 136
110 215 193
98 204 193
112 217 193
100 206 193
110 215 193
116 221 193
106 211 193
110 215 193
0 0 0
90 160 153
116 221 193
105 210 193
115 220 193
105 211 193
99 205 193
0 0 0
102 207 193
103 209 193
61 114 96
34 111 139
109 214 193
104 209 193
130 152 181
128 151 181
134 154 181
135 155 181
129 128 127
129 128 127
130 152 181
128 151 181
83 86 90
130 152 181
130 129 127
125 126 127
131 153 181
129 152 181
120 123 127
129 152 181
144 160 181
128 151 181
135 155 181
126 126 127
120 123 127
79 84 90
51 104 96
88 89 90
137 156 181
140 158 181
27 13 20
154 165 181
139 157 181
132 153 181
161 88 167
156 87 167
47 44 63
109 61 118
173 91 167
46 43 63
179 93 167
151 86 167
51 24 52
157 71 149
162 88 167
1 0 0
167 90 167
158 87 167
110 61 118
111 61 118
166 89 167
119 64 118
158 87 167
162 88 167
173 91 167
5 0 0
161 88 167
166 89 167
171 91 167
115 62 118
2 1 0
76 83 90
141 158 181
146 161 181
58 27 41
73 68 63
40 78 68
39 36 31
44 38 31
138 157 181
129 128 127
139 157 181
127 127 127
84 87 90
26 12 20
45 45 45
17 14 11
17 14 11
0 0 0
150 163 181
82 86 90
112 119 127
35 22 15
88 89 90
151 164 181
46 56 75
147 161 181
44 68 92
66 65 63
134 154 181
142 158 181
28 87 95
18 14 11
143 159 181
148 162 181
44 47 89
83 57 32
117 122 127
127 127 127
141 158 181
141 158 181
149 162 181
131 153 181
148 162 181
135 155 181
116 121 127
86 88 90
142 158 181
145 160 181
135 155 181
30 90 95
143 159 181
139 157 181
131 153 181
133 154 181
130 152 181
136 155 181
128 151 181
131 153 181
130 152 181
146 160 181
140 157 181
135 155 181
147 161 181
138 156 181
129 152 181
133 154 181
133 154 181
142 158 181
133 154 181
131 153 181
130 152 181
148 162 181
133 154 181
141 158 181
134 154 181
142 159 181
134 154 181
150 163 181
155 166 181
133 154 181
176 173 229
177 174 229
204 186 229
178 174 229
186 178 229
175 173 229
199 183 229
112 81 132
210 189 229
176 173 229
192 180 229
183 176 229
190 179 229
184 177 229
193 181 229
210 189 229
212 189 229
182 176 229
190 179 229
213 190 229
176 173 229
129 124 162
187 178 229
124 122 162
0 0 0
25 16 10
145 160 181
26 16 10
146 161 181
25 16 10
24 18 13
7 3 1
131 162 67
15 7 3
92 108 127
110 215 193
70 145 136
55 86 61
104 209 193
106 212 193
107 212 193
113 218 193
107 212 193
112 217 193
99 205 193
103 209 193
101 169 108
106 212 193
105 210 193
53 30 92
104 210 193
38 117 139
103 209 193
106 211 193
97 203 193
107 212 193
75 150 136
75 149 136
109 214 193
104 210 193
106 212 193
99 205 193
137 156 181
132 153 181
130 152 181
132 154 181
140 157 181
145 160 181
133 154 181
123 125 127
97 82 69
146 161 181
150 163 181
136 155 181
145 160 181
15 13 11
124 125 127
133 154 181
133 154 181
128 151 181
130 152 181
143 159 181
123 125 127
133 154 181
136 155 181
138 156 181
119 123 127
76 83 90
59 112 96
138 156 181
123 125 127
123 139 118
9 7 5
82 82 126
165 89 167
150 85 167
162 88 167
176 92 167
27 10 11
81 81 126
163 89 167
156 87 167
155 86 167
174 92 167
177 92 167
158 87 167
162 88 167
0 0 28
158 87 167
164 89 167
161 88 167
158 87 167
171 91 167
123 64 118
0 0 0
163 89 167
15 8 6
152 86 167
109 61 118
91 90 90
154 86 167
104 50 83
86 88 90
136 156 181
118 122 127
3 1 0
5 4 2
126 127 127
3 0 0
26 82 95
116 121 127
83 86 90
50 46 36
153 164 181
17 14 11
89 89 90
133 154 181
144 160 181
61 83 52
70 35 59
82 86 90
18 70 59
122 124 127
87 88 90
128 127 127
86 88 90
148 162 181
20 61 67
139 157 181
141 158 181
136 156 181
78 84 90
10 14 6
138 156 181
130 152 181
138 156 181
146 161 181
46 45 45
150 163 181
142 159 181
115 121 127
148 162 181
149 162 181
146 161 181
46 32 38
146 161 181
134 154 181
46 46 45
40 65 92
8 13 32
139 157 181
135 155 181
136 155 181
9 10 11
0 0 0
146 161 181
142 159 181
78 84 90
138 156 181
111 119 127
128 151 181
12 11 126
147 161 181
137 156 181
132 153 181
118 53 68
129 152 181
137 156 181
18 16 179
132 153 181
137 156 181
110 103 98
134 154 181
130 152 181
146 161 181
131 153 181
140 157 181
134 154 181
134 154 181
175 173 229
184 177 229
193 181 229
207 187 229
199 184 229
175 173 229
180 175 229
179 174 229
186 178 229
176 173 229
182 176 229
209 188 229
177 174 229
0 0 0
196 182 229
182 176 229
189 179 229
181 175 229
207 187 229
177 174 229
185 177 229
193 181 229
137 128 162
188 178 229
189 179 229
180 175 229
182 176 229
30 23 8
85 87 90
73 68 58
73 71 69
51 48 45
18 4 3
145 160 181
32 20 17
60 155 160
97 203 193
108 213 193
107 212 193
116 221 193
114 219 193
94 164 173
107 213 193
111 217 193
83 127 86
104 210 193
107 212 193
111 216 193
105 211 193
108 213 193
104 210 193
97 203 193
104 210 193
113 218 193
108 214 193
105 210 193
109 214 193
107 212 193
75 149 136
107 212 193
70 145 136
102 208 193
111 216 193
0 81 0
130 152 181
18 16 179
128 151 181
25 18 13
128 151 181
131 153 181
133 154 181
35 59 53
133 154 181
132 153 181
88 86 114
135 155 181
136 155 181
137 156 181
130 152 181
131 153 181
117 122 127
148 162 181
137 156 181
50 88 68
150 163 181
5 1 28
134 154 181
126 127 127
142 158 181
155 165 181
50 48 45
133 154 181
146 161 181
145 160 181
173 91 167
151 86 167
153 86 167
127 66 118
171 91 167
174 91 167
112 62 118
16 26 62
108 61 118
163 88 167
156 87 167
169 90 167
176 92 167
151 86 167
65 35 116
67 33 66
155 87 167
160 88 167
167 90 167
180 93 167
15 19 61
159 87 167
162 88 167
168 90 167
164 89 167
162 88 167
42 34 85
139 157 181
55 59 63
143 159 181
11 8 5
146 161 181
133 154 181
89 89 90
59 113 96
45 45 45
68 66 63
46 46 45
149 162 181
136 155 181
45 45 45
144 159 181
5 25 12
136 155 181
134 154 181
83 86 90
49 28 100
148 162 181
20 32 31
139 157 181
77 83 90
137 156 181
66 65 63
25 14 32
0 0 0
79 84 90
139 157 181
137 156 181
150 163 181
106 51 83
141 158 181
77 45 102
130 152 181
130 152 181
13 36 33
74 86 125
133 154 181
51 64 123
131 153 181
84 45 83
153 165 181
148 162 181
81 85 90
64 99 130
39 65 92
60 95 130
56 92 130
141 158 181
132 153 181
142 158 181
29 115 104
144 159 181
139 157 181
128 151 181
138 156 181
146 160 181
136 155 181
134 154 181
135 155 181
128 151 181
135 155 181
16 10 4
133 154 181
129 152 181
138 156 181
138 156 181
129 152 181
144 160 181
129 152 181
145 160 181
148 162 181
136 155 181
139 157 181
142 158 181
74 71 69
204 186 229
0 0 0
163 137 129
190 179 229
128 124 162
191 180 229
205 186 229
175 173 229
210 188 229
176 173 229
189 179 229
189 179 229
177 174 229
187 178 229
192 180 229
70 138 144
211 189 229
197 183 229
0 0 0
189 179 229
33 6 69
191 180 229
197 183 229
172 140 129
196 182 229
192 180 229
37 54 57
199 183 229
139 157 181
145 160 181
132 153 181
37 26 18
76 72 69
74 60 49
77 72 69
150 163 181
11 25 12
0 0 0
103 209 193
69 121 96
58 88 68
101 207 193
97 203 193
98 204 193
100 169 173
95 165 173
100 169 173
117 222 193
98 204 193
99 205 193
111 216 193
110 216 193
108 213 193
98 204 193
69 144 136
65 114 77
48 84 76
99 205 193
0 0 0
34 111 139
111 216 193
109 215 193
83 159 136
110 215 193
99 205 193
143 159 181
147 161 181
142 159 181
131 153 181
119 123 127
81 103 122
119 123 127
122 125 127
90 90 90
135 155 181
143 159 181
78 152 136
93 80 69
132 153 181
128 151 181
132 153 181
124 125 127
106 51 83
151 164 181
129 152 181
137 156 181
144 160 181
133 154 181
125 126 127
132 153 181
129 152 181
132 153 181
130 128 127
150 163 181
106 60 118
156 87 167
165 89 167
107 61 118
165 89 167
81 36 74
163 89 167
18 29 33
110 61 118
161 88 167
165 89 167
156 87 167
165 89 167
164 89 167
152 86 167
173 91 167
163 89 167
156 87 167
165 89 167
119 63 118
181 93 167
177 92 167
152 86 167
180 93 167
165 89 167
152 86 167
13 0 0
168 90 167
150 163 181
120 123 127
139 157 181
118 122 127
143 159 181
134 154 181
129 128 127
34 61 48
81 85 90
15 18 2
130 152 181
149 162 181
140 157 181
144 159 181
149 162 181
23 16 15
134 155 181
130 152 181
74 69 63
151 164 181
136 155 181
131 153 181
143 159 181
133 154 181
46 46 45
21 63 67
126 127 127
145 160 181
135 155 181
86 88 90
49 47 45
130 152 181
127 127 127
151 164 181
86 88 90
40 13 52
131 153 181
126 126 127
126 126 127
43 37 31
129 152 181
132 153 181
130 152 181
89 89 90
23 23 22
38 64 92
53 90 130
54 90 130
53 90 130
66 118 184
129 152 181
135 155 181
132 153 181
13 11 126
145 160 181
137 156 181
138 156 181
131 153 181
19 17 179
137 156 181
130 152 181
147 161 181
133 154 181
133 154 181
130 152 181
129 152 181
151 163 181
137 156 181
153 164 181
144 159 181
79 57 177
56 109 96
139 157 181
138 156 181
137 156 181
145 160 181
130 152 181
137 156 181
136 156 181
187 178 229
81 176 203
84 179 203
189 98 196
183 176 229
131 125 162
192 180 229
159 135 129
71 80 112
160 135 129
177 174 229
203 185 229
179 175 229
180 175 229
178 174 229
162 136 129
189 179 229
174 141 129
189 179 229
184 177 229
184 177 229
177 174 229
122 99 91
196 182 229
206 187 229
204 186 229
131 104 128
137 156 181
139 157 181
124 126 127
75 72 69
145 160 181
74 71 69
134 154 181
140 157 181
107 213 193
96 166 173
109 215 193
106 211 193
105 210 193
100 206 193
105 211 193
103 209 193
69 118 77
99 205 193
98 204 193
117 223 193
117 222 193
109 214 193
112 217 193
86 157 153
113 218 193
78 152 136
55 106 108
106 211 193
39 75 76
103 209 193
111 216 193
74 151 106
71 146 136
108 213 193
101 207 193
106 211 193
81 155 136
36 113 139
129 152 181
139 157 181
139 157 181
125 126 127
77 83 90
150 163 181
130 152 181
129 152 181
128 151 181
131 153 181
75 69 63
128 151 181
49 47 45
132 153 181
119 123 127
136 155 181
128 151 181
133 154 181
116 121 127
139 157 181
147 161 181
131 153 181
146 161 181
131 153 181
133 154 181
151 163 181
149 162 181
138 156 181
175 92 167
85 83 126
151 85 167
152 86 167
176 92 167
83 30 67
116 63 118
155 87 167
109 61 118
152 86 167
114 62 118
168 90 167
166 89 167
158 87 167
171 91 167
166 89 167
167 90 167
107 61 118
111 61 118
180 93 167
124 65 118
108 61 118
161 88 167
39 34 85
162 88 167
14 18 61
171 91 167
166 89 167
159 88 167
144 160 181
78 84 90
143 159 181
140 157 181
0 0 0
144 160 181
148 162 181
0 0 0
126 126 127
44 45 35
149 162 181
142 159 181
80 85 90
8 1 2
112 119 127
129 152 181
27 45 65
127 127 127
133 154 181
139 157 181
46 46 45
80 85 90
145 160 181
135 155 181
149 162 181
134 154 181
79 84 90
144 160 181
134 154 181
77 83 90
142 158 181
0 0 0
133 154 181
131 153 181
151 164 181
86 88 90
130 152 181
135 155 181
14 4 4
134 154 181
126 127 127
37 53 65
148 162 181
59 94 130
69 121 184
69 121 184
67 119 184
67 119 184
65 118 184
131 153 181
132 153 181
132 153 181
136 155 181
20 17 179
65 24 3
129 152 181
129 152 181
148 162 181
149 162 181
130 152 181
131 153 181
141 158 181
135 155 181
137 156 181
130 152 181
130 152 181
132 153 181
133 154 181
139 157 181
132 153 181
129 152 181
150 163 181
152 164 181
130 152 181
132 153 181
144 160 181
120 108 98
140 157 181
132 126 162
126 123 162
179 143 129
194 181 229
179 175 229
192 180 229
181 175 144
136 128 162
177 173 144
68 42 45
175 172 144
108 96 72
139 130 101
180 175 229
176 173 229
202 185 229
127 124 162
12 4 2
125 123 162
184 177 229
188 178 229
193 181 229
208 187 229
199 183 229
208 188 229
189 179 229
175 173 229
185 177 229
51 17 120
139 157 181
128 151 181
131 152 181
130 152 181
134 154 181
128 151 181
114 219 193
107 174 173
104 210 193
108 214 193
0 0 0
98 204 193
44 65 48
108 213 193
62 112 108
105 210 193
106 211 193
117 222 193
115 220 193
113 218 193
106 212 193
112 217 193
109 214 193
68 62 89
99 168 108
107 212 193
72 147 136
109 215 193
86 83 126
104 210 193
104 210 193
113 218 193
113 218 193
64 86 176
80 154 136
136 156 181
132 153 181
134 154 181
116 121 127
135 155 181
45 69 92
129 152 181
128 151 181
2 2 2
121 124 127
140 158 181
147 161 181
55 63 23
137 156 181
129 128 127
52 69 45
71 146 136
130 152 181
45 45 45
152 164 181
80 85 90
124 125 127
79 84 90
64 96 86
78 84 90
134 154 181
77 83 90
115 121 127
79 84 90
58 58 89
177 92 167
171 91 167
173 91 167
99 48 66
170 90 167
178 93 167
152 86 167
177 92 167
177 92 167
179 93 167
107 60 118
89 47 83
106 51 83
175 92 167
118 63 118
162 88 167
112 62 118
162 88 167
118 63 118
171 91 167
41 1 11
177 92 167
162 88 167
38 33 85
172 91 167
173 91 167
29 24 60
87 103 86
147 161 181
135 155 181
130 152 181
125 126 127
130 152 181
131 153 181
146 161 181
90 89 90
131 153 181
131 153 181
139 157 181
17 42 36
0 0 0
67 77 90
21 5 56
125 126 127
148 162 181
16 25 32
132 153 181
150 163 181
133 154 181
134 154 181
132 153 181
46 36 28
65 55 12
26 35 41
144 160 181
118 122 127
130 152 181
154 165 181
136 156 181
146 161 181
121 124 127
142 159 181
136 155 181
149 162 181
109 118 127
130 152 181
128 151 181
139 157 181
131 153 181
34 90 41
63 98 130
69 121 184
56 93 130
68 120 184
67 119 184
65 118 184
64 117 184
14 12 126
145 160 181
32 43 54
146 161 181
133 154 181
136 155 181
149 162 181
130 152 181
131 153 181
129 152 181
0 0 3
132 153 181
46 115 113
136 156 181
132 153 181
28 14 123
129 152 181
132 153 181
132 153 181
139 157 181
134 154 181
136 155 181
0 0 0
128 151 181
131 153 181
140 158 181
130 152 181
139 157 181
168 136 100
188 178 229
202 185 229
188 178 229
168 169 144
213 190 229
177 173 144
192 180 144
172 170 144
173 171 144
128 68 139
165 167 144
164 137 129
197 182 144
186 177 144
180 175 229
207 187 229
191 180 229
198 183 229
187 178 229
191 180 229
186 178 229
187 178 229
198 183 229
181 175 229
197 183 229
202 185 229
191 180 229
151 163 181
75 43 83
128 151 181
146 132 162
129 128 127
131 153 181
130 152 181
21 50 8
100 206 193
102 208 193
107 212 193
110 216 193
27 37 30
70 145 136
0 0 0
106 211 193
102 208 193
46 82 76
0 0 0
10 14 60
105 210 193
51 74 3
69 144 136
111 216 193
106 211 193
104 209 193
116 221 193
113 218 193
70 145 136
38 63 54
76 151 136
107 213 193
116 221 193
110 216 193
73 147 136
69 144 136
102 207 193
117 122 127
76 83 90
153 165 181
131 153 181
135 155 181
20 6 1
138 156 181
128 127 127
56 92 68
128 151 181
132 153 181
138 157 181
128 151 181
130 152 181
129 152 181
152 164 181
138 157 181
53 48 57
126 126 127
141 158 181
139 157 181
149 163 181
80 85 90
133 154 181
142 158 181
132 153 181
24 88 73
148 162 181
98 25 77
57 8 56
169 90 167
168 90 167
166 89 167
79 36 74
112 62 118
161 88 167
56 18 59
169 90 167
179 93 167
111 61 118
161 88 167
110 62 91
109 61 118
161 88 167
108 61 118
174 91 167
170 90 167
123 65 118
178 92 167
180 93 167
166 89 167
107 61 118
31 47 88
63 24 107
118 63 118
171 91 167
161 88 167
140 157 181
33 31 42
137 156 181
129 152 181
53 49 45
146 161 181
81 85 90
0 0 0
135 155 181
132 153 181
149 162 181
134 154 181
51 48 45
117 122 127
148 162 181
78 84 90
130 152 181
130 152 181
130 152 181
139 157 181
78 84 90
76 83 90
130 152 181
121 124 127
119 123 127
82 46 10
134 154 181
148 162 181
136 155 181
152 164 181
140 158 181
35 115 135
145 160 181
107 117 127
135 155 181
51 48 45
132 153 181
144 160 181
79 84 90
146 161 181
32 47 51
37 53 65
73 124 184
72 123 184
70 122 184
70 122 184
67 120 184
65 118 184
65 117 184
64 117 184
143 159 181
149 162 181
145 160 181
132 153 181
137 156 181
48 35 26
149 162 181
133 154 181
131 153 181
135 155 181
130 152 181
133 154 181
141 158 181
148 162 181
146 160 181
131 153 181
133 154 181
130 152 181
138 156 181
130 152 181
70 94 74
140 157 181
79 126 122
137 156 181
145 160 181
130 152 181
134 154 181
194 181 229
129 124 162
47 2 31
136 127 101
168 118 117
176 172 144
192 180 144
195 181 144
176 173 144
0 0 0
178 173 144
168 169 144
166 168 144
168 169 144
172 170 144
174 171 144
200 184 144
172 171 144
167 169 144
169 169 144
0 0 0
207 187 229
130 125 162
205 186 229
195 181 229
197 182 229
208 187 229
73 65 91
197 182 229
130 125 162
129 152 181
139 157 181
127 127 127
86 88 90
133 154 181
135 155 181
101 207 193
112 217 193
69 44 70
101 207 193
74 149 136
72 120 77
99 205 193
109 214 193
106 212 193
17 22 49
104 209 193
22 62 55
105 210 193
106 212 193
101 207 193
109 214 193
71 146 136
81 152 153
25 34 24
108 213 193
70 145 136
105 211 193
97 204 193
69 144 136
79 154 136
73 148 136
104 210 193
72 147 136
109 214 193
101 207 193
98 204 193
129 152 181
85 76 69
139 157 181
125 126 127
130 152 181
140 157 181
79 73 69
139 157 181
133 154 181
150 163 181
61 55 49
149 162 181
131 153 181
128 151 181
131 153 181
147 161 181
150 163 181
118 122 127
137 156 181
148 162 181
131 153 181
65 56 49
80 155 136
139 157 181
143 159 181
79 84 90
147 161 181
159 72 94
107 60 118
41 41 63
121 64 118
20 20 11
114 51 66
159 88 167
111 61 118
110 41 59
181 93 167
0 0 0
94 35 152
120 64 118
174 91 167
172 91 167
174 91 167
29 3 50
156 87 167
29 24 60
157 87 167
111 62 118
112 62 118
125 65 118
167 90 167
169 90 167
171 91 167
145 68 65
165 89 167
172 91 167
148 162 181
138 156 181
131 153 181
135 155 181
131 153 181
123 125 127
111 119 127
130 152 181
142 158 181
140 158 181
132 153 181
129 152 181
128 151 181
129 152 181
142 159 181
109 118 127
94 48 83
46 46 45
141 158 181
135 155 181
127 127 127
138 156 181
132 153 181
137 156 181
115 121 127
147 161 181
78 84 90
52 38 28
156 166 181
147 161 181
151 164 181
142 159 181
136 155 181
126 126 127
123 125 127
132 153 181
126 126 127
150 163 181
77 83 90
68 34 59
126 126 127
24 36 46
3 4 64
59 95 130
69 121 184
68 120 184
68 120 184
67 119 184
64 117 184
64 117 184
147 161 181
147 161 181
1 0 88
149 162 181
91 88 114
146 161 181
130 152 181
148 162 181
146 161 181
148 162 181
134 155 181
8 3 1
142 158 181
132 129 127
132 153 181
128 151 181
140 158 181
128 151 181
147 161 181
140 158 181
0 0 0
132 153 181
143 159 181
143 159 181
130 152 181
132 153 181
136 155 181
183 176 229
175 173 229
187 178 144
166 168 144
171 170 144
181 175 144
182 175 144
200 184 144
172 171 144
179 174 144
181 175 144
198 183 144
111 72 131
198 183 144
198 183 144
169 170 144
172 171 144
186 177 144
178 173 144
182 175 144
128 123 101
198 183 229
185 177 229
199 184 229
204 186 229
113 98 114
181 175 229
205 186 229
209 188 229
100 169 173
149 135 162
126 126 127
138 156 181
131 153 181
133 154 181
75 72 69
72 120 122
110 215 193
55 162 131
97 167 173
110 215 193
80 155 136
29 32 5
14 17 10
103 172 173
112 217 193
115 220 193
113 218 193
68 143 136
62 112 108
115 220 193
70 145 136
79 154 136
107 213 193
116 221 193
110 215 193
106 211 193
103 208 193
72 147 136
110 216 193
48 83 86
78 152 136
66 61 89
75 150 136
109 214 193
109 214 193
128 151 181
0 0 0
125 126 127
117 122 127
146 161 181
147 161 181
132 153 181
3 26 25
138 156 181
146 161 181
133 154 181
130 152 181
131 153 181
110 118 127
136 155 181
146 161 181
71 145 136
45 45 45
29 19 17
78 84 90
140 157 181
149 162 181
76 83 90
36 116 135
84 76 69
136 155 181
146 160 181
131 153 181
86 83 126
133 154 181
173 91 167
3 8 23
111 61 118
178 92 167
111 62 118
111 61 118
118 63 118
168 90 167
178 93 167
156 87 167
109 61 118
181 93 167
175 92 167
152 86 167
163 89 167
22 18 42
117 63 118
106 61 91
174 92 167
66 61 89
153 86 167
150 85 167
168 90 167
180 93 167
142 84 130
0 0 0
161 88 167
134 154 181
79 84 90
148 162 181
11 16 53
134 154 181
137 156 181
147 161 181
20 43 12
1 1 1
130 152 181
156 166 181
139 157 181
141 133 35
24 27 20
146 161 181
143 159 181
133 154 181
66 65 63
139 157 181
144 159 181
137 156 181
141 158 181
146 161 181
130 128 127
149 162 181
112 121 99
128 151 181
122 124 127
133 154 181
132 153 181
127 127 127
132 153 181
47 46 45
134 154 181
49 47 45
134 154 181
134 154 181
131 153 181
134 154 181
84 87 90
1 1 1
39 65 92
72 124 184
72 123 184
71 122 184
68 120 184
67 120 184
66 119 184
66 118 184
65 117 184
139 157 181
32 30 24
1 0 34
143 159 181
137 156 181
131 153 181
130 152 181
12 11 126
129 152 181
131 153 181
134 154 181
12 11 126
149 162 181
131 153 181
139 157 181
128 151 181
18 16 179
83 86 90
152 164 181
130 152 181
136 155 181
129 152 181
133 154 181
133 154 181
144 159 181
129 152 181
129 152 181
166 168 144
210 188 229
199 183 144
190 179 144
168 169 144
190 179 144
191 179 144
171 170 144
174 171 144
165 168 144
170 170 144
181 175 144
171 170 144
173 171 144
187 178 144
186 177 144
166 168 144
197 182 144
193 180 144
184 176 144
192 180 144
191 179 144
192 180 229
207 187 229
130 125 162
209 188 229
102 170 173
136 127 162
181 175 229
197 183 229
200 184 229
130 152 181
139 157 181
128 151 181
142 159 181
138 156 181
110 118 127
69 144 136
0 0 0
108 175 173
95 165 173
63 86 176
151 161 203
72 147 136
69 118 122
111 216 193
110 215 193
77 151 136
28 35 30
117 222 193
109 215 193
109 214 193
71 146 136
115 220 193
106 211 193
72 120 77
107 213 193
108 214 193
100 205 193
75 150 136
95 170 37
69 144 136
44 82 53
69 144 136
73 148 136
102 208 193
0 0 0
130 152 181
127 127 127
132 153 181
131 153 181
141 158 181
147 161 181
132 153 181
146 132 162
119 123 127
12 11 126
136 156 181
71 81 70
127 127 127
0 2 2
150 163 181
121 108 98
75 150 136
136 156 181
92 47 83
131 153 181
84 87 90
149 162 181
149 163 181
140 158 181
118 122 127
49 102 96
146 161 181
142 159 181
116 63 118
169 90 167
61 11 17
134 66 132
111 61 118
179 93 167
107 61 118
76 42 64
154 86 167
139 67 94
122 64 118
109 61 118
109 61 118
63 17 54
54 26 32
172 91 167
164 89 167
117 63 118
125 65 118
169 90 167
175 92 167
180 93 167
113 62 118
20 14 41
115 62 118
153 87 130
112 62 118
152 164 181
120 123 127
140 158 181
52 48 45
133 154 181
139 157 181
140 157 181
145 160 181
134 154 181
130 129 127
132 153 181
59 29 16
129 152 181
139 157 181
129 128 127
154 165 181
147 161 181
129 152 181
29 62 8
144 160 181
121 124 127
131 153 181
150 163 181
142 159 181
0 0 0
130 152 181
140 158 181
68 66 63
130 152 181
140 158 181
43 10 27
14 26 7
134 154 181
129 128 127
135 155 181
151 164 181
111 119 127
126 126 127
130 152 181
130 152 181
8 21 34
14 52 33
73 124 184
71 122 184
71 123 184
71 122 184
69 121 184
67 120 184
67 119 184
66 119 184
66 118 184
12 11 126
129 124 162
143 159 181
132 153 181
137 156 181
141 158 181
0 0 0
144 160 181
12 11 126
137 156 181
139 157 181
135 155 181
140 157 181
121 124 127
129 152 181
146 161 181
130 152 181
137 156 181
131 153 181
132 153 181
137 156 181
141 158 181
54 80 52
134 154 181
153 165 181
137 156 181
129 151 181
193 181 229
74 168 128
168 169 144
98 159 46
171 170 144
172 170 144
165 167 144
178 173 144
167 169 144
187 178 144
195 182 144
0 0 0
186 177 144
168 169 144
181 175 144
166 168 144
152 132 114
179 174 144
193 180 144
188 178 144
193 180 144
171 170 144
206 187 229
71 64 91
202 185 229
124 122 162
206 187 229
130 125 162
184 177 229
211 189 229
110 177 173
129 152 181
129 152 181
151 164 181
71 67 63
135 155 181
96 140 122
114 219 193
60 110 108
110 215 193
153 162 203
103 209 193
55 106 108
55 68 124
111 216 193
106 211 193
75 150 136
102 208 193
18 38 32
70 145 136
105 210 193
80 154 136
73 148 136
90 160 153
103 208 193
69 144 136
71 146 136
77 122 86
113 218 193
68 143 136
63 60 89
110 215 193
73 148 136
71 146 136
105 210 193
69 144 136
134 154 181
145 160 181
138 156 181
145 160 181
130 152 181
131 152 181
128 151 181
133 154 181
140 157 181
142 159 181
133 154 181
132 153 181
129 152 181
120 123 127
130 152 181
130 152 181
129 152 181
131 153 181
134 154 181
132 153 181
130 152 181
136 156 181
51 88 74
138 156 181
0 0 0
146 161 181
24 36 24
77 83 90
125 126 127
133 154 181
175 92 167
47 43 63
173 91 167
109 61 118
155 87 167
175 92 167
114 62 118
108 61 118
179 93 167
180 93 167
151 86 167
167 90 167
172 91 167
116 63 118
117 63 118
176 92 167
168 90 167
122 64 118
117 63 118
175 92 167
165 89 167
5 12 31
6 14 43
182 94 167
110 61 118
173 91 167
118 63 118
129 152 181
135 155 181
137 156 181
136 155 181
130 152 181
133 154 181
147 162 181
128 151 181
48 41 19
33 94 95
135 155 181
135 155 181
148 162 181
146 160 181
0 0 0
119 123 127
127 127 127
150 163 181
130 152 181
131 153 181
130 152 181
147 161 181
134 154 181
132 153 181
122 124 127
127 66 118
130 152 181
121 124 127
135 155 181
141 158 181
131 153 181
77 83 90
72 68 63
88 112 47
139 157 181
145 160 181
150 163 181
127 127 127
50 86 130
133 154 181
0 0 0
73 125 184
72 123 184
70 122 184
70 122 184
69 121 184
70 122 184
67 120 184
67 119 184
65 118 184
129 152 181
135 155 181
11 7 107
0 0 110
12 11 126
134 154 181
139 157 181
129 152 181
132 153 181
18 6 7
1 0 88
133 154 181
145 160 181
133 154 181
132 153 181
134 154 181
149 162 181
143 159 181
107 117 127
130 152 181
145 157 123
80 104 150
140 157 181
109 103 98
109 118 127
129 152 181
171 170 144
193 181 144
183 176 144
10 0 0
175 172 144
187 177 144
199 183 144
175 172 144
194 181 144
166 168 144
167 168 144
174 172 144
169 169 144
191 179 144
187 177 144
71 165 128
168 169 144
175 172 144
179 174 144
174 171 144
172 171 144
148 130 114
182 175 144
166 168 144
7 17 26
198 183 229
162 92 165
127 124 162
177 174 229
186 178 229
97 166 173
142 158 181
153 164 181
130 152 181
134 154 181
131 153 181
142 158 181
159 165 203
168 169 203
113 218 193
160 165 203
145 158 203
148 159 203
145 158 203
148 159 203
108 213 193
147 159 203
154 162 203
150 160 203
69 144 136
149 159 203
72 147 136
79 126 122
112 217 193
76 151 136
110 216 193
106 211 193
69 144 136
43 146 103
84 45 131
70 145 136
58 112 96
103 208 193
27 80 57
114 219 193
30 54 67
72 146 136
2 7 51
131 153 181
43 41 63
155 166 181
140 158 181
133 154 181
131 153 181
77 83 90
149 162 181
128 127 127
136 156 181
133 154 181
145 160 181
151 163 181
134 154 181
128 151 181
131 153 181
144 160 181
153 164 181
132 153 181
132 154 181
124 125 127
131 153 181
32 34 63
138 156 181
114 120 127
132 153 181
66 57 49
143 159 181
171 91 167
50 103 96
108 61 118
117 63 118
117 63 118
182 94 167
178 93 167
41 41 63
177 92 167
167 90 167
31 24 44
91 41 26
180 93 167
114 62 118
179 93 167
178 92 167
175 92 167
115 62 118
65 17 54
108 61 118
111 61 118
12 4 5
123 65 118
113 62 118
115 62 118
112 62 118
34 7 19
15 34 28
136 155 181
129 152 181
124 126 127
122 124 127
59 112 96
5 1 0
140 158 181
148 162 181
51 104 96
135 155 181
153 165 181
151 163 181
132 153 181
131 153 181
140 157 181
45 63 6
135 155 181
108 117 127
131 153 181
152 164 181
38 119 135
141 158 181
132 153 181
118 122 127
135 155 181
128 151 181
148 162 181
138 156 181
135 155 181
121 124 127
128 151 181
78 43 83
117 122 127
129 152 181
128 151 181
131 153 181
129 151 181
130 152 181
146 161 181
47 84 130
40 71 99
62 50 120
72 124 184
71 122 184
71 123 184
72 123 184
71 122 184
70 122 184
68 120 184
69 121 184
2 1 99
147 161 181
102 93 114
133 154 181
149 162 181
152 164 181
134 154 181
135 157 148
131 153 181
140 158 181
130 152 181
135 155 181
139 157 181
58 42 150
139 157 181
133 154 181
133 154 181
130 152 181
151 163 181
134 154 181
134 154 181
145 160 181
136 156 181
132 153 181
190 179 144
90 72 85
186 177 144
133 126 101
46 34 9
168 169 144
185 177 144
171 170 144
186 177 144
165 167 144
171 170 144
96 109 124
182 175 144
165 168 144
174 171 144
135 125 114
202 185 144
189 178 144
184 176 144
187 178 144
177 173 144
197 182 144
119 120 101
164 167 144
186 177 144
179 174 144
198 183 229
177 173 144
178 174 229
128 124 162
185 177 229
187 178 229
128 124 162
140 129 162
129 152 181
134 154 181
133 154 181
139 157 181
145 158 203
134 154 181
158 164 203
149 160 203
154 162 203
144 157 203
164 167 203
144 158 203
151 160 203
156 163 203
164 167 203
154 162 203
176 173 203
149 160 203
101 206 193
152 161 203
76 124 122
74 148 136
71 145 136
71 145 136
81 152 153
113 218 193
103 208 193
105 211 193
108 213 193
108 213 193
113 218 193
114 219 193
70 145 136
58 58 89
108 213 193
112 120 127
141 158 181
51 104 96
139 157 181
137 156 181
150 163 181
129 152 181
135 155 181
131 153 181
139 157 181
12 18 12
134 154 181
126 126 127
136 155 181
53 49 45
147 161 181
121 128 174
128 151 181
109 61 118
144 159 181
129 152 181
0 0 0
148 162 181
133 154 181
129 151 181
39 64 92
127 66 118
150 163 181
133 154 181
51 48 45
130 152 181
48 23 58
66 17 54
71 26 107
42 41 63
166 89 167
63 17 54
24 41 47
165 89 167
108 61 118
183 94 167
168 90 167
126 65 118
177 92 167
164 89 167
163 89 167
45 43 63
166 89 167
166 89 167
107 60 118
114 52 23
13 18 61
75 43 65
106 60 118
107 61 118
107 60 118
110 61 118
128 151 181
40 78 68
148 162 181
58 83 101
147 161 181
129 152 181
132 153 181
2 22 9
134 154 181
134 154 181
115 121 127
129 152 181
151 163 181
114 120 127
149 162 181
134 154 181
149 162 181
129 152 181
32 70 47
133 154 181
134 154 181
135 155 181
77 83 90
133 154 181
150 163 181
129 152 181
140 157 181
140 157 181
147 161 181
8 5 31
147 161 181
87 78 69
134 154 181
129 152 181
30 27 52
15 29 5
132 153 181
25 91 122
38 66 64
21 41 62
45 36 85
74 125 184
74 125 184
74 125 184
71 123 184
73 124 184
70 122 184
71 122 184
69 121 184
69 121 184
147 161 181
131 153 181
109 118 127
142 159 181
137 156 181
133 154 181
138 156 181
153 164 181
130 152 181
140 157 181
149 162 181
12 11 126
130 152 181
0 0 0
140 157 181
97 108 86
132 153 181
140 157 181
10 8 89
146 160 181
131 153 181
131 153 181
145 160 181
187 178 144
167 168 144
171 170 144
188 178 144
168 169 144
188 178 144
39 105 110
174 171 144
188 178 144
192 180 144
175 172 144
185 176 144
35 81 64
175 172 144
196 182 144
176 172 144
164 167 144
59 26 6
171 170 144
181 175 144
184 176 144
83 45 10
179 174 144
183 176 144
177 173 144
0 0 0
133 126 101
133 105 80
165 167 144
137 128 162
198 183 229
125 123 162
123 100 145
197 182 229
133 154 181
146 161 181
159 164 203
151 161 203
164 167 203
150 160 203
161 165 203
171 171 203
150 160 203
152 161 203
176 173 203
155 162 203
150 160 203
146 158 203
147 159 203
4 1 0
166 168 203
147 159 203
32 29 84
148 159 203
166 168 203
108 213 193
174 172 203
17 65 40
71 146 136
14 24 17
93 163 153
70 145 136
72 147 136
77 152 136
72 146 136
56 107 108
71 146 136
116 221 193
65 117 96
69 144 136
128 151 181
129 152 181
144 160 181
143 159 181
151 163 181
138 156 181
132 153 181
139 157 181
129 152 181
143 159 181
52 104 96
90 71 108
132 153 181
152 164 181
128 127 127
130 152 181
131 153 181
0 0 0
133 154 181
129 152 181
129 152 181
129 128 127
78 87 123
146 161 181
128 151 181
133 154 181
135 155 181
129 151 181
143 159 181
18 15 17
178 92 167
179 93 167
70 18 54
67 17 54
169 90 167
118 63 118
112 62 118
112 62 118
182 94 167
48 44 63
181 93 167
107 60 118
119 63 118
88 45 93
164 89 167
27 8 11
175 92 167
110 61 118
48 18 76
115 63 118
170 90 167
110 61 118
22 9 39
33 13 55
113 62 118
109 61 118
66 11 14
133 154 181
111 104 98
146 161 181
46 61 8
147 161 181
131 153 181
135 155 181
141 158 181
137 156 181
134 154 181
143 159 181
130 152 181
148 162 181
133 154 181
146 161 181
130 152 181
132 153 181
136 155 181
133 154 181
130 152 181
53 89 130
107 117 127
111 119 127
145 160 181
79 84 90
136 155 181
129 152 181
142 159 181
147 161 181
133 154 181
130 152 181
146 161 181
142 159 181
125 126 127
134 154 181
133 154 181
125 126 127
151 163 181
49 85 130
49 86 130
42 35 85
74 125 184
75 126 184
74 125 184
74 125 184
72 124 184
72 124 184
70 122 184
71 122 184
71 123 184
142 158 181
132 153 181
12 11 126
142 158 181
113 120 127
131 153 181
6 2 31
129 152 181
114 120 127
138 156 181
143 159 181
15 7 10
129 152 181
144 159 181
144 159 181
134 154 181
142 158 181
128 151 181
139 157 181
93 108 127
129 152 181
147 161 181
108 118 127
151 163 181
174 172 144
188 178 144
167 168 144
175 172 144
182 175 144
0 0 0
155 108 107
179 174 144
169 169 144
166 168 144
74 44 81
177 173 144
130 125 101
176 172 144
173 171 144
174 172 144
168 169 144
180 174 144
164 167 144
193 181 144
165 167 144
181 175 144
34 30 35
198 183 144
182 175 144
117 119 101
192 180 144
161 136 114
200 184 229
139 129 162
129 124 162
201 184 229
85 83 77
142 158 181
147 159 203
156 163 203
127 127 127
152 161 203
150 160 203
149 160 203
147 159 203
154 162 203
148 159 203
155 163 203
165 168 203
155 162 203
145 158 203
162 166 203
153 162 203
167 168 203
159 165 203
148 159 203
148 159 203
165 168 203
151 161 203
147 159 203
150 160 203
69 144 136
70 145 136
76 124 122
76 151 136
107 212 193
62 92 97
111 216 193
40 76 76
105 211 193
117 222 193
153 165 181
51 104 96
151 164 181
141 158 181
130 152 181
141 158 181
129 152 181
122 64 118
81 85 90
76 70 63
130 152 181
74 149 136
132 153 181
28 20 62
134 154 181
142 158 181
135 155 181
130 152 181
142 159 181
123 125 127
138 157 181
29 26 22
123 125 127
68 66 63
138 156 181
89 89 90
51 25 63
150 163 181
130 152 181
146 161 181
131 153 181
146 161 181
73 71 69
125 65 118
112 62 118
122 64 118
111 61 118
108 61 118
108 61 118
175 92 167
174 91 167
107 60 118
72 18 54
111 61 118
0 0 0
108 61 118
110 61 118
170 90 167
109 61 118
164 89 167
121 64 118
49 20 14
157 87 167
112 62 118
124 65 118
122 64 118
24 10 14
166 89 167
130 152 181
81 85 90
130 152 181
24 17 12
122 64 118
0 0 0
121 124 127
131 153 181
143 159 181
129 152 181
112 119 127
122 124 127
142 158 181
136 155 181
144 160 181
65 22 86
133 154 181
132 153 181
144 159 181
12 33 66
120 123 127
57 63 126
136 155 181
131 153 181
153 165 181
151 164 181
131 153 181
117 63 118
75 42 83
135 155 181
137 156 181
140 158 181
109 118 127
79 43 83
134 154 181
132 153 181
151 163 181
152 164 181
68 66 63
31 51 40
30 25 60
13 17 61
32 47 91
24 79 98
64 94 80
73 124 184
75 126 184
73 125 184
72 124 184
72 123 184
71 123 184
137 156 181
138 156 181
12 11 126
12 11 126
131 153 181
129 152 181
132 153 181
139 157 181
134 154 181
129 152 181
60 40 19
131 153 181
143 159 181
101 92 34
91 75 43
1 1 125
51 81 94
133 154 181
147 161 181
133 154 181
139 157 181
144 160 181
150 163 181
164 167 144
190 179 144
175 172 144
172 170 144
176 172 144
193 180 144
135 127 101
195 181 144
178 173 144
175 172 144
182 175 144
194 181 144
201 184 144
180 174 144
178 173 144
182 175 144
118 65 87
192 180 144
191 179 144
48 23 11
190 179 144
181 175 144
139 126 114
187 178 144
37 3 0
198 183 144
131 123 114
177 173 144
165 167 144
130 125 162
187 177 144
41 16 31
188 179 229
80 154 136
167 169 203
145 160 181
164 167 203
34 80 90
146 158 203
150 160 203
37 40 69
158 164 203
158 164 203
175 172 203
160 165 203
167 168 203
146 158 203
172 171 203
159 165 203
166 168 203
146 158 203
172 171 203
145 158 203
155 162 203
156 163 203
157 164 203
175 172 203
71 146 136
111 216 193
71 145 136
79 154 136
69 122 96
109 215 193
61 111 108
51 86 76
79 153 136
116 221 193
77 151 136
51 103 96
139 157 181
118 122 127
132 153 181
139 157 181
16 53 28
77 83 90
129 152 181
76 43 83
50 45 40
60 114 96
148 162 181
27 23 31
75 43 83
132 153 181
135 155 181
131 153 181
110 118 127
133 154 181
120 120 143
112 119 127
129 152 181
114 121 127
131 153 181
146 161 181
130 152 181
130 152 181
149 162 181
146 161 181
142 158 181
143 159 181
135 155 181
38 6 1
129 152 181
0 0 0
60 31 51
40 2 8
109 61 118
58 7 35
109 61 118
108 61 118
109 61 118
78 29 42
27 23 60
109 61 118
169 90 167
115 63 118
112 62 118
175 92 167
108 61 118
113 62 118
124 65 118
110 61 118
38 4 25
101 25 77
106 60 118
84 45 83
111 119 127
149 162 181
134 154 181
145 160 181
127 85 33
151 163 181
143 159 181
149 162 181
144 160 181
149 162 181
78 84 90
154 165 181
153 165 181
131 153 181
148 162 181
149 163 181
129 128 127
131 153 181
142 158 181
134 154 181
148 162 181
142 159 181
107 117 127
144 160 181
147 161 181
134 154 181
136 155 181
108 117 127
142 159 181
143 159 181
149 162 181
13 18 8
141 158 181
130 152 181
136 155 181
130 152 181
149 162 181
131 153 181
76 83 90
45 82 130
131 153 181
41 34 85
40 34 85
25 79 98
25 79 98
63 95 165
39 62 56
76 127 184
26 113 163
75 126 184
41 80 158
74 125 184
137 156 181
130 152 181
137 156 181
138 156 181
142 159 181
13 12 126
129 152 181
131 153 181
132 153 181
131 153 181
78 84 90
132 153 181
129 152 181
140 158 181
131 153 181
133 154 181
134 154 181
133 150 123
130 152 181
128 102 26
146 161 181
7 3 7
129 124 101
177 173 144
140 129 101
183 176 144
184 176 144
171 170 144
177 173 144
33 120 83
173 171 144
193 180 144
172 171 144
176 172 144
192 180 144
186 177 144
194 181 144
198 183 144
179 174 144
199 183 144
179 174 144
151 131 114
139 126 114
182 175 144
187 178 144
180 174 144
167 169 144
15 3 0
170 170 144
137 125 114
167 168 144
178 173 144
134 126 101
178 173 144
151 134 162
90 59 57
157 164 203
84 56 51
160 165 203
152 161 203
156 163 203
104 112 143
170 170 203
172 171 203
171 171 203
107 99 80
148 159 203
150 160 203
155 162 203
149 160 203
154 162 203
147 159 203
155 162 203
87 64 184
99 68 184
172 171 203
2 0 2
145 158 203
173 172 203
163 167 203
174 172 203
154 162 203
113 218 193
70 145 136
26 97 73
76 151 136
113 218 193
29 102 73
81 44 131
80 154 136
131 153 181
135 155 181
130 152 181
41 79 68
137 156 181
110 61 118
133 154 181
128 151 181
123 64 118
79 84 90
148 162 181
48 37 125
131 153 181
129 152 181
87 88 90
150 163 181
132 153 181
49 47 45
133 154 181
54 71 115
149 162 181
149 162 181
133 154 181
136 155 181
151 164 181
149 162 181
130 152 181
131 153 181
109 118 127
136 155 181
151 164 181
130 152 181
137 156 181
143 159 181
150 163 181
45 23 41
130 152 181
123 65 118
59 58 89
68 17 54
118 63 118
110 61 118
142 68 132
40 5 25
2 12 9
106 26 77
110 61 118
114 62 118
166 89 167
58 13 43
107 60 118
108 61 118
174 92 167
118 63 118
174 92 167
120 64 118
5 0 24
138 156 181
75 23 28
134 154 181
135 155 181
130 152 181
128 151 181
133 154 181
125 65 118
93 94 71
149 162 181
137 156 181
142 159 181
29 57 88
78 84 90
77 43 83
131 153 181
80 44 83
156 166 181
148 162 181
131 152 181
132 153 181
144 160 181
154 165 181
131 153 181
112 119 127
135 155 181
48 68 106
141 158 181
53 82 94
135 155 181
132 153 181
140 157 181
131 153 181
152 164 181
140 157 181
149 163 181
128 151 181
131 153 181
134 154 181
132 153 181
141 158 181
138 156 181
46 83 130
49 86 130
46 68 116
35 113 139
35 50 82
52 87 146
76 127 184
76 127 184
75 126 184
75 126 184
74 125 184
133 154 181
136 155 181
150 163 181
130 152 181
151 164 181
131 153 181
130 152 181
1 0 49
146 161 181
16 13 126
135 155 181
146 161 181
134 154 181
131 153 181
130 152 181
132 153 181
130 152 181
129 151 181
137 156 181
134 154 181
134 154 181
133 154 181
131 153 181
181 175 144
194 181 144
189 179 144
165 167 144
179 174 144
169 169 144
72 165 128
134 126 101
23 70 76
193 181 144
178 173 144
6 2 1
201 184 144
188 178 144
166 168 144
181 175 144
170 170 144
191 180 144
184 176 144
10 39 38
144 129 114
140 127 114
198 183 144
176 172 144
189 178 144
146 129 114
80 67 55
134 102 64
179 174 144
168 169 144
136 127 162
128 124 162
132 153 181
148 159 203
144 157 203
146 158 203
154 162 203
149 159 203
175 172 203
110 115 143
146 158 203
157 163 203
173 172 203
149 160 203
172 171 203
154 162 203
149 160 203
164 167 203
150 160 203
151 161 203
150 160 203
146 158 203
92 66 184
146 158 203
159 165 203
144 157 203
146 158 203
155 162 203
165 168 203
144 157 203
46 79 42
163 166 203
28 100 73
67 95 69
69 144 136
69 144 136
140 158 181
14 0 8
84 87 90
132 153 181
144 160 181
143 159 181
135 155 181
120 123 127
131 153 181
129 152 181
134 155 181
135 155 181
128 151 181
58 27 41
138 156 181
122 64 118
135 155 181
145 160 181
25 44 34
46 83 68
43 81 68
131 153 181
138 157 181
146 161 181
58 11 14
75 150 136
139 157 181
22 9 11
132 123 78
140 157 181
131 153 181
56 17 52
128 128 127
104 101 98
113 120 127
83 44 83
133 154 181
91 96 125
90 46 83
110 61 118
72 42 101
116 63 118
107 60 118
109 61 118
174 91 167
181 93 167
108 61 118
116 63 118
112 62 118
68 17 54
123 65 118
177 92 167
38 4 25
111 62 118
3 1 2
109 61 118
138 156 181
131 153 181
130 152 181
135 155 181
130 152 181
76 61 164
128 66 118
121 64 118
141 158 181
152 164 181
146 160 181
133 154 181
143 159 181
134 154 181
134 154 181
129 128 127
131 153 181
131 153 181
146 161 181
136 156 181
131 153 181
130 152 181
136 155 181
131 129 127
133 154 181
139 157 181
131 153 181
144 160 181
140 157 181
114 120 127
12 17 31
26 83 95
126 127 127
133 154 181
119 123 127
80 85 90
143 159 181
130 152 181
131 153 181
136 155 181
132 153 181
141 158 181
146 161 181
42 34 85
46 83 130
22 18 42
44 82 130
45 83 130
27 33 118
37 50 58
59 92 146
55 89 146
36 75 158
71 78 122
76 127 184
129 152 181
18 16 179
130 152 181
135 155 181
19 17 179
19 17 179
145 160 181
1 1 125
134 154 181
147 161 181
132 153 181
141 158 181
135 155 181
13 12 126
140 158 181
135 155 181
130 125 162
65 62 81
122 124 127
133 154 181
128 151 181
131 153 181
164 134 62
165 167 144
135 69 87
170 170 144
192 180 144
173 171 144
191 179 144
182 175 144
0 0 0
126 122 101
185 177 144
55 122 90
187 178 144
167 168 144
183 176 144
195 181 144
174 172 144
193 180 144
72 85 34
186 177 144
180 174 144
100 72 51
149 131 114
134 124 114
183 176 144
147 130 114
188 178 144
166 168 144
179 174 144
146 129 114
144 128 114
195 181 144
0 0 0
85 37 42
164 167 203
152 161 203
157 164 203
150 160 203
0 0 0
159 165 203
157 164 203
150 160 203
146 158 203
151 161 203
105 113 143
159 164 203
62 37 117
166 168 203
160 165 203
109 67 132
152 161 203
145 158 203
163 167 203
149 159 203
153 162 203
0 0 0
145 158 203
151 161 203
145 158 203
157 163 203
153 162 203
166 168 203
70 145 136
5 6 37
16 99 55
75 149 136
76 150 136
138 157 181
40 19 8
130 152 181
143 159 181
118 63 118
137 156 181
136 155 181
138 156 181
48 38 125
148 162 181
131 153 181
131 153 181
131 153 181
152 164 181
131 153 181
79 84 90
138 156 181
76 43 83
138 157 181
152 164 181
153 165 181
134 154 181
131 153 181
143 159 181
136 155 181
130 152 181
94 48 83
25 42 47
130 152 181
128 151 181
90 109 122
133 154 181
124 125 127
148 162 181
75 42 83
128 151 181
139 157 181
79 43 83
78 43 83
80 44 83
130 66 118
108 118 127
71 18 54
101 25 77
112 62 118
44 32 61
110 61 118
43 5 25
38 11 37
66 33 66
125 65 118
108 61 118
0 0 0
134 155 181
144 159 181
75 43 83
75 36 59
132 153 181
128 151 181
114 120 127
128 151 181
131 153 181
109 118 127
142 158 181
121 124 127
143 159 181
78 43 83
139 157 181
130 152 181
131 153 181
131 153 181
130 152 181
130 152 181
141 158 181
134 154 181
128 151 181
131 153 181
130 152 181
128 127 127
87 65 164
142 160 140
133 154 181
134 154 181
140 158 181
43 19 29
47 24 41
131 153 181
80 45 102
128 151 181
131 153 181
152 164 181
107 117 127
136 156 181
143 159 181
130 152 181
146 161 181
79 84 90
132 153 181
132 153 181
45 82 130
45 82 130
27 23 60
47 84 130
45 82 130
17 47 93
39 33 85
47 84 130
46 16 100
39 65 92
46 83 130
29 35 118
83 86 90
136 155 181
132 153 181
129 152 181
75 72 69
145 160 181
131 153 181
90 88 114
132 153 181
134 154 181
138 156 181
18 16 179
142 159 181
134 154 181
150 163 181
147 161 181
12 11 126
93 96 55
145 160 181
131 153 181
128 151 181
130 152 181
170 170 144
136 127 101
185 177 144
187 177 144
50 116 90
167 169 144
188 178 144
169 169 144
120 120 101
194 181 144
125 122 101
186 177 144
135 127 101
192 180 144
30 1 0
194 181 144
29 13 59
186 177 144
165 167 144
174 172 144
154 133 114
177 173 144
104 92 80
127 123 101
120 120 101
98 89 80
49 36 25
175 172 144
130 103 80
132 101 102
126 122 101
4 1 6
128 124 162
149 160 203
109 115 143
146 129 114
155 163 203
173 171 203
110 93 128
154 162 203
159 164 203
147 159 203
145 158 203
155 163 203
170 170 203
155 162 203
169 170 203
157 163 203
145 158 203
159 165 203
147 159 203
148 159 203
173 172 203
146 158 203
160 165 203
159 165 203
110 115 143
156 163 203
166 168 203
104 112 143
155 162 203
146 158 203
69 144 136
145 158 203
27 98 73
22 39 47
48 101 96
152 164 181
0 0 0
130 152 181
50 103 96
135 155 181
7 0 73
115 62 118
137 156 181
134 155 181
128 151 181
147 161 181
143 159 181
133 154 181
51 104 96
140 158 181
132 153 181
126 65 118
130 152 181
121 64 118
128 151 181
130 152 181
49 102 96
143 159 181
129 151 181
133 154 181
45 23 41
138 156 181
0 0 0
142 159 181
145 160 181
126 126 127
132 153 181
45 12 38
152 164 181
45 12 38
89 46 83
134 154 181
86 88 90
109 118 127
80 85 90
147 161 181
15 8 16
120 64 118
111 61 118
113 62 118
119 64 118
180 93 167
0 0 0
120 64 118
109 61 118
33 13 55
28 24 60
112 62 118
141 158 181
126 126 127
77 43 83
134 154 181
148 162 181
152 164 181
27 25 22
43 5 25
131 153 181
136 155 181
140 157 181
36 60 38
129 152 181
138 156 181
137 156 181
80 85 90
129 151 181
130 152 181
149 162 181
140 157 181
87 88 90
143 159 181
45 34 39
141 158 181
137 156 181
130 152 181
140 158 181
144 160 181
135 155 181
137 156 181
36 61 92
151 163 181
46 35 26
118 122 127
129 152 181
133 154 181
19 31 62
128 151 181
135 155 181
134 154 181
150 163 181
146 160 181
140 158 181
143 159 181
128 128 127
65 15 3
130 152 181
45 82 130
52 89 130
21 25 83
46 83 130
45 82 130
46 83 130
46 83 130
46 83 130
50 86 130
45 83 130
45 83 130
130 152 181
136 155 181
136 156 181
139 157 181
133 154 181
143 130 162
146 161 181
135 155 181
130 152 181
76 72 69
141 158 181
130 152 181
131 153 181
137 156 181
129 152 181
141 158 181
132 153 181
152 164 181
136 155 181
144 160 181
131 153 181
131 153 181
118 119 101
120 96 44
122 121 101
169 169 144
56 123 90
182 175 144
168 169 144
166 168 144
82 177 128
189 178 144
0 0 0
187 177 144
188 178 144
177 173 144
182 175 144
178 174 144
194 181 144
131 125 101
185 176 144
182 175 144
187 177 144
184 176 144
179 174 144
149 131 114
187 178 144
179 174 144
194 181 144
166 168 144
148 130 114
132 123 114
0 0 0
180 174 144
164 167 144
46 112 127
151 161 203
148 159 203
104 112 143
0 0 0
174 172 203
103 112 143
157 164 203
112 116 143
13 15 52
154 162 203
169 169 203
150 160 203
162 166 203
163 167 203
168 169 203
155 89 174
99 64 132
152 161 203
156 137 39
159 165 203
104 112 143
152 161 203
156 163 203
154 162 203
159 165 203
149 160 203
144 157 203
145 158 203
164 167 203
50 103 96
153 164 181
53 106 96
50 103 96
54 106 96
11 69 39
138 157 181
149 162 181
117 122 127
145 160 181
49 102 96
27 22 25
109 118 127
132 153 181
135 155 181
15 13 126
142 159 181
62 102 127
131 153 181
146 161 181
138 156 181
143 159 181
151 163 181
136 155 181
49 102 96
134 155 181
54 48 57
157 167 181
131 153 181
118 122 127
123 100 91
134 154 181
153 165 181
134 154 181
114 120 127
132 154 181
0 0 0
133 154 181
46 12 38
82 44 83
0 0 0
0 0 0
138 156 181
81 85 90
77 34 63
34 73 47
151 164 181
17 2 4
0 0 0
38 17 41
9 0 4
87 46 83
8 0 8
65 17 54
65 17 54
9 13 22
38 119 135
145 160 181
133 154 181
83 45 83
125 65 118
0 0 0
80 85 90
62 55 20
141 158 181
112 119 127
84 45 83
128 151 181
139 157 181
76 43 83
138 157 181
134 154 181
130 152 181
121 124 127
131 152 181
130 152 181
154 165 181
138 156 181
143 159 181
134 154 181
132 153 181
150 163 181
129 152 181
79 62 164
131 153 181
141 158 181
131 153 181
132 153 181
135 155 181
131 153 181
136 155 181
75 43 83
129 152 181
27 46 65
130 152 181
134 154 181
144 160 181
133 154 181
134 154 181
128 151 181
26 45 65
140 157 181
69 84 33
137 156 181
46 83 130
45 83 130
50 86 130
50 87 130
46 83 130
51 87 130
46 83 130
45 82 130
46 83 130
47 84 130
48 85 130
147 161 181
134 154 181
129 152 181
130 152 181
132 153 181
126 126 127
143 159 181
13 12 126
79 82 101
139 157 181
132 153 181
78 84 90
140 157 181
132 153 181
148 162 181
134 154 181
134 154 181
132 153 181
139 157 181
150 163 181
133 154 181
147 161 112
199 183 144
190 179 144
176 172 144
191 179 144
183 176 144
173 171 144
189 178 144
183 176 144
175 172 144
37 35 50
171 93 123
169 169 144
164 167 144
169 169 144
176 172 144
199 183 144
176 172 144
107 115 124
188 178 144
183 176 144
125 122 101
184 176 144
126 122 101
179 174 144
194 181 144
170 170 144
167 169 144
175 172 144
125 122 101
178 174 144
92 60 66
173 171 144
0 0 0
102 111 143
175 173 203
173 172 203
108 114 143
170 170 203
172 171 203
148 159 203
146 158 203
175 173 203
104 112 143
153 161 203
67 47 130
152 161 203
148 159 203
168 169 203
152 161 203
175 173 203
151 160 203
158 164 203
138 126 161
153 161 203
149 160 203
110 115 143
151 161 203
105 113 143
151 160 203
146 158 203
107 114 143
109 115 143
144 157 203
0 0 0
52 105 96
141 158 181
19 69 51
89 89 90
141 158 181
73 48 118
49 86 68
50 103 96
128 151 181
137 156 181
131 153 181
135 155 181
131 153 181
129 152 181
147 161 181
128 151 181
129 152 181
148 162 181
133 154 181
132 153 181
132 153 181
131 153 181
133 154 181
111 119 127
149 162 181
135 155 181
52 105 96
134 155 181
90 89 90
130 152 181
135 155 181
0 1 2
143 159 181
134 154 181
113 117 143
151 164 181
148 162 181
134 154 181
10 0 3
46 12 38
145 160 181
0 0 0
46 12 38
87 45 83
78 43 83
144 159 181
27 3 17
34 13 72
148 162 181
5 1 3
88 46 83
18 1 8
4 0 2
14 2 6
143 159 181
14 2 18
5 5 13
84 45 83
140 157 181
72 35 59
88 46 83
28 24 60
135 155 181
135 155 181
150 163 181
16 24 44
139 157 181
133 154 181
143 159 181
135 155 181
139 157 181
134 154 181
87 88 90
136 155 181
143 159 181
144 159 181
129 152 181
130 152 181
116 63 118
128 151 181
143 159 181
92 91 90
142 159 181
137 156 181
136 156 181
137 156 181
38 119 135
128 151 181
139 157 181
131 153 181
75 69 63
137 156 181
132 153 181
130 152 181
129 152 181
137 156 181
134 155 181
24 80 95
135 155 181
47 84 130
140 157 181
135 155 181
144 160 181
47 84 130
45 82 130
49 86 130
45 83 130
47 84 130
46 83 130
46 83 130
46 83 130
51 87 130
4 11 41
14 7 61
133 154 181
19 16 179
80 85 90
14 12 126
2 2 2
142 159 181
120 98 91
119 123 127
131 129 127
130 152 181
136 156 181
128 151 181
135 155 181
132 154 181
135 155 181
16 13 127
147 161 181
131 153 181
132 153 181
133 154 181
139 157 181
122 121 101
179 174 144
195 181 144
188 178 144
168 169 144
191 180 144
177 173 144
119 120 101
182 175 144
134 126 101
132 125 101
172 171 144
172 171 144
170 170 144
0 0 0
104 92 80
122 121 101
119 120 101
196 182 144
174 172 144
118 119 101
176 173 144
190 179 144
129 124 101
171 170 144
193 181 144
136 102 64
177 173 144
139 127 114
185 177 144
120 120 101
144 128 114
160 165 203
167 168 203
162 166 203
162 166 203
39 43 100
18 50 77
161 166 203
113 116 143
173 172 203
12 6 32
172 171 203
163 167 203
53 34 57
173 172 203
166 168 203
83 85 101
152 161 203
103 112 143
168 169 203
5 1 6
154 162 203
170 170 203
114 117 143
149 160 203
107 113 143
59 44 130
158 164 203
171 170 203
105 113 143
155 163 203
162 166 203
87 64 184
0 14 4
50 103 96
90 92 123
149 163 181
49 102 96
96 92 25
8 10 6
133 154 181
115 121 127
55 108 96
50 103 96
132 153 181
139 157 181
78 66 60
22 8 60
134 154 181
115 62 118
139 157 181
131 153 181
136 155 181
129 152 181
76 83 90
29 6 11
129 152 181
149 162 181
135 155 181
127 127 127
139 157 181
130 152 181
129 152 181
81 44 83
92 47 83
80 85 90
124 65 118
140 157 181
139 157 181
147 161 181
150 163 181
0 0 0
134 154 181
137 156 181
84 45 83
79 43 83
127 66 118
19 17 179
0 0 0
0 0 0
81 44 83
143 159 181
77 43 83
78 43 83
149 162 181
78 43 83
138 156 181
81 44 83
131 153 181
27 3 17
33 59 92
26 3 17
131 153 181
133 154 181
46 12 38
140 157 181
131 153 181
3 3 16
148 162 181
133 154 181
49 86 130
80 44 83
141 158 181
131 129 127
131 153 181
148 162 181
132 153 181
137 156 181
131 153 181
132 153 181
126 126 127
13 12 23
132 153 181
140 158 181
118 122 127
133 154 181
141 158 181
138 157 181
131 153 181
135 155 181
144 159 181
132 153 181
7 2 2
147 161 181
133 154 181
148 162 181
151 164 181
136 155 181
147 161 181
132 153 181
138 156 181
148 162 181
132 153 181
144 160 181
129 152 181
129 152 181
133 154 181
150 163 181
45 83 130
48 85 130
47 84 130
1 2 2
49 86 130
28 46 50
46 83 130
45 83 130
46 83 130
44 82 130
99 92 114
130 152 181
138 156 181
130 152 181
132 153 181
134 154 181
132 153 181
144 160 181
129 152 181
141 158 181
66 135 37
138 156 181
140 158 181
138 156 181
138 156 181
139 157 181
139 157 181
139 157 181
130 152 181
127 85 33
137 156 181
144 104 107
195 182 144
178 173 144
122 121 101
120 120 101
174 172 144
187 178 144
126 123 101
116 118 101
68 67 100
52 118 90
188 178 144
68 63 49
124 121 101
95 90 72
134 126 101
119 119 101
184 176 144
93 87 80
178 174 144
195 181 144
116 118 101
180 174 144
141 127 114
75 66 40
182 175 144
184 176 144
187 177 144
140 104 64
198 183 144
131 104 80
132 103 91
189 179 144
119 120 143
174 172 203
89 87 101
43 108 127
155 163 203
153 162 203
105 113 143
109 115 143
152 161 203
156 163 203
102 111 143
160 165 203
161 165 203
163 167 203
63 46 130
150 160 203
160 165 203
58 44 130
151 161 203
108 114 143
176 173 203
159 165 203
113 116 143
117 119 143
104 112 143
154 162 203
153 162 203
150 160 203
152 161 203
146 158 203
165 167 203
89 85 56
29 47 34
136 155 181
146 161 181
50 103 96
137 156 181
51 104 96
131 153 181
62 50 28
132 153 181
130 152 181
51 104 96
49 102 96
84 87 90
132 153 181
146 161 181
140 158 181
137 156 181
128 151 181
137 156 181
27 86 95
38 29 0
77 83 90
134 154 181
45 83 68
137 156 181
143 159 181
110 61 118
138 156 181
132 153 181
132 153 181
42 41 63
140 157 181
129 152 181
130 152 181
133 154 181
133 154 181
40 40 63
48 32 88
132 153 181
140 158 181
132 153 181
82 44 83
12 62 97
16 1 8
46 66 54
149 163 181
85 45 83
154 165 181
145 160 181
16 10 4
148 162 181
49 86 130
143 159 181
85 87 90
77 43 83
13 14 15
148 162 181
138 157 181
136 155 181
143 159 181
75 61 164
83 64 164
56 72 110
133 154 181
131 153 181
0 0 0
135 155 181
16 1 8
123 125 127
5 0 2
120 123 127
134 154 181
133 154 181
150 163 181
9 0 0
140 157 181
142 159 181
130 152 181
147 161 181
132 153 181
143 159 181
133 154 181
132 153 181
150 163 181
134 154 181
123 125 127
150 163 181
142 158 181
129 152 181
0 0 0
133 154 181
140 157 181
115 63 118
72 79 101
128 151 181
135 155 181
136 155 181
129 151 181
8 23 46
132 153 181
132 153 181
151 164 181
152 164 181
22 29 9
48 85 130
52 88 130
46 83 130
48 85 130
44 82 130
11 32 66
50 86 130
14 19 61
47 84 130
46 83 130
144 160 181
132 153 181
0 21 2
137 156 181
131 153 181
132 153 181
128 151 181
133 154 181
145 160 181
136 156 181
131 153 181
134 154 181
128 151 181
137 156 181
136 155 181
141 158 181
131 153 181
80 81 55
18 16 179
130 152 181
130 152 181
113 95 45
124 122 101
179 174 144
179 174 144
82 45 61
188 178 144
131 125 101
122 121 101
136 127 101
119 120 101
184 176 144
52 118 90
187 178 144
182 175 144
60 47 24
192 180 144
131 125 101
187 177 144
125 100 57
118 119 101
0 0 0
183 176 144
164 167 144
175 94 123
86 83 48
119 119 101
52 37 25
37 14 1
20 25 13
122 121 101
121 120 101
66 62 57
103 112 143
173 172 203
70 165 180
22 9 14
107 114 143
157 164 203
156 163 203
23 25 19
156 163 203
148 159 203
0 0 29
159 165 203
162 166 203
151 161 203
156 163 203
157 164 203
156 163 203
152 161 203
149 160 203
162 166 203
156 163 203
116 118 143
7 17 37
42 31 92
110 115 143
104 112 143
164 167 203
2 0 3
58 44 101
161 165 203
104 112 143
119 120 143
28 6 19
107 114 143
131 129 127
82 86 90
49 102 96
145 160 181
133 154 181
140 157 181
13 9 113
53 106 96
140 157 181
129 152 181
82 156 136
132 153 181
138 157 181
0 5 1
129 152 181
81 155 136
35 31 45
18 13 22
143 159 181
131 153 181
142 159 181
77 151 136
129 152 181
131 153 181
82 156 136
147 161 181
128 151 181
139 157 181
134 154 181
138 156 181
134 154 181
91 47 83
85 44 93
32 11 95
144 160 181
82 44 83
133 154 181
147 161 181
145 160 181
129 152 181
4 2 4
16 0 8
77 43 83
62 62 55
132 153 181
139 157 181
80 44 83
139 157 181
133 154 181
68 17 54
134 154 181
136 155 181
77 43 83
122 64 118
132 153 181
131 153 181
145 160 181
133 154 181
17 1 8
153 165 181
52 25 41
76 83 90
144 160 181
135 155 181
130 152 181
14 23 44
137 156 181
35 115 135
133 154 181
138 156 181
8 6 48
44 94 94
143 159 181
135 155 181
4 7 18
129 151 181
12 18 23
133 154 181
148 162 181
138 157 181
134 155 181
146 161 181
145 160 181
132 153 181
132 153 181
136 155 181
135 155 181
147 161 181
138 156 181
130 152 181
134 154 181
83 86 90
130 152 181
146 161 181
146 161 181
140 158 181
33 59 92
140 158 181
151 163 181
132 153 181
65 107 44
133 154 181
8 42 68
137 156 181
40 66 92
45 82 130
29 24 60
44 82 130
45 83 130
47 84 130
44 82 130
48 85 130
177 214 199
136 155 181
133 154 181
136 155 181
142 159 181
139 157 181
57 72 86
133 154 181
128 102 91
142 159 181
151 164 181
129 152 181
130 152 181
141 158 181
131 153 181
131 153 181
128 151 181
135 155 181
0 0 0
78 65 50
19 14 160
137 156 181
94 89 114
120 120 101
182 175 144
137 128 101
188 178 144
117 118 101
184 176 144
78 172 128
81 176 128
166 168 144
39 2 0
105 114 124
188 178 144
195 181 144
177 173 144
166 92 123
120 120 101
173 171 144
169 170 144
131 125 101
125 98 64
119 120 101
149 131 114
123 98 64
133 101 64
22 17 18
120 120 101
121 120 101
135 125 114
62 39 20
0 0 0
31 20 10
171 171 203
112 96 170
153 162 203
171 171 203
11 5 1
166 168 203
151 161 203
109 114 143
168 169 203
163 166 203
106 113 143
166 168 203
121 121 144
105 113 143
106 113 143
170 170 203
162 166 203
104 112 143
107 113 143
153 161 203
154 162 203
172 171 203
160 165 203
151 161 203
169 170 203
144 157 203
118 119 143
152 161 203
161 166 203
167 168 203
162 166 203
116 118 143
106 113 143
135 155 181
152 161 203
129 152 181
131 153 181
137 156 181
133 154 181
134 155 181
0 0 0
132 154 181
140 158 181
18 31 24
130 152 181
133 154 181
134 154 181
54 1 21
135 155 181
136 155 181
137 156 181
137 156 181
132 153 181
131 153 181
10 29 15
142 159 181
152 164 181
130 152 181
133 154 181
130 152 181
133 154 181
135 155 181
131 153 181
131 153 181
136 156 181
130 152 181
117 63 118
132 153 181
136 156 181
22 106 86
74 18 54
128 151 181
128 151 181
153 164 181
27 23 31
77 43 83
129 152 181
134 154 181
151 163 181
110 115 141
145 160 181
84 45 83
143 159 181
133 154 181
141 158 181
145 160 181
148 162 181
146 161 181
113 62 118
133 154 181
135 155 181
139 157 181
32 58 92
82 44 83
25 11 26
125 65 118
84 84 101
130 152 181
3 17 24
140 157 181
129 152 181
82 44 83
132 153 181
130 152 181
117 63 118
131 153 181
133 154 181
135 155 181
130 152 181
130 67 118
128 151 181
85 45 83
148 162 181
144 159 181
138 156 181
135 155 181
130 152 181
20 18 8
129 152 181
138 156 181
128 151 181
49 38 125
140 158 181
129 152 181
133 154 181
9 24 46
140 158 181
145 160 181
37 117 135
131 153 181
134 154 181
83 86 90
151 164 181
138 156 181
76 43 83
138 156 181
133 154 181
150 163 181
29 46 88
44 82 130
43 68 92
7 14 24
52 89 130
47 84 130
49 86 130
49 85 130
201 227 199
128 151 181
143 159 181
129 152 181
140 158 181
109 112 78
145 160 181
148 88 155
143 159 181
136 155 181
144 160 181
136 155 181
131 153 181
151 163 181
138 156 181
151 164 181
89 87 114
141 158 181
145 160 181
131 153 181
4 3 28
138 156 181
130 152 181
165 167 144
139 128 101
117 118 101
25 0 12
123 99 57
187 178 144
116 118 101
191 180 144
50 56 62
121 120 101
179 95 123
194 181 144
128 123 101
180 174 144
179 174 144
185 177 144
136 127 101
195 181 144
135 127 101
133 126 101
191 180 144
132 123 114
113 118 124
0 2 8
134 101 64
26 73 94
193 180 144
119 120 101
142 105 64
121 97 64
160 165 203
165 168 203
147 159 203
105 113 143
154 162 203
47 113 127
36 24 73
121 120 143
49 116 127
105 113 143
146 158 203
105 113 143
146 158 203
110 115 143
152 161 203
105 113 143
102 111 143
94 90 101
170 170 203
66 47 130
147 159 203
0 0 0
166 168 203
117 118 143
153 162 203
117 118 143
97 89 114
157 164 203
47 77 108
164 167 203
145 158 203
171 170 203
154 162 203
153 162 203
138 156 181
118 122 127
136 127 101
114 117 143
50 103 96
128 151 181
9 27 25
148 162 181
143 159 181
147 161 181
117 122 127
129 152 181
131 153 181
131 153 181
73 68 63
130 152 181
131 153 181
133 154 181
130 152 181
146 161 181
131 153 181
134 155 181
139 157 181
138 156 181
124 126 127
108 118 127
132 153 181
7 46 27
7 34 48
132 153 181
48 44 63
129 152 181
144 160 181
6 8 7
134 154 181
106 33 122
128 151 181
78 43 83
137 156 181
78 43 83
134 155 181
128 151 181
133 154 181
45 12 38
82 44 83
130 152 181
148 162 181
130 152 181
147 161 181
111 115 143
132 153 181
3 60 22
125 65 118
137 128 162
132 153 181
20 17 179
131 152 181
107 60 118
83 45 83
21 32 62
131 153 181
137 156 181
129 152 181
154 165 181
102 91 80
146 161 181
133 154 181
133 154 181
129 152 181
131 152 181
144 160 181
130 152 181
129 152 181
8 43 68
147 161 181
131 153 181
109 118 127
99 111 127
27 45 65
144 160 181
145 160 181
128 127 127
142 159 181
133 154 181
25 37 46
38 18 29
134 154 181
130 152 181
133 154 181
138 156 181
131 153 181
139 157 181
144 159 181
145 160 181
139 157 181
128 151 181
142 158 181
140 157 181
0 0 0
147 161 181
136 155 181
130 152 181
130 152 181
130 152 181
130 152 181
53 89 130
144 160 181
47 84 130
1 3 29
10 31 80
1 2 2
202 228 199
44 82 130
185 218 199
133 154 181
0 0 0
131 153 181
131 125 101
145 160 181
131 153 181
133 154 181
145 160 181
137 156 181
132 153 181
151 164 181
136 155 181
153 165 181
89 87 72
136 155 181
84 86 90
129 152 181
136 155 181
64 51 72
138 156 181
129 152 181
134 154 181
172 171 144
123 121 101
54 67 53
126 123 101
184 176 89
7 3 0
196 182 144
174 172 144
63 14 0
183 176 144
181 175 144
116 118 101
128 123 101
176 172 144
134 126 101
181 175 144
56 123 90
182 175 144
121 120 101
42 34 22
119 119 101
14 11 31
191 179 144
41 26 15
98 89 80
172 171 144
57 36 73
95 88 80
171 170 144
78 100 48
93 87 80
108 114 143
107 114 143
103 112 143
154 89 174
155 163 203
152 161 203
151 161 203
145 158 203
52 32 17
157 164 203
100 88 62
102 111 143
146 158 203
104 112 143
161 165 203
151 161 203
129 99 96
162 166 203
106 113 143
147 159 203
110 115 143
171 171 203
175 173 203
104 112 143
165 168 203
156 163 203
109 114 143
117 118 143
89 65 184
165 168 203
168 169 203
103 112 143
160 165 203
170 170 203
46 46 45
76 43 83
129 152 181
62 112 108
19 10 22
143 159 181
130 152 181
129 152 181
135 155 181
116 121 127
147 161 181
130 152 181
129 152 181
133 154 181
77 151 136
141 158 181
134 155 181
16 28 30
78 82 101
134 154 181
133 154 181
74 148 136
144 160 181
131 153 181
76 43 83
135 155 181
88 36 126
130 152 181
138 156 181
81 155 136
141 158 181
131 153 181
6 0 0
51 85 86
129 152 181
135 155 181
139 157 181
113 62 118
134 154 181
151 163 181
152 164 181
133 154 181
142 159 181
133 154 181
129 152 181
131 153 181
154 165 181
140 157 181
134 154 181
151 164 181
130 152 181
143 159 181
78 43 83
131 153 181
130 152 181
129 152 181
81 155 136
128 151 181
129 152 181
141 158 181
124 65 118
145 160 181
128 151 181
130 152 181
128 151 181
128 151 181
128 151 181
148 162 181
132 153 181
16 1 8
113 116 143
139 157 181
87 46 83
35 114 135
138 156 181
131 152 181
11 32 66
138 156 181
131 153 181
134 154 181
144 159 181
47 84 130
139 157 181
138 157 181
143 159 181
89 149 62
136 155 181
148 162 181
149 162 181
145 160 181
139 157 181
140 158 181
150 163 181
132 153 181
130 152 181
153 165 181
128 151 181
144 160 181
48 85 130
130 152 181
136 155 181
132 153 181
77 57 177
122 124 127
128 151 181
40 25 41
17 13 90
131 153 181
0 5 7
41 66 92
70 22 67
44 82 130
0 0 0
108 118 127
136 155 181
131 153 181
144 159 181
146 161 181
128 151 181
132 153 181
144 160 181
131 153 181
78 73 69
127 82 155
128 151 181
134 154 181
97 8 38
134 154 181
145 160 181
119 119 101
78 84 90
147 161 181
0 0 0
142 159 181
0 0 0
140 157 181
131 153 181
122 121 101
188 178 144
74 65 57
188 97 123
192 180 144
119 119 101
130 125 101
9 55 49
191 179 144
121 120 101
123 121 101
122 121 101
188 178 144
132 125 101
193 180 144
183 176 144
119 120 101
126 122 101
137 128 101
84 68 45
111 72 131
131 125 101
174 172 144
102 49 11
121 120 101
176 172 144
3 4 2
126 99 64
134 126 101
149 163 181
156 163 203
54 45 72
148 159 203
148 159 203
163 166 203
104 112 143
114 117 143
21 81 82
149 160 203
110 115 143
156 163 203
159 165 203
82 102 174
103 112 143
163 166 203
59 58 80
166 168 203
161 165 203
115 118 143
108 114 143
157 164 203
110 115 143
160 165 203
161 165 203
0 0 0
102 111 143
42 124 151
104 112 143
160 165 203
17 8 59
173 172 203
149 159 203
164 167 203
21 73 51
145 160 181
131 153 181
133 154 181
144 160 181
139 157 181
142 130 162
149 162 181
129 151 181
33 83 74
149 162 181
132 153 181
131 153 181
147 161 181
141 158 181
132 153 181
130 152 181
137 156 181
128 151 181
150 163 181
146 161 181
132 153 181
121 64 118
127 127 127
140 158 181
83 82 55
131 153 181
145 160 181
135 155 181
0 0 0
143 159 181
128 66 118
141 158 181
78 152 136
136 155 181
138 156 181
76 43 83
133 154 181
138 156 181
137 156 181
137 156 181
45 80 76
138 156 181
130 152 181
139 157 181
132 153 181
131 153 181
114 62 118
23 78 95
148 162 181
55 83 94
136 155 181
134 154 181
128 151 181
153 164 181
142 158 181
135 155 181
0 0 0
122 64 118
133 154 181
139 157 181
27 23 60
131 153 181
136 155 181
132 153 181
137 156 181
142 158 181
128 151 181
112 62 118
129 152 181
131 153 181
134 154 181
129 152 181
135 155 181
128 151 181
117 63 118
139 157 181
75 18 54
135 155 181
51 87 130
122 124 127
129 152 181
134 154 181
45 82 130
49 86 130
134 154 181
84 87 90
135 155 181
136 155 181
133 154 181
135 155 181
142 158 181
141 158 181
77 152 136
150 163 181
129 152 181
138 157 181
129 152 181
130 152 181
145 160 181
6 30 50
152 164 181
142 159 181
135 155 181
137 156 181
132 153 181
138 157 181
133 154 181
9 12 43
47 84 130
53 89 130
196 224 199
189 220 199
135 155 181
132 153 181
135 155 181
134 154 181
130 152 181
92 88 114
130 152 181
138 156 181
11 32 67
132 153 181
85 71 81
130 152 181
147 161 181
135 155 181
143 159 181
140 158 181
95 90 114
131 153 181
31 105 59
129 124 101
138 157 181
3 0 1
140 157 181
175 172 144
134 154 181
132 125 101
117 118 101
191 179 144
122 121 101
132 126 101
189 178 144
131 125 101
123 121 101
131 125 101
0 0 0
128 124 101
123 121 101
32 46 21
124 121 101
66 62 57
184 176 144
48 35 25
141 127 114
102 91 80
129 124 101
135 127 101
194 181 144
75 54 51
84 47 13
62 39 20
156 134 114
98 73 45
150 163 181
103 112 143
104 112 143
105 113 143
0 0 0
159 165 203
116 118 143
103 112 143
172 171 203
95 109 174
108 114 143
167 168 203
112 116 143
115 118 143
0 0 0
153 161 203
145 158 203
102 97 80
38 31 13
37 27 91
105 113 143
86 84 114
161 165 203
166 168 203
111 116 143
148 159 203
155 163 203
166 168 203
154 162 203
171 170 203
96 67 184
12 5 16
169 169 203
116 118 143
157 164 203
147 161 181
135 155 181
144 160 181
29 29 44
141 158 181
134 154 181
136 155 181
147 161 181
128 151 181
111 116 143
144 159 181
128 151 181
139 157 181
25 16 0
132 153 181
135 155 181
133 154 181
131 153 181
129 152 181
134 154 181
128 151 181
128 151 181
133 154 181
137 156 181
141 158 181
140 157 181
0 0 0
122 92 232
105 85 232
131 153 181
130 152 181
143 159 181
135 155 181
107 86 232
131 153 181
133 154 181
132 153 181
139 157 181
138 156 181
75 43 83
132 153 181
132 153 181
133 154 181
130 152 181
135 155 181
132 153 181
135 155 181
80 155 136
140 157 181
117 63 118
85 45 83
132 153 181
131 153 181
131 153 181
134 154 181
124 125 35
129 152 181
129 152 181
141 158 181
50 103 96
135 155 181
132 153 181
131 153 181
122 64 118
136 155 181
151 163 181
48 12 38
131 153 181
84 45 83
129 151 181
130 152 181
132 153 181
129 152 181
131 153 181
41 34 85
142 159 181
128 151 181
130 152 181
132 153 181
138 156 181
129 152 181
135 155 181
134 154 181
2 1 0
130 152 181
47 84 130
134 154 181
144 159 181
53 49 45
132 153 181
133 154 181
145 160 181
146 161 181
8 23 46
130 152 181
76 43 83
145 160 181
145 160 181
136 155 181
146 161 181
136 155 181
152 164 181
45 69 92
17 19 59
0 0 0
132 153 181
19 16 42
56 62 75
48 85 130
2 2 4
184 217 199
178 214 199
148 161 158
136 155 181
141 158 181
136 155 181
132 153 181
131 153 181
133 154 181
144 160 181
132 153 181
137 156 181
131 153 181
142 159 181
132 153 181
141 158 181
142 158 181
129 152 181
133 154 181
128 151 181
140 157 181
130 152 181
90 87 114
142 158 181
153 165 181
62 26 52
118 119 101
117 119 101
76 66 40
117 119 101
184 176 144
16 10 2
180 175 144
50 84 54
190 179 144
151 135 102
119 120 101
126 123 101
117 118 101
132 126 101
129 124 101
185 177 144
123 77 67
89 56 14
116 118 101
185 177 144
124 100 57
100 90 80
191 179 144
117 119 101
135 125 114
170 170 144
16 2 0
84 37 74
106 113 143
122 121 143
151 161 203
164 167 203
105 113 143
48 114 127
166 168 203
160 165 203
164 167 203
153 162 203
168 169 203
156 163 203
110 115 143
10 52 10
160 165 203
150 160 203
103 112 143
0 0 0
163 167 203
109 63 123
164 167 203
172 171 203
150 160 203
115 117 143
150 160 203
114 117 143
108 62 123
107 113 143
161 166 203
167 169 203
102 111 143
111 116 143
108 114 143
119 120 143
107 114 143
138 156 181
137 156 181
133 154 181
112 116 143
140 157 181
2 2 2
132 153 181
133 154 181
56 109 96
74 149 136
76 151 136
130 152 181
132 153 181
140 158 181
133 154 181
132 153 181
137 156 181
88 66 164
131 153 181
119 123 127
132 153 181
141 158 181
133 154 181
128 151 181
133 154 181
83 84 101
105 86 232
105 86 232
113 89 232
10 55 52
130 152 181
145 160 181
142 159 181
145 160 181
139 157 181
130 152 181
134 155 181
132 153 181
129 152 181
139 157 181
131 153 181
149 162 181
132 153 181
138 157 181
130 152 181
76 43 83
137 156 181
134 155 181
125 126 127
142 158 181
140 158 181
137 156 181
135 155 181
132 153 181
131 153 181
129 152 181
34 60 92
130 152 181
128 151 181
138 157 181
69 18 54
144 160 181
129 152 181
137 156 181
133 154 181
138 157 181
148 162 181
142 158 181
137 156 181
146 161 181
131 153 181
127 127 127
129 152 181
129 152 181
50 12 38
128 151 181
133 154 181
145 160 181
33 60 92
131 153 181
144 160 181
137 156 181
79 84 90
129 152 181
137 156 181
138 156 181
148 162 181
25 91 122
130 152 181
152 164 181
51 46 36
131 153 181
151 163 181
140 158 181
32 58 92
130 152 181
135 155 181
41 64 73
146 161 181
148 162 181
136 155 181
133 154 181
21 41 83
32 58 92
117 63 118
139 157 181
0 6 13
38 44 69
152 164 181
51 87 130
203 228 199
47 84 130
122 149 140
120 148 140
85 87 90
6 6 60
157 167 181
92 88 72
141 158 181
144 159 181
131 153 181
136 155 181
148 162 181
141 158 181
153 165 181
100 92 114
141 158 181
132 125 101
135 155 181
142 130 162
147 161 181
129 102 91
85 85 72
143 159 181
147 161 181
115 48 117
131 153 181
190 179 144
90 87 114
110 94 57
0 0 0
118 119 101
196 182 144
190 179 144
121 120 101
188 178 144
183 176 144
186 177 144
121 120 101
123 121 101
180 174 144
49 36 16
122 121 101
66 62 57
69 63 57
48 36 22
194 181 144
122 121 101
97 56 53
178 173 144
68 63 57
47 3 0
133 126 101
88 69 45
96 88 80
0 0 0
151 163 181
162 166 203
160 165 203
170 170 203
162 166 203
150 160 203
102 111 143
166 168 203
153 162 203
171 171 203
162 166 203
59 58 80
111 116 143
147 159 203
157 164 203
107 113 143
0 0 0
109 114 143
65 76 123
114 117 143
161 165 203
104 112 143
105 113 143
124 122 143
88 87 101
113 101 80
151 161 203
166 168 203
167 169 203
113 117 143
110 100 80
105 113 143
172 171 203
133 154 181
164 167 203
132 153 181
135 155 181
147 132 162
31 56 54
134 155 181
130 152 181
140 157 181
152 164 181
128 151 181
40 107 113
146 160 181
142 159 181
28 53 54
82 156 136
40 66 48
140 158 181
147 161 181
50 103 96
131 153 181
132 153 181
136 156 181
134 154 181
128 128 127
135 155 181
133 154 181
133 154 181
111 88 232
101 71 164
104 85 232
157 167 181
106 86 232
123 92 232
109 87 232
144 160 181
131 153 181
124 93 232
106 86 232
41 26 65
136 155 181
128 151 181
137 156 181
139 157 181
129 152 181
129 152 181
130 152 181
141 158 181
128 151 181
135 155 181
141 158 181
130 152 181
128 151 181
150 163 181
137 156 181
142 158 181
140 158 181
143 159 181
135 155 181
144 160 181
130 152 181
138 156 181
131 153 181
136 155 181
141 158 181
142 158 181
57 84 69
143 159 181
130 152 181
129 151 181
132 153 181
131 153 181
84 87 90
130 152 181
132 153 181
133 154 181
128 151 181
131 152 181
145 160 181
145 160 181
86 45 83
129 152 181
153 165 181
135 155 181
132 153 181
134 154 181
131 153 181
138 157 181
152 164 181
118 119 143
0 0 0
139 157 181
133 154 181
142 158 181
87 106 99
128 151 181
50 12 38
49 85 130
5 30 48
32 58 92
131 153 181
144 160 181
130 152 181
141 158 181
28 87 95
149 162 181
8 23 46
10 25 37
31 58 92
8 44 68
35 61 92
24 80 95
184 218 199
199 226 199
201 227 199
135 155 181
133 154 181
91 87 72
131 153 181
128 151 181
132 153 181
136 155 181
134 154 181
137 156 181
91 89 151
144 159 181
27 36 21
101 92 114
137 156 181
131 153 181
31 105 59
99 43 26
136 155 181
135 155 181
129 152 181
148 162 181
86 85 72
140 157 181
130 152 181
140 157 181
126 100 57
0 0 0
190 179 144
78 66 40
193 181 144
131 125 101
132 125 101
195 181 144
120 120 101
121 120 101
117 118 101
118 119 101
119 119 101
183 176 144
126 100 57
185 176 144
133 126 101
65 50 32
93 87 80
136 127 101
129 124 101
53 37 25
134 102 64
0 0 0
1 9 15
19 42 35
50 45 64
0 0 0
120 120 143
162 166 203
163 166 203
124 122 143
105 113 143
153 162 203
49 77 108
31 77 90
165 168 203
3 1 3
157 163 203
104 112 143
106 113 143
152 161 203
157 164 203
120 120 143
107 113 143
151 161 203
159 165 203
96 109 111
115 118 143
103 112 143
161 166 203
114 117 143
112 116 143
0 0 0
167 169 203
167 169 203
112 116 143
108 114 143
106 113 143
90 24 54
131 153 181
73 60 164
143 88 67
131 153 181
136 155 181
139 157 181
74 67 81
144 160 181
110 115 143
152 164 181
138 157 181
131 153 181
120 120 143
39 103 84
149 162 181
139 157 181
139 157 181
24 0 2
0 0 0
81 44 83
151 164 181
143 159 181
120 91 232
71 69 135
121 91 232
111 88 232
105 86 232
106 86 232
49 42 141
107 86 232
107 86 232
117 90 232
105 86 232
123 92 232
33 59 92
110 87 232
121 91 232
124 93 232
128 151 181
111 116 143
128 151 181
105 85 232
130 152 181
137 156 181
135 155 181
129 153 140
0 0 0
142 158 181
131 153 181
107 117 127
131 153 181
130 152 181
128 151 181
51 85 86
38 120 135
142 158 181
130 152 181
136 155 181
138 157 181
130 152 181
146 161 181
134 154 181
133 154 181
128 151 181
128 151 181
110 119 127
137 156 181
130 152 181
132 153 181
32 57 38
131 153 181
128 151 181
150 163 181
108 117 127
133 154 181
32 59 92
133 154 181
130 152 181
80 154 136
130 152 181
0 0 0
0 0 0
133 154 181
153 164 181
133 154 181
134 155 181
0 1 0
146 161 181
128 151 181
148 162 181
149 162 181
130 152 181
138 157 181
139 157 181
43 89 71
137 156 181
135 155 181
138 156 181
148 162 181
42 80 101
133 154 181
136 156 181
137 156 181
137 156 181
134 154 181
36 61 92
37 62 92
149 162 181
142 159 181
24 79 98
49 86 130
167 208 199
199 226 199
124 150 140
185 218 199
130 152 181
142 159 181
144 160 181
133 154 181
84 84 72
136 156 181
130 152 181
76 100 155
138 156 181
132 153 181
137 156 181
83 84 72
89 86 72
130 152 181
0 0 0
137 71 116
132 153 181
89 49 13
136 155 181
87 86 72
148 162 181
130 152 181
132 153 181
132 153 181
65 51 72
131 153 181
128 151 181
180 174 144
120 120 101
138 128 101
119 119 101
124 122 101
122 121 101
128 123 101
122 121 101
38 85 64
119 119 101
149 131 114
0 70 35
24 56 35
80 67 40
34 47 24
9 57 21
123 121 101
83 69 40
187 178 144
122 121 101
44 36 20
196 182 144
97 59 28
88 87 114
129 152 181
129 152 181
65 33 49
158 164 203
82 67 64
109 115 143
102 111 143
106 113 143
42 45 100
170 170 203
10 4 12
145 158 203
164 167 203
110 115 143
171 170 203
105 113 143
107 114 143
112 116 143
102 111 143
112 116 143
162 166 203
63 46 130
105 113 143
118 119 143
151 161 203
105 112 143
160 165 203
157 163 203
173 171 203
11 30 16
97 68 184
15 5 29
164 167 203
93 87 114
133 154 181
143 159 181
150 163 181
135 155 181
116 118 143
138 157 181
127 127 127
139 157 181
131 153 181
133 126 101
132 153 181
135 155 181
131 153 181
74 80 101
144 160 181
128 151 181
130 152 181
131 153 181
139 157 181
110 87 232
125 93 232
134 154 181
119 120 143
119 91 232
103 85 232
128 127 127
131 153 181
107 86 232
125 93 232
115 89 232
107 86 232
124 93 232
107 86 232
114 89 232
116 90 232
115 89 232
123 92 232
108 87 232
106 86 232
126 93 232
117 90 232
129 152 181
128 151 181
145 160 181
128 66 118
128 151 181
131 153 181
150 163 181
141 158 181
135 155 181
132 153 181
136 155 181
111 119 127
133 154 181
138 156 181
144 160 181
152 164 181
134 154 181
136 155 181
129 152 181
134 155 181
126 65 118
137 156 181
130 152 181
136 155 181
0 0 0
132 153 181
129 152 181
128 151 181
107 117 127
129 152 181
129 152 181
132 153 181
52 88 130
136 155 181
134 154 181
139 157 181
137 156 181
138 156 181
129 152 181
126 121 70
8 25 8
134 154 181
135 155 181
130 152 181
139 157 181
132 153 181
131 153 181
130 152 181
144 160 181
145 160 181
140 158 181
129 152 181
132 153 181
117 122 127
142 159 181
136 155 181
53 89 130
131 153 181
7 22 46
43 37 31
132 153 181
137 156 181
37 62 92
51 87 130
153 165 181
33 112 135
6 14 9
140 157 181
133 154 181
202 228 199
144 161 140
67 77 79
119 148 140
190 221 199
131 153 181
143 159 181
96 90 114
144 159 181
149 162 181
91 107 127
142 159 181
141 158 181
132 153 181
130 152 181
128 151 181
128 151 181
145 160 181
131 152 181
98 49 69
133 154 181
130 152 181
0 0 0
151 163 181
136 156 181
135 155 181
133 154 181
143 159 181
139 157 181
140 157 181
90 87 72
147 161 181
140 158 181
45 28 14
98 91 72
188 178 144
122 121 101
128 123 101
131 125 101
133 126 101
194 181 144
121 120 101
4 2 0
124 100 57
102 91 80
121 121 101
116 118 101
135 127 101
43 34 22
62 94 103
120 120 101
44 35 22
6 6 19
43 89 71
0 0 0
59 48 28
136 155 181
85 85 72
151 163 181
107 113 143
23 16 4
39 105 155
176 173 203
67 28 9
168 169 203
166 168 203
163 167 203
103 112 143
154 162 203
4 1 6
111 116 143
102 91 80
82 56 48
107 114 143
120 120 143
106 113 143
41 31 92
90 86 114
172 171 203
107 113 143
95 88 114
40 51 84
84 84 101
0 0 65
159 164 203
121 121 143
92 89 101
155 163 203
50 85 146
0 0 0
131 153 181
133 154 181
0 0 0
29 102 73
151 164 181
138 157 181
113 120 127
134 154 181
132 153 181
136 155 181
128 151 181
132 153 181
141 158 181
130 152 181
76 43 83
131 153 181
53 25 52
129 152 181
119 64 118
131 153 181
141 158 181
49 36 25
132 153 181
111 88 232
111 88 232
110 87 232
35 36 69
112 88 232
108 87 232
114 89 232
106 86 232
104 85 232
105 86 232
106 86 232
120 91 232
125 93 232
123 92 232
104 85 232
119 91 232
109 87 232
121 92 232
109 87 232
150 163 181
111 88 232
73 60 164
120 64 118
135 155 181
131 153 181
140 157 181
133 154 181
142 158 181
137 156 181
136 155 181
131 129 127
133 154 181
144 160 181
134 154 181
129 152 181
129 152 181
130 152 181
130 152 181
137 156 181
132 153 181
134 154 181
151 163 181
138 156 181
128 151 181
153 165 181
148 162 181
154 165 181
139 157 181
130 152 181
136 156 181
132 153 181
134 154 181
33 59 92
134 154 181
140 158 181
138 157 181
141 158 181
129 152 181
132 153 181
79 153 136
129 152 181
133 154 181
138 156 181
129 152 181
147 161 181
145 160 181
139 157 181
144 160 181
130 152 181
33 60 92
129 152 181
132 153 181
133 154 181
141 158 181
133 154 181
131 153 181
47 84 130
32 58 92
144 159 181
152 164 181
25 36 62
12 22 64
130 152 181
50 103 96
132 153 181
32 58 92
139 157 181
138 156 181
132 153 181
32 58 92
71 85 138
185 218 199
132 153 181
86 106 155
89 87 114
147 161 181
145 160 181
130 152 181
128 151 181
129 152 181
127 123 162
137 156 181
85 85 72
134 154 181
145 160 181
146 161 181
149 163 181
54 148 160
147 161 181
145 160 181
132 153 181
149 162 181
129 152 181
146 161 181
133 154 181
85 85 72
134 154 181
147 161 181
0 0 0
139 129 101
77 66 40
122 99 57
53 38 16
127 123 101
75 95 75
128 101 57
31 19 32
180 174 144
123 121 101
127 123 101
121 120 101
133 126 101
89 71 40
47 33 65
73 63 31
188 178 144
34 17 36
52 37 16
130 152 181
133 154 181
130 152 181
41 49 39
89 87 72
136 155 181
144 159 181
152 164 181
130 152 181
23 15 30
113 117 143
173 172 203
172 171 203
103 112 143
159 164 203
170 170 203
64 50 95
164 167 203
104 112 143
110 115 143
62 62 71
60 59 80
171 170 203
68 63 80
167 169 203
35 60 103
165 167 203
104 112 143
146 158 203
47 113 127
103 112 143
158 164 203
105 113 143
104 112 143
24 12 84
164 167 203
37 34 43
130 152 181
47 84 130
112 62 118
112 116 143
146 161 181
74 80 101
87 88 90
133 154 181
136 156 181
75 80 101
64 64 63
77 43 83
58 41 22
130 152 181
138 157 181
29 55 48
134 154 181
134 155 181
130 152 181
130 152 181
131 153 181
132 153 181
27 3 17
129 152 181
110 87 232
107 86 232
112 88 232
119 91 232
107 86 232
110 87 232
110 87 232
110 87 232
112 88 232
105 86 232
108 87 232
103 85 232
111 88 232
104 85 232
120 91 232
110 87 232
106 86 232
107 86 232
116 90 232
110 87 232
108 87 232
112 88 232
63 41 36
115 89 232
134 154 181
136 155 181
153 164 181
133 154 181
123 125 35
33 59 92
134 154 181
140 157 181
140 158 181
131 153 181
129 152 181
130 152 181
129 152 181
141 158 181
130 152 181
128 151 181
134 154 181
129 152 181
21 27 23
133 154 181
145 160 181
139 157 181
131 153 181
135 155 181
135 151 123
129 152 181
143 159 181
138 156 181
134 154 181
103 94 101
139 157 181
131 153 181
147 161 181
130 152 181
146 161 181
129 152 181
131 153 181
53 89 130
131 153 181
137 156 181
134 154 181
128 153 140
136 155 181
144 160 181
135 155 181
132 153 181
148 162 181
131 153 181
136 155 181
145 160 181
137 156 181
129 152 181
51 88 130
131 153 181
130 152 181
156 166 181
32 57 54
32 59 92
83 84 101
150 163 181
62 115 96
147 161 181
130 152 181
140 158 181
19 57 78
123 150 140
123 150 140
121 149 140
188 219 199
135 155 181
146 161 181
135 155 181
136 155 181
131 153 181
146 161 181
62 158 160
130 152 181
129 152 181
132 153 181
145 160 181
135 155 181
131 153 181
155 165 181
110 53 61
135 155 181
128 151 181
0 0 0
134 126 101
88 86 72
130 152 181
132 153 181
90 71 64
128 151 181
145 160 181
128 151 181
132 153 181
25 46 53
88 89 90
46 35 22
136 127 101
123 121 101
36 26 11
121 121 101
127 123 101
41 66 116
131 125 101
71 64 57
120 120 101
128 123 101
49 36 16
89 71 40
68 62 57
53 31 9
38 104 113
60 49 28
51 84 61
85 105 99
136 155 181
0 0 0
53 46 28
67 35 9
23 79 95
132 153 181
133 154 181
134 154 181
106 113 143
108 114 143
107 113 143
73 113 153
29 29 35
108 94 64
106 113 143
0 0 0
106 113 143
105 113 143
45 33 92
109 114 143
114 117 143
119 119 143
106 113 143
83 53 130
94 67 184
164 167 203
158 164 203
112 116 143
115 118 143
170 170 203
107 114 143
96 89 114
110 115 143
99 111 111
160 165 203
138 156 181
128 151 181
131 153 181
140 158 181
144 160 181
131 129 127
6 0 8
134 126 101
129 152 181
145 160 181
132 153 181
154 165 181
131 153 181
132 153 181
99 48 66
0 0 0
129 152 181
0 0 0
129 152 181
129 152 181
113 88 232
145 132 162
135 155 181
117 90 232
35 62 146
81 63 164
112 88 232
105 86 232
107 86 232
103 85 232
103 85 232
105 86 232
104 85 232
106 86 232
121 92 232
106 86 232
111 88 232
113 89 232
124 93 232
106 86 232
121 91 232
115 89 232
120 91 232
117 90 232
21 51 174
121 91 232
104 85 232
123 92 232
103 86 181
130 152 181
139 157 181
140 157 181
129 152 181
144 160 181
36 62 92
114 120 127
142 159 181
24 80 95
134 154 181
147 161 181
134 154 181
136 155 181
136 155 181
118 122 127
132 153 181
132 153 181
139 157 181
128 151 181
131 153 181
134 154 181
145 160 181
144 160 181
145 160 181
142 159 181
134 154 181
150 163 181
137 156 181
134 154 181
148 162 181
146 161 181
148 162 181
55 61 126
145 160 181
150 163 181
132 154 181
151 163 181
137 156 181
140 157 181
129 151 181
136 155 181
137 156 181
129 152 181
130 152 181
140 157 181
91 108 99
140 157 181
143 159 181
85 104 99
134 154 181
154 165 181
128 151 181
49 102 96
130 152 181
128 127 127
149 163 181
132 153 181
26 92 122
156 166 181
140 157 181
85 65 164
143 159 181
138 156 181
0 0 0
201 227 199
95 96 55
67 82 138
129 153 140
128 151 181
31 104 59
133 154 181
132 153 181
128 147 123
23 62 30
130 152 181
138 156 181
129 152 181
138 156 181
82 83 72
129 152 181
78 66 95
86 85 72
133 154 181
139 157 181
132 153 181
132 153 181
143 159 181
153 165 181
129 152 181
147 161 181
153 164 181
136 155 181
134 154 181
142 158 181
97 90 72
132 153 181
148 162 181
62 50 28
5 2 0
65 78 110
22 14 4
83 69 40
128 123 101
134 126 101
84 68 45
77 66 57
122 99 57
116 118 101
71 79 87
67 47 92
123 121 101
72 120 77
41 15 2
146 161 181
58 111 96
137 156 181
100 90 80
83 84 72
95 89 72
35 25 18
45 43 57
135 155 181
107 114 143
22 9 20
73 64 57
49 55 87
102 111 143
108 114 143
105 112 143
104 112 143
172 171 203
121 121 143
105 113 143
118 119 143
111 116 143
162 166 203
169 169 203
104 112 143
107 114 143
160 165 203
123 122 143
107 114 143
60 59 80
114 117 143
102 111 143
120 120 143
109 115 143
105 113 143
169 169 203
169 170 203
156 163 203
120 120 143
128 151 181
78 43 83
146 161 181
44 79 76
132 153 181
146 161 181
133 154 181
142 159 181
137 156 181
134 154 181
128 151 181
130 152 181
5 3 11
145 160 181
76 83 90
143 159 181
145 160 181
119 91 232
0 0 0
110 87 232
110 88 232
104 85 232
104 85 232
0 0 0
110 87 232
103 85 232
123 92 232
115 89 232
111 88 232
116 90 232
111 88 232
111 88 232
120 91 232
114 89 232
117 90 232
121 91 232
113 88 232
107 86 232
115 89 232
117 90 232
106 86 232
113 89 232
110 87 232
113 89 232
0 0 0
116 90 232
138 156 181
139 157 181
50 26 149
130 152 181
148 162 181
132 153 181
147 161 181
133 154 181
130 152 181
0 0 0
110 118 127
148 162 181
131 153 181
140 157 181
74 79 101
9 15 40
150 163 181
132 153 181
143 159 181
139 157 181
129 152 181
0 0 0
152 164 181
131 153 181
129 152 181
131 153 181
103 112 143
146 160 181
130 152 181
133 154 181
57 44 116
128 151 181
137 156 181
143 159 181
139 157 181
144 160 181
124 125 127
135 155 181
139 157 181
132 153 181
138 157 181
34 60 92
130 152 181
81 85 90
135 155 181
117 122 127
134 154 181
128 151 181
26 22 22
2 13 9
142 158 181
137 156 181
135 155 181
133 154 181
136 156 181
140 158 181
129 152 181
142 159 181
79 84 90
131 153 181
135 155 181
130 152 181
138 156 181
149 162 181
7 22 36
133 154 181
140 158 181
50 92 23
72 205 177
193 222 199
139 157 181
134 85 155
142 159 181
128 151 181
132 153 181
133 154 181
131 153 181
131 153 181
132 153 181
91 87 72
134 155 181
85 85 72
88 86 72
138 156 181
32 59 92
141 158 181
147 161 181
84 84 72
131 153 181
47 36 22
134 154 181
54 46 28
130 152 181
146 161 181
142 158 181
94 89 72
76 80 101
69 63 57
88 86 72
31 24 13
138 156 181
131 154 140
78 152 136
25 15 4
147 161 181
15 8 1
152 164 181
8 3 0
124 122 101
21 26 20
31 21 10
140 158 181
118 119 101
0 0 0
37 26 18
26 4 0
17 13 11
149 162 181
138 157 181
51 46 64
133 154 181
45 78 112
94 73 64
130 123 70
58 48 28
148 162 181
131 125 101
110 115 143
16 45 23
105 113 143
0 0 0
164 167 203
122 121 143
105 112 143
52 56 48
112 116 143
105 112 143
114 117 143
171 171 203
102 111 143
82 45 87
0 0 0
29 114 117
171 171 203
106 113 143
14 47 76
112 116 143
162 166 203
160 165 203
171 171 203
96 88 114
107 114 143
132 154 181
128 151 181
121 124 127
12 40 49
55 63 69
130 152 181
0 0 0
82 86 90
141 158 181
79 82 101
129 152 181
0 0 0
133 154 181
131 152 181
134 155 181
41 18 20
148 162 181
143 159 181
131 153 181
132 153 181
49 84 86
114 89 232
112 88 232
121 91 232
111 88 232
107 86 232
110 87 232
108 87 232
115 89 232
110 87 232
64 41 36
122 92 232
20 16 112
103 85 232
104 85 232
44 15 99
104 85 232
113 88 232
109 87 232
105 86 232
76 61 164
109 87 232
103 85 232
90 53 110
124 93 232
121 92 232
115 89 232
17 15 98
148 162 181
104 85 232
142 158 181
137 156 181
131 153 181
153 164 181
133 154 181
133 154 181
151 163 181
135 155 181
128 151 181
144 160 181
140 157 181
134 154 181
79 130 24
132 153 181
75 23 86
129 152 181
131 153 181
133 154 181
37 86 66
128 151 181
65 63 71
84 105 155
131 153 181
135 155 181
135 155 181
132 153 181
139 157 181
132 153 181
136 155 181
152 164 181
135 155 181
134 154 181
34 25 18
25 20 15
66 115 77
132 153 181
141 158 181
148 162 181
136 155 181
128 151 181
129 152 181
24 27 31
133 154 181
32 59 71
138 156 181
131 153 181
141 158 181
133 154 181
133 154 181
135 155 181
134 154 181
140 158 181
130 152 181
128 151 181
155 165 181
147 161 181
50 103 96
131 153 181
3 19 23
134 154 181
130 152 181
134 155 181
133 154 181
106 113 143
183 217 199
81 104 121
192 222 199
127 152 140
146 161 181
138 156 181
131 153 181
138 156 181
151 163 181
128 151 181
137 156 181
128 151 181
132 153 181
141 158 181
135 155 181
134 154 181
123 121 101
147 161 181
84 84 72
84 84 72
145 160 181
0 0 0
137 156 181
129 152 181
140 157 181
85 85 72
133 154 181
91 87 72
30 34 14
85 85 72
148 162 181
8 2 1
83 84 72
132 126 162
147 161 181
28 41 38
40 59 54
148 162 181
5 1 26
23 14 4
147 161 181
4 4 1
0 0 0
149 163 181
59 48 28
92 88 72
47 10 21
95 89 72
151 163 181
0 0 0
110 94 80
0 0 0
91 72 64
133 154 181
97 90 114
135 155 181
131 125 101
0 0 0
145 160 181
130 152 181
135 155 181
70 145 136
169 170 203
161 166 203
20 14 40
86 24 97
103 112 143
15 14 27
65 60 90
170 170 203
106 113 143
117 119 143
115 118 143
172 171 203
29 22 79
112 116 143
109 115 143
116 118 143
53 43 159
59 61 87
102 111 143
162 166 203
112 116 143
60 59 80
108 114 143
90 39 59
142 158 181
131 153 181
67 117 122
130 152 181
0 0 0
104 112 143
73 79 101
133 154 181
141 158 181
134 154 181
78 81 101
132 153 181
143 159 181
122 121 143
131 153 181
135 155 181
129 152 181
49 102 96
133 154 181
133 154 181
85 65 164
119 91 232
124 93 232
104 85 232
113 88 232
108 87 232
119 91 232
109 87 232
107 86 232
109 87 232
117 90 232
59 31 208
111 88 232
78 62 164
49 59 175
107 86 232
104 85 232
110 87 232
117 90 232
122 92 232
108 87 232
123 92 232
103 85 232
115 89 232
114 89 232
114 89 232
105 86 232
73 60 164
109 87 232
122 92 232
151 164 181
144 160 181
8 53 55
143 159 181
136 156 181
135 155 181
144 160 181
0 0 0
136 155 181
133 154 181
140 157 181
130 152 181
151 163 181
150 163 181
145 160 181
119 123 127
133 154 181
129 152 181
133 154 181
140 157 181
128 151 181
51 87 130
151 164 181
139 157 181
129 152 181
151 163 181
86 88 25
135 155 181
130 152 181
104 112 143
146 161 181
11 13 15
0 0 0
134 154 181
134 154 181
130 152 181
110 115 143
131 153 181
132 153 181
118 122 127
26 45 65
148 162 181
149 162 181
134 154 181
7 22 46
139 157 181
138 156 181
153 164 181
133 154 181
146 161 181
145 160 181
78 101 155
136 156 181
141 158 181
50 86 130
155 165 181
59 74 54
141 158 181
57 32 7
148 162 181
135 155 181
129 151 181
128 151 181
129 152 181
0 0 0
122 149 140
119 148 140
132 155 140
137 156 181
151 163 181
153 165 181
131 153 181
130 152 181
95 89 72
133 154 181
153 164 181
138 157 181
132 153 181
137 156 181
135 155 181
83 71 18
90 87 72
1 1 125
122 118 78
130 152 181
149 162 181
128 151 181
134 155 181
143 159 181
145 160 181
137 156 181
40 8 11
54 46 28
93 61 23
60 49 28
18 37 79
149 163 181
57 48 28
11 16 26
0 0 0
55 71 110
91 88 72
92 88 72
34 58 38
18 11 3
34 25 11
146 161 181
120 120 143
47 36 22
56 38 25
35 21 6
53 105 96
78 68 50
14 7 2
0 0 0
152 164 181
131 153 181
14 7 1
133 154 181
0 0 0
11 16 11
137 156 181
20 19 27
130 152 181
60 48 32
110 115 143
121 123 128
104 112 143
105 113 143
172 171 203
105 113 143
0 0 0
100 60 123
88 64 184
116 118 143
98 89 114
57 125 127
107 58 74
167 169 203
71 65 120
58 44 130
119 119 143
47 40 159
107 114 143
107 113 143
107 114 143
112 116 143
62 60 80
152 164 181
112 116 143
72 79 101
141 158 181
130 152 181
37 40 44
128 151 181
146 161 181
76 81 101
139 157 181
129 152 181
153 165 181
85 85 101
154 165 181
145 160 181
131 153 181
132 153 181
138 156 181
132 153 181
132 153 181
109 87 232
114 89 232
104 85 232
112 88 232
120 91 232
114 89 232
115 89 232
84 64 164
105 86 232
116 90 232
104 85 232
36 37 69
110 87 232
111 88 232
107 86 232
117 90 232
117 90 232
106 86 232
116 90 232
111 88 232
74 60 164
115 89 232
104 85 232
105 86 232
103 85 232
116 89 232
10 19 66
106 86 232
119 91 232
107 86 232
118 90 232
116 90 232
112 88 232
80 154 136
49 85 130
0 0 0
141 158 181
150 163 181
143 159 181
131 153 181
130 152 181
142 159 181
128 151 181
134 154 181
131 153 181
117 122 127
150 163 181
136 156 181
140 157 181
131 153 181
131 153 181
137 156 181
80 45 74
131 153 181
119 123 127
135 155 181
130 152 181
146 161 181
132 153 181
140 158 181
0 0 0
130 152 181
136 155 181
132 153 181
135 155 181
86 105 99
137 156 181
130 152 181
68 64 19
134 154 181
22 62 30
131 153 181
139 157 181
73 148 136
134 154 181
142 159 181
129 152 181
0 1 8
134 154 181
132 153 181
77 46 90
74 80 101
131 153 181
97 60 109
135 155 181
128 151 181
134 154 181
131 153 181
139 157 181
128 151 181
77 61 164
144 160 181
133 154 181
52 105 96
136 155 181
134 154 181
129 152 181
188 219 199
187 219 199
131 154 140
133 154 181
130 152 181
136 155 181
147 161 181
132 153 181
132 153 181
129 152 181
143 159 181
90 87 72
133 154 181
137 156 181
139 157 181
128 151 181
2 2 2
129 152 181
59 86 94
132 153 181
137 156 181
130 152 181
154 165 181
134 154 181
149 162 181
84 84 72
128 151 181
86 85 72
26 60 72
140 157 181
0 0 0
143 159 181
44 112 113
91 88 72
144 160 181
153 165 181
83 84 72
35 26 11
98 91 72
133 154 181
93 88 72
43 32 92
90 87 72
36 83 64
85 85 72
78 81 101
79 60 33
44 34 22
90 60 23
131 153 181
35 26 11
36 11 5
148 162 181
134 154 181
0 0 0
130 152 181
67 62 57
132 153 181
120 120 143
48 83 54
140 157 181
134 154 181
61 75 110
60 59 80
72 64 91
95 88 114
64 61 80
112 116 143
59 58 80
108 114 143
25 43 116
111 115 143
106 113 143
0 0 0
58 58 80
103 112 143
0 0 0
67 62 80
0 21 17
132 111 44
115 118 143
32 56 61
137 156 181
131 153 181
77 81 101
134 126 101
44 42 57
83 84 101
136 155 181
44 12 43
130 152 181
137 156 181
74 80 101
132 153 181
147 161 181
133 154 181
134 154 181
99 112 99
114 120 127
154 165 181
142 159 181
134 154 181
111 88 232
107 86 232
122 92 232
112 88 232
54 37 65
119 91 232
103 85 232
112 88 232
106 86 232
120 91 232
125 93 232
122 92 232
51 90 207
121 91 232
113 88 232
112 88 232
103 85 232
28 23 114
123 92 232
73 60 164
125 93 232
124 93 232
124 93 232
0 0 0
123 92 232
123 92 232
42 34 162
0 0 0
88 66 164
125 93 232
11 6 73
106 86 232
109 87 232
71 60 128
115 89 232
113 89 232
53 43 116
120 91 232
67 52 45
129 152 181
147 161 181
133 154 181
129 152 181
143 159 181
140 158 181
146 161 181
144 159 181
133 154 181
128 151 181
134 154 181
140 158 181
111 119 127
138 156 181
137 156 181
132 153 181
139 157 181
130 152 181
136 155 181
87 87 89
137 158 140
130 152 181
131 153 181
145 160 181
141 158 181
133 154 181
85 87 90
74 79 101
132 153 181
132 153 181
139 157 181
131 153 181
119 123 127
131 153 181
141 158 181
147 161 181
52 88 130
139 157 181
129 152 181
132 153 181
130 152 181
137 156 181
129 151 181
147 161 181
136 155 181
135 155 181
128 151 181
151 164 181
128 151 181
139 157 181
148 162 181
131 153 181
138 156 181
92 108 99
139 157 181
133 154 181
0 0 0
189 220 199
0 0 0
189 220 199
175 213 199
179 214 199
131 153 181
132 123 78
66 62 57
135 155 181
129 152 181
57 152 160
131 153 181
130 152 181
87 86 72
147 161 181
131 153 181
136 155 181
135 155 181
120 120 101
133 126 101
73 66 50
137 156 181
135 155 181
144 159 181
133 154 181
21 77 83
135 155 181
136 155 181
132 153 181
83 84 72
148 162 181
9 10 11
85 85 72
133 154 181
143 159 181
147 162 181
139 157 181
128 151 181
76 44 87
94 89 72
132 153 181
140 158 181
129 152 181
69 78 87
85 105 155
14 6 2
133 154 181
94 89 72
133 154 181
49 102 96
57 25 33
134 126 101
135 155 181
87 86 72
146 161 181
84 84 101
75 35 74
137 156 181
131 153 181
86 85 72
128 151 181
155 166 181
130 152 181
106 33 122
38 104 113
139 157 181
67 51 51
72 147 136
167 169 203
23 26 49
119 120 143
114 117 143
113 117 143
33 27 12
107 114 143
0 0 0
172 171 203
67 62 80
105 113 143
61 59 80
0 0 2
110 115 143
66 62 80
143 159 181
149 163 181
75 72 28
152 164 181
15 12 18
83 72 104
148 162 181
38 104 113
25 22 32
71 18 77
18 10 22
34 93 54
0 0 0
135 155 181
79 82 101
128 151 181
143 159 181
129 152 181
74 79 101
82 156 136
140 157 181
75 61 164
110 87 232
116 90 232
60 41 158
107 86 232
75 61 164
109 87 232
119 91 232
76 61 164
122 92 232
113 89 232
125 93 232
48 59 175
122 92 232
81 63 164
105 85 232
121 91 232
107 86 232
119 91 232
118 91 232
107 86 232
111 88 232
114 89 232
107 86 232
10 19 66
109 87 232
106 86 232
116 90 232
109 87 232
114 89 232
120 91 232
120 91 232
73 60 164
116 90 232
113 88 232
14 7 29
139 157 181
132 153 181
131 153 181
146 161 181
131 153 181
47 84 130
137 156 181
135 155 181
151 163 181
52 89 130
135 155 181
72 71 28
132 153 181
132 153 181
0 0 0
137 156 181
150 163 181
137 156 181
136 155 181
135 155 181
131 153 181
142 159 181
132 153 181
136 155 181
129 152 181
7 7 7
132 153 181
131 153 181
3 3 3
131 153 181
71 70 28
136 155 181
146 161 181
130 152 181
131 129 127
134 154 181
135 155 181
60 155 160
129 152 181
152 164 181
133 154 181
139 157 181
142 158 181
128 151 181
136 155 181
149 162 181
147 161 181
136 155 181
140 158 181
34 18 105
137 156 181
134 154 181
151 164 181
132 153 181
133 154 181
140 157 181
139 157 181
130 152 181
146 160 181
138 156 181
128 151 181
80 81 50
119 148 140
140 159 140
202 228 199
141 158 181
138 156 181
153 165 181
133 154 181
130 152 181
130 152 181
145 160 181
144 159 181
134 154 181
134 154 181
132 153 181
146 161 181
143 159 181
152 164 181
145 160 181
142 158 181
141 158 181
130 152 181
130 152 181
145 160 181
51 42 34
145 160 181
42 67 92
149 162 181
129 152 181
150 163 181
131 153 181
132 153 181
143 159 181
138 156 181
53 46 28
141 158 181
0 8 15
146 161 181
142 158 181
79 82 101
138 157 181
93 88 72
130 152 181
88 86 72
77 66 57
86 85 72
148 162 181
85 85 72
143 159 181
130 152 181
73 64 57
0 0 0
12 6 1
121 124 127
142 158 181
93 89 72
65 61 57
132 153 181
136 156 181
134 154 181
128 151 181
129 152 181
139 129 162
56 47 28
83 84 101
75 80 101
46 32 18
165 167 203
117 119 144
39 29 31
58 44 100
71 66 71
62 60 80
52 45 64
103 112 143
2 1 2
143 86 174
109 114 143
83 84 101
73 79 101
104 112 143
59 45 116
143 159 181
87 86 101
151 164 181
75 80 101
85 61 117
142 159 181
45 43 57
133 154 181
130 152 181
133 154 181
130 152 181
133 154 181
74 80 101
117 100 72
130 152 181
139 157 181
128 151 181
130 152 181
142 158 181
32 40 124
112 88 232
74 60 164
103 85 232
107 71 131
110 87 232
118 90 232
115 89 232
112 88 232
108 87 232
119 91 232
107 86 232
106 86 232
111 88 232
76 61 164
117 90 232
109 87 232
122 92 232
114 89 232
111 88 232
114 89 232
83 64 164
120 91 232
113 88 232
114 89 232
0 0 0
75 61 164
111 88 232
107 86 232
110 87 232
115 89 232
108 87 232
119 91 232
115 89 232
112 88 232
96 48 125
117 90 232
19 8 47
133 154 181
140 157 181
147 161 181
37 118 135
128 151 181
81 83 101
88 87 114
96 111 99
110 118 127
156 166 181
139 157 181
135 155 181
128 151 181
129 151 181
142 158 181
144 160 181
128 151 181
131 129 127
131 153 181
130 152 181
149 162 181
137 156 181
149 162 181
149 163 181
149 162 181
91 108 99
134 154 181
132 153 181
136 155 181
139 157 181
153 164 181
142 158 181
140 157 181
131 153 181
131 153 181
132 153 181
128 151 181
130 152 181
128 151 181
132 153 181
151 164 181
138 156 181
151 164 181
0 0 0
119 148 140
132 153 181
133 154 181
132 153 181
136 155 181
129 152 181
142 159 181
139 157 181
138 156 181
5 4 0
144 159 181
133 154 181
135 155 181
63 76 54
130 152 181
130 152 181
10 10 11
41 83 70
136 155 181
124 150 140
135 157 140
132 153 181
129 124 162
136 88 33
140 157 181
142 159 181
139 157 181
150 163 181
133 154 181
12 5 97
130 152 181
132 153 181
137 156 181
131 153 181
106 93 80
145 160 181
134 154 181
141 158 181
147 161 181
90 87 72
149 162 181
120 97 85
141 158 181
92 91 90
129 152 181
128 151 181
84 84 72
139 157 181
128 151 181
142 159 181
135 155 181
148 162 181
142 158 181
133 154 181
135 155 181
137 156 181
147 161 181
95 89 72
0 1 0
137 156 181
148 162 181
142 158 181
3 1 2
85 85 72
129 152 181
128 151 181
86 85 72
55 38 25
83 45 83
49 44 40
145 160 181
138 156 181
147 161 181
132 125 101
12 7 4
0 0 0
44 42 57
143 159 181
78 81 101
80 82 101
58 44 47
60 61 71
127 123 101
24 38 54
73 148 136
43 42 57
80 85 90
73 65 91
38 32 32
26 22 32
68 63 80
108 114 143
148 162 181
113 117 143
77 66 91
27 23 32
0 0 0
81 83 101
83 84 101
0 0 0
151 134 162
76 81 101
0 0 0
0 0 0
53 30 78
66 115 108
131 153 181
74 80 101
129 152 181
135 155 181
151 163 181
132 153 181
131 153 181
128 151 181
152 164 181
129 152 181
134 154 181
145 160 181
107 86 232
76 61 164
77 61 164
114 89 232
83 64 164
33 10 16
114 89 232
103 85 232
121 91 232
41 31 92
120 91 232
117 90 232
81 63 164
113 88 232
122 92 232
0 0 7
77 50 92
76 61 164
125 93 232
19 5 175
119 91 232
107 86 232
117 90 232
74 52 92
118 90 232
104 85 232
104 85 232
107 86 232
109 87 232
124 93 232
0 0 0
114 89 232
82 63 164
114 89 232
120 91 232
45 5 80
30 17 105
113 89 232
115 89 232
134 154 181
139 157 181
130 152 181
132 153 181
137 128 162
148 162 181
131 153 181
72 146 136
110 118 127
131 153 181
134 154 181
146 161 181
130 152 181
149 162 181
141 158 181
97 112 99
131 153 181
133 154 181
135 155 181
133 154 181
143 159 181
131 129 35
148 162 181
137 156 181
55 31 23
139 157 181
26 91 105
131 153 181
133 154 181
136 155 181
137 156 181
130 152 181
142 159 181
148 162 181
137 156 181
136 155 181
149 162 181
129 152 181
52 42 116
92 90 118
36 49 30
129 152 181
85 57 85
47 84 130
128 151 181
129 152 181
131 153 181
129 151 181
124 157 67
136 157 140
134 154 181
140 158 181
129 152 181
141 158 181
136 155 181
146 161 181
136 155 181
130 152 181
46 24 32
145 160 181
196 224 199
143 159 181
82 104 77
135 156 140
137 156 181
130 152 181
141 158 181
138 156 181
133 154 181
136 155 181
154 165 181
126 123 101
130 152 181
132 153 181
127 123 101
133 154 181
136 155 181
132 153 181
150 163 181
134 154 181
131 153 181
1 7 6
120 120 101
16 2 4
131 153 181
128 151 181
137 128 101
23 14 4
128 151 181
128 151 181
129 152 181
148 162 181
143 159 181
92 88 72
137 128 101
128 151 181
92 88 72
137 156 181
129 152 181
144 159 181
130 152 181
128 151 181
35 112 59
91 87 72
5 3 4
129 152 181
148 162 181
120 120 143
21 17 18
129 152 181
89 20 98
130 152 181
129 152 181
142 159 181
53 43 116
73 79 101
42 34 22
154 165 181
141 158 181
140 158 181
148 162 181
54 47 28
146 161 181
85 85 101
36 83 90
41 41 57
86 85 101
76 64 31
79 82 101
47 43 57
51 37 15
141 158 181
26 22 32
1 0 1
14 11 18
7 6 10
4 3 5
121 64 118
44 42 57
82 83 101
81 83 101
41 41 57
0 0 0
140 158 181
74 80 101
13 6 42
135 155 181
132 153 181
1 0 1
150 163 181
133 154 181
135 155 181
130 152 181
136 155 181
141 158 181
132 153 181
131 153 181
127 152 140
133 154 181
136 156 181
134 154 181
135 155 181
118 90 232
0 0 0
32 60 146
103 85 232
124 93 232
117 90 232
76 61 164
68 23 140
113 89 232
83 64 164
120 91 232
107 86 232
111 88 232
122 92 232
75 61 164
52 60 175
109 87 232
109 87 232
106 86 232
118 90 232
45 25 149
28 23 114
108 87 232
118 90 232
114 89 232
124 93 232
75 61 164
21 61 134
103 85 232
0 0 0
125 93 232
82 63 164
114 89 232
114 89 232
104 85 232
120 91 232
113 89 232
117 90 232
86 88 90
118 90 232
122 105 25
133 154 181
137 156 181
135 155 181
130 152 181
132 153 181
140 158 181
148 162 181
150 163 181
121 148 140
137 156 181
150 163 181
136 155 181
115 121 127
136 155 181
73 79 101
131 153 181
132 153 181
131 153 181
143 159 181
136 155 181
139 157 181
146 161 181
58 51 3
135 155 181
128 151 181
147 161 181
132 153 181
133 154 181
136 155 181
132 153 181
136 155 181
144 160 181
138 156 181
141 158 181
134 154 181
143 159 181
136 155 181
97 93 25
137 156 181
143 159 181
133 154 181
145 160 181
139 157 181
136 156 181
142 158 181
132 153 181
130 152 181
115 118 55
139 157 181
130 152 181
143 159 181
36 41 26
128 151 181
145 160 181
137 156 181
143 159 181
131 153 181
135 155 181
142 158 181
199 226 199
138 156 181
152 164 181
146 161 181
90 87 72
135 155 181
17 16 179
131 152 181
144 160 181
129 152 181
143 159 181
128 151 181
152 164 181
141 158 181
130 152 181
132 153 181
137 156 181
136 155 181
130 152 181
129 152 181
136 155 181
132 153 181
137 156 181
131 153 181
131 153 181
132 153 181
25 70 46
142 159 181
152 164 181
155 166 181
133 154 181
145 160 181
129 152 181
135 127 101
132 102 85
150 163 181
129 152 181
75 80 101
131 153 181
137 156 181
130 152 181
73 98 155
128 151 181
138 156 181
128 151 181
147 161 181
131 153 181
138 157 181
141 158 181
155 166 181
152 164 181
132 153 181
136 155 181
136 155 181
131 153 181
131 153 181
113 117 143
74 80 101
135 155 181
74 80 101
137 156 181
58 47 45
45 43 57
61 105 136
87 86 72
46 43 57
38 11 48
80 83 101
54 48 57
46 23 48
81 83 101
8 6 10
41 41 57
82 83 101
102 78 117
75 80 101
151 163 181
17 4 21
42 41 57
140 157 181
85 85 101
143 159 181
121 120 143
45 82 130
147 161 181
133 154 181
141 158 181
144 160 181
122 124 127
145 160 181
70 34 66
102 112 111
137 156 181
107 60 118
141 158 181
139 157 181
132 153 181
130 152 181
130 152 181
131 153 181
140 157 181
118 90 232
52 23 99
76 61 164
80 63 164
106 86 232
32 60 146
73 60 164
16 37 123
107 86 232
113 88 232
106 86 232
113 88 232
74 60 164
6 4 40
13 7 73
114 89 232
114 89 232
108 87 232
20 16 81
66 58 200
108 87 232
0 0 0
107 86 232
78 62 164
46 35 162
114 89 232
109 87 232
114 89 232
44 33 82
99 61 51
10 25 87
11 26 87
123 92 232
113 88 232
116 90 232
112 88 232
79 62 164
150 163 181
143 159 181
133 154 181
150 163 181
140 86 155
132 153 181
147 161 181
61 46 116
147 161 181
139 157 181
109 33 122
148 162 181
143 159 181
133 154 181
145 160 181
148 162 181
139 157 181
144 160 181
131 153 181
132 153 181
145 160 181
134 154 181
136 155 181
138 157 181
139 157 181
128 151 181
130 152 181
54 43 116
21 68 95
130 152 181
128 151 181
133 154 181
136 156 181
142 159 181
91 80 114
130 152 181
57 73 54
137 156 181
133 154 181
146 161 181
92 108 99
146 161 181
34 60 71
134 154 181
129 151 181
134 154 181
137 156 181
138 156 181
133 154 181
136 156 181
131 153 181
4 0 54
130 152 181
128 151 181
139 157 181
149 162 181
78 46 109
39 33 44
145 160 181
39 120 135
130 152 181
138 156 181
186 218 199
144 161 140
130 152 181
141 158 181
136 156 181
131 153 181
135 155 181
143 159 181
30 27 100
145 160 181
130 152 181
134 154 181
18 108 101
134 154 181
144 160 181
139 157 181
142 159 181
139 157 181
92 88 72
32 20 14
135 155 181
133 154 181
137 156 181
114 114 78
134 154 181
94 89 72
142 158 181
143 159 181
131 153 181
130 152 181
51 88 130
0 0 0
141 158 181
131 153 181
131 153 181
144 160 181
130 152 181
142 158 181
135 155 181
129 151 181
98 31 122
136 155 181
130 152 181
76 151 136
56 72 110
55 38 16
41 41 44
133 154 181
141 158 181
131 153 181
130 152 181
32 79 90
131 153 181
131 125 101
136 155 181
78 67 57
76 80 101
141 158 181
131 153 181
74 79 101
24 21 32
133 154 181
137 156 181
4 3 5
42 41 57
61 54 62
29 20 32
78 81 101
0 0 0
23 21 32
6 23 18
4 1 5
43 32 92
44 42 57
13 11 18
117 122 127
148 162 181
61 61 71
71 15 78
152 164 181
76 43 83
73 79 101
150 163 181
150 163 181
76 83 90
130 152 181
75 80 101
133 154 181
134 154 181
148 162 181
137 156 181
153 164 181
75 61 164
78 81 101
129 152 181
153 165 181
139 157 181
75 23 86
144 159 181
130 152 181
48 102 96
73 79 101
111 88 232
119 91 232
73 60 164
6 0 145
73 56 108
104 85 232
74 60 164
89 52 110
109 87 232
115 89 232
39 33 162
109 87 232
117 90 232
26 23 159
108 87 232
77 61 164
72 45 52
73 60 164
6 29 71
75 61 164
124 93 232
81 63 164
105 86 232
103 85 232
107 86 232
0 0 0
107 86 232
103 85 232
72 60 164
111 88 232
124 93 232
114 89 232
112 88 232
112 88 232
118 90 232
107 86 232
81 63 164
132 153 181
135 155 181
144 159 181
135 155 181
131 134 80
131 125 77
134 154 181
150 163 181
152 164 181
146 161 181
152 164 181
130 152 181
142 159 181
135 155 181
135 155 181
129 152 181
141 158 181
138 156 181
136 155 181
132 153 181
128 127 127
146 161 181
148 162 181
86 20 98
142 158 181
147 161 181
80 44 83
135 155 181
137 156 181
130 152 181
144 160 181
145 160 181
80 141 62
134 154 181
136 156 181
132 153 181
129 152 181
132 153 181
136 155 181
140 158 181
6 8 11
134 154 181
128 151 181
129 152 181
140 157 181
129 152 181
129 152 181
146 161 181
148 162 181
134 155 181
142 158 181
130 152 181
132 153 181
141 158 181
130 152 181
149 162 181
132 153 181
130 152 181
132 153 181
135 155 181
123 150 140
138 156 181
122 149 140
110 143 220
132 153 181
61 46 116
41 52 37
133 154 181
124 119 78
130 152 181
131 153 181
107 116 128
133 154 181
134 126 101
144 160 181
140 158 181
139 157 181
144 160 181
133 154 181
133 154 181
141 158 181
28 8 0
147 161 181
56 149 160
131 153 181
134 154 181
130 152 181
130 152 181
92 108 99
132 153 181
142 159 181
131 153 181
131 153 181
133 154 181
129 152 181
145 160 181
146 161 181
140 157 181
132 153 181
139 157 181
135 155 181
135 155 181
142 158 181
128 151 181
131 153 181
129 152 181
134 154 181
85 85 72
135 155 181
142 159 181
63 88 74
136 155 181
145 160 181
140 157 181
44 110 127
143 159 181
121 64 118
134 154 181
43 42 57
129 152 181
130 152 181
19 53 69
133 154 181
19 16 37
114 62 118
42 41 57
0 0 0
81 85 90
73 79 101
153 164 181
18 28 43
42 41 57
26 23 32
74 79 101
79 82 101
30 22 65
130 152 181
74 79 101
37 32 45
73 79 101
133 154 181
44 40 41
86 85 101
81 83 101
83 84 101
125 123 143
58 73 110
74 98 155
96 109 111
135 155 181
80 62 164
132 153 181
37 26 31
140 157 181
42 42 57
31 37 61
138 156 181
77 81 101
144 160 181
68 62 80
128 151 181
114 89 232
85 65 164
110 88 232
1 28 43
75 61 164
115 89 232
117 90 232
19 16 81
119 91 232
62 47 116
75 61 164
108 87 232
123 92 232
116 90 232
119 91 232
54 53 98
113 89 232
119 91 232
73 60 164
80 54 92
16 46 94
112 88 232
112 88 232
111 88 232
108 87 232
104 85 232
119 91 232
81 63 164
110 87 232
2 0 120
0 0 36
105 86 232
36 19 5
114 89 232
112 88 232
74 60 164
20 16 81
121 91 232
146 161 181
113 88 232
131 153 181
131 153 181
130 152 181
142 158 181
128 151 181
135 155 181
130 152 181
139 157 181
140 157 181
138 157 181
135 155 181
72 60 164
137 156 181
137 156 181
130 152 181
134 155 181
131 153 181
149 162 181
130 152 181
148 162 181
134 154 181
140 158 181
141 158 181
110 119 127
134 154 181
136 155 181
136 155 181
88 106 99
131 153 181
136 155 181
91 4 76
140 157 181
133 154 181
130 152 181
139 157 181
81 102 155
135 155 181
135 155 181
146 161 181
138 156 181
132 153 181
136 156 181
122 149 140
130 152 181
138 156 181
134 154 181
129 152 181
128 151 181
134 155 181
131 153 181
137 156 181
117 122 127
146 161 181
91 108 99
131 153 181
12 22 16
132 153 181
139 157 181
123 150 140
131 153 181
137 156 181
141 158 181
123 150 220
32 51 12
130 152 181
130 152 181
152 164 181
129 151 181
142 158 181
133 154 181
145 160 181
124 122 101
47 36 22
145 160 181
133 154 181
82 82 55
132 153 181
137 156 181
142 159 181
145 160 181
86 85 72
134 154 181
130 152 181
143 159 181
144 160 181
140 157 181
152 164 181
150 163 181
134 154 181
141 158 181
141 158 181
140 159 140
131 153 181
34 83 80
143 159 181
140 157 181
138 156 181
153 165 181
131 153 181
135 155 181
108 118 127
130 152 181
135 155 181
130 152 181
148 162 181
129 152 181
137 156 181
133 154 181
128 151 181
28 19 12
132 153 181
149 163 181
129 152 181
74 80 101
144 160 181
76 81 101
80 82 101
86 65 164
147 161 181
152 164 181
75 65 57
131 153 181
139 157 181
131 153 181
8 14 16
84 84 101
132 86 33
133 154 181
141 158 181
77 81 101
139 157 181
130 152 181
80 82 101
151 163 181
134 154 181
36 32 40
75 80 101
122 121 143
79 62 164
134 154 181
129 152 181
43 74 96
138 157 181
82 84 101
131 153 181
129 152 181
128 151 181
146 161 181
86 85 101
144 160 181
128 151 181
45 83 130
131 153 181
142 158 181
129 152 181
73 79 101
0 0 0
81 83 101
42 41 57
131 153 181
123 92 232
106 86 232
115 89 232
106 86 232
73 60 164
104 85 232
87 65 164
108 87 232
75 61 164
117 90 232
118 90 232
120 91 232
106 86 232
121 91 232
74 60 164
118 91 232
41 33 162
105 86 232
123 92 232
29 23 114
74 49 64
106 86 232
90 59 51
83 63 164
74 60 164
0 0 64
107 86 232
111 88 232
78 62 164
116 90 232
123 92 232
74 60 164
116 90 232
106 86 232
122 92 232
78 62 164
75 61 164
75 17 158
113 88 232
148 162 181
131 153 181
141 158 181
131 153 181
128 151 181
139 157 181
140 158 181
83 64 164
141 158 181
140 158 181
140 157 181
135 155 181
139 157 181
136 155 181
131 153 181
134 154 181
35 60 92
129 151 181
143 159 181
136 155 181
148 133 162
131 153 181
0 0 0
130 152 181
134 154 181
121 121 143
78 84 90
32 59 92
137 156 181
142 159 181
140 158 181
134 154 181
145 160 181
135 155 181
130 152 181
133 154 181
129 152 181
140 158 181
129 152 181
144 160 181
147 161 181
134 154 181
113 120 127
128 151 181
145 160 181
143 159 181
135 155 181
134 155 181
101 115 99
0 0 0
129 152 181
132 153 181
131 153 181
123 125 127
131 154 140
130 152 181
136 156 181
131 153 181
38 44 124
128 151 181
88 107 99
139 157 181
131 153 181
139 157 181
139 157 181
0 0 0
149 162 181
130 152 181
131 153 181
130 152 181
135 155 181
131 153 181
133 154 181
137 156 181
54 38 16
130 152 181
87 85 72
133 154 181
148 162 181
86 85 72
132 153 181
132 153 181
142 159 181
81 44 83
75 80 101
132 153 181
132 153 181
139 157 181
86 106 155
143 159 181
128 151 181
135 155 181
131 153 181
131 153 181
133 154 181
143 159 181
133 154 181
133 154 181
85 85 72
143 159 181
38 43 89
131 153 181
129 152 181
148 162 181
130 128 127
143 159 181
135 155 181
131 153 181
146 161 181
134 154 181
128 151 181
138 156 181
131 153 181
140 157 181
113 116 143
147 161 181
129 152 181
43 42 57
138 156 181
135 155 181
73 79 101
129 152 181
131 153 181
133 154 181
80 82 101
39 105 113
113 117 143
12 28 35
141 158 181
146 161 181
141 158 181
152 164 181
50 62 11
0 0 0
132 153 181
144 160 181
77 81 101
134 155 181
128 151 181
135 155 181
85 85 101
129 152 181
73 79 101
134 154 181
147 161 181
134 154 181
139 157 181
0 0 0
137 156 181
144 159 181
0 0 0
76 80 101
134 154 181
134 154 181
130 152 181
0 0 0
58 44 130
44 42 57
118 63 118
131 153 181
123 92 232
131 152 181
121 91 232
103 85 232
116 90 232
73 60 164
106 86 232
74 60 164
0 0 48
121 91 232
114 89 232
75 61 164
117 90 232
61 25 116
39 20 14
124 93 232
106 86 232
114 89 232
80 62 164
75 61 164
121 92 232
77 62 164
117 90 232
117 90 232
0 0 30
85 64 164
82 63 164
112 88 232
113 89 232
112 88 232
120 91 232
31 5 17
61 32 208
78 62 164
110 87 232
115 89 232
22 63 134
76 61 164
83 64 164
75 61 164
111 88 232
138 156 181
146 160 181
138 156 181
139 157 181
130 152 181
133 154 181
132 153 181
133 154 181
147 161 181
137 156 181
156 166 181
136 155 181
143 159 181
138 156 181
147 161 181
139 157 181
133 154 181
131 153 181
133 154 181
142 158 181
128 151 181
129 152 181
136 155 181
107 33 122
128 151 181
137 156 181
143 159 181
139 157 181
130 152 181
146 161 181
42 66 90
132 153 181
141 158 181
151 163 181
156 166 181
132 153 181
133 154 181
137 156 181
134 154 181
151 163 181
147 161 181
134 154 181
131 154 140
144 160 181
145 160 181
154 165 181
131 153 181
141 158 181
133 154 181
137 156 181
88 106 99
148 162 181
73 147 136
129 152 181
135 155 181
86 105 99
130 154 140
76 61 164
86 105 99
142 158 181
147 161 181
134 154 181
123 151 220
135 155 181
145 160 181
131 152 181
57 102 136
142 158 181
133 154 181
150 163 181
140 158 181
136 155 181
129 151 181
131 153 181
86 85 72
132 153 181
131 83 155
131 153 181
137 156 181
143 159 181
129 152 181
133 154 181
140 157 181
131 153 181
55 47 28
26 22 22
148 162 181
41 66 92
129 152 181
132 153 181
130 152 181
102 91 80
128 151 181
147 161 181
14 36 51
116 121 127
132 153 181
138 157 181
147 161 181
84 73 40
147 161 181
134 154 181
156 166 181
132 153 181
133 154 181
137 156 181
144 160 181
142 159 181
141 158 181
140 157 181
131 153 181
7 3 9
132 153 181
129 152 181
74 79 101
146 161 181
147 161 181
40 87 64
142 159 181
134 155 181
150 163 181
133 154 181
74 80 101
128 151 181
137 156 181
150 163 181
141 158 181
118 119 143
119 120 143
47 43 57
144 160 181
136 155 181
126 99 85
38 62 53
136 155 181
130 152 181
138 156 181
136 155 181
28 93 135
142 159 181
73 79 101
150 163 181
135 155 181
136 155 181
132 153 181
142 158 181
128 151 181
32 86 75
133 154 181
142 158 181
137 156 181
136 155 181
146 161 181
141 158 181
132 153 181
129 152 181
130 152 181
141 158 181
130 152 181
134 154 181
129 152 181
29 27 100
73 60 164
15 4 124
75 61 164
28 23 114
31 59 146
126 93 232
65 57 200
122 92 232
112 88 232
107 86 232
114 89 232
111 88 232
88 66 164
73 60 164
95 54 110
75 61 164
117 90 232
125 93 232
76 61 164
108 87 232
12 6 73
84 64 164
106 86 232
106 86 232
116 89 232
113 89 232
123 92 232
84 64 164
125 93 232
121 91 232
117 90 232
105 86 232
123 92 232
114 89 232
115 89 232
71 44 36
136 155 181
131 153 181
132 153 181
129 152 181
141 158 181
140 157 181
130 152 181
137 156 181
140 157 181
133 154 181
96 111 99
134 154 181
136 155 181
140 158 181
137 156 181
132 153 181
134 154 181
132 153 181
136 155 181
6 7 114
131 153 181
130 152 181
138 156 181
129 152 181
132 153 181
138 156 181
44 69 92
133 154 181
20 20 13
153 165 181
133 154 181
128 151 181
48 20 19
147 161 181
133 154 181
143 159 181
143 159 181
148 162 181
147 161 181
128 151 181
128 151 181
132 153 181
130 152 181
136 155 181
134 154 181
137 156 181
133 154 181
151 163 181
33 18 105
136 155 181
135 155 181
130 152 181
130 152 181
129 152 181
145 160 181
133 154 181
131 153 181
86 105 99
135 155 181
70 81 70
128 151 181
136 155 181
96 111 99
136 155 181
125 152 220
122 150 220
129 152 181
139 157 181
96 90 72
131 153 181
131 153 181
129 152 181
133 154 181
125 122 101
130 152 181
144 160 181
136 155 181
131 153 181
83 64 164
132 153 181
145 160 181
146 160 181
138 157 181
144 159 181
151 163 181
135 155 181
128 151 181
46 114 113
130 152 181
152 164 181
149 163 181
146 160 181
143 159 181
142 159 181
73 79 101
0 0 0
140 157 181
132 153 181
134 154 181
129 152 181
53 49 45
130 152 181
129 152 181
36 57 68
83 80 37
154 165 181
139 157 181
128 151 181
128 151 181
130 152 181
10 10 11
147 161 181
80 82 101
86 85 72
139 157 181
129 152 181
131 153 181
145 160 181
32 58 92
87 106 155
130 152 181
76 80 101
132 153 181
130 152 181
128 151 181
133 154 181
140 157 181
149 163 181
133 154 181
130 152 181
129 152 181
141 158 181
42 41 57
0 0 0
83 84 101
145 160 181
130 152 181
132 153 181
131 153 181
143 159 181
73 79 101
145 160 181
78 43 83
129 152 181
145 160 181
84 84 101
131 152 181
130 152 181
133 154 181
139 129 101
0 0 0
128 151 181
133 154 181
37 67 61
83 84 101
130 152 181
128 151 181
132 153 181
135 155 181
129 152 181
149 162 181
107 47 199
75 61 164
118 90 232
80 62 164
47 25 149
121 91 232
120 91 232
54 62 175
4 2 1
73 60 164
74 60 164
113 88 232
106 86 232
108 87 232
111 88 232
75 61 164
114 89 232
73 60 164
75 61 164
113 89 232
114 89 232
118 91 232
123 93 232
109 87 232
114 89 232
113 89 232
123 92 232
78 62 164
18 9 104
123 92 232
75 61 164
31 17 105
117 90 232
0 0 0
20 16 81
86 65 164
113 89 232
112 88 232
80 62 164
120 91 232
142 159 181
146 160 181
134 154 181
134 154 181
83 157 136
131 153 181
140 157 181
136 155 181
133 154 181
128 151 181
136 155 181
129 152 181
92 109 99
129 152 181
128 151 181
136 155 181
150 163 181
132 153 181
128 151 181
128 151 181
6 4 2
130 152 181
153 164 181
132 153 181
88 65 164
137 156 181
132 153 181
129 152 181
129 152 181
129 152 181
140 157 181
58 73 54
132 153 181
130 152 181
129 152 181
136 155 181
129 152 181
133 154 181
151 163 181
47 54 63
132 153 181
129 152 181
132 153 181
48 101 96
128 151 181
148 162 181
91 108 99
137 156 181
78 85 70
143 159 181
154 165 181
128 151 181
134 154 181
97 112 99
128 152 140
0 0 0
132 154 181
136 155 181
110 117 111
147 161 181
73 82 70
134 154 181
98 112 99
111 143 220
103 138 220
78 101 155
149 162 181
79 101 155
129 152 181
129 152 181
132 153 181
131 153 181
140 157 181
135 155 181
136 155 181
131 153 181
134 154 181
55 23 25
59 60 93
137 156 181
78 101 155
130 152 181
136 155 181
130 152 181
130 152 181
132 153 181
40 33 32
92 75 104
65 34 10
154 165 181
144 160 181
132 153 181
134 154 181
144 160 181
132 153 181
44 42 57
150 163 181
41 41 57
99 49 83
137 156 181
0 0 0
139 157 181
128 151 181
132 153 181
136 156 181
134 154 181
128 151 181
147 161 181
128 151 181
132 153 181
133 154 181
148 162 181
136 155 181
134 154 181
41 33 32
119 120 101
135 155 181
140 158 181
81 83 101
132 125 101
133 154 181
128 151 181
150 163 181
91 80 114
149 162 181
132 153 181
129 152 181
134 154 181
147 161 181
44 28 58
77 81 101
63 62 107
145 160 181
144 160 181
128 151 181
130 152 181
144 159 181
131 153 181
79 82 101
131 153 181
148 162 181
141 158 181
28 6 21
151 164 181
128 151 181
133 154 181
130 152 181
131 153 181
132 153 181
76 81 101
135 155 181
130 152 181
130 152 181
143 159 181
146 161 181
133 154 181
84 64 164
134 154 181
141 158 181
150 163 181
137 156 181
114 89 232
78 62 164
77 61 164
111 88 232
115 89 232
110 88 232
81 63 164
77 61 164
76 61 164
75 61 164
83 64 164
112 56 154
107 86 232
45 57 175
73 60 164
110 88 232
86 65 164
114 89 232
77 61 164
122 92 232
40 33 162
82 63 164
116 90 232
114 89 232
119 91 232
77 61 164
74 60 164
43 34 162
110 88 232
76 61 164
108 87 232
74 60 164
113 89 232
46 35 162
29 24 114
111 88 232
46 25 149
76 62 128
122 92 232
56 12 111
139 157 181
129 152 181
137 156 181
147 161 181
128 151 181
130 152 181
132 153 181
130 152 181
128 151 181
138 157 181
151 163 181
1 0 0
133 154 181
133 154 181
139 157 181
138 156 181
129 152 181
131 153 181
141 158 181
133 154 181
54 43 116
150 163 181
143 159 181
128 151 181
132 153 181
129 152 181
149 162 181
148 162 181
129 152 181
148 162 181
134 154 181
131 153 181
132 153 181
153 164 181
134 154 181
7 6 63
132 153 181
137 156 181
148 162 181
135 155 181
128 151 181
131 153 181
134 154 181
127 127 127
131 153 181
141 160 140
53 43 116
129 152 181
135 155 181
85 105 99
132 153 181
130 152 181
153 165 181
130 152 181
67 79 54
150 163 181
140 157 181
1 80 27
130 152 181
112 119 127
137 156 181
132 153 181
109 142 220
120 149 220
106 140 220
133 154 181
85 64 164
130 152 181
140 157 181
126 101 91
130 152 181
148 162 181
133 154 181
130 152 181
144 160 181
147 161 181
138 156 181
132 153 181
97 90 72
132 153 181
136 156 181
145 160 181
140 157 181
136 156 181
130 152 181
134 154 181
137 156 181
146 161 181
112 116 143
132 153 181
81 63 164
152 164 181
92 88 72
19 64 95
131 153 181
128 131 101
135 155 181
131 153 181
150 163 181
138 156 181
134 154 181
132 154 181
132 153 181
153 165 181
133 154 181
75 80 101
128 151 181
75 80 101
38 16 64
133 154 181
153 165 181
118 119 143
131 153 181
133 154 181
132 153 181
135 155 181
134 154 181
141 158 181
146 102 120
142 158 181
80 82 101
117 118 143
136 155 181
131 153 181
150 89 155
139 157 181
138 156 181
131 153 181
133 154 181
151 163 181
72 80 117
144 160 181
152 164 181
132 153 181
136 155 181
140 157 181
129 152 181
153 164 181
133 154 181
144 159 181
131 153 181
46 7 10
143 159 181
143 159 181
135 155 181
140 157 181
131 153 181
130 152 181
132 153 181
86 65 164
140 157 181
149 162 181
151 163 181
141 158 181
44 33 82
130 152 181
130 152 181
144 160 181
142 159 181
90 46 83
85 64 164
112 88 232
116 90 232
3 3 31
75 61 164
118 90 232
119 91 232
74 60 164
121 92 232
75 61 164
123 92 232
84 64 164
73 60 164
77 62 164
113 88 232
114 89 232
42 34 162
78 62 164
118 90 232
120 91 232
104 85 232
34 29 100
116 90 232
3 2 5
115 89 232
113 89 232
43 34 162
43 34 162
90 67 165
83 64 164
120 91 232
116 90 232
110 87 232
121 92 232
84 64 164
119 91 232
112 88 232
46 25 149
30 24 114
136 156 181
131 153 181
131 152 181
152 164 181
134 154 181
147 161 181
141 158 181
128 151 181
0 0 0
140 158 181
132 153 181
133 154 181
148 162 181
130 152 181
141 158 181
133 154 181
135 155 181
77 61 164
137 157 140
131 153 181
137 156 181
115 117 143
132 153 181
50 35 82
129 152 181
132 153 181
134 154 181
131 153 181
89 107 99
101 113 99
136 155 181
133 154 181
91 90 25
130 152 181
140 158 181
140 157 181
133 154 181
132 153 181
52 88 130
129 152 181
79 44 83
130 152 181
139 157 181
146 160 181
129 152 181
140 158 181
133 154 181
58 73 54
146 161 181
140 159 140
131 153 181
151 164 181
130 152 181
82 16 38
134 154 181
129 152 181
129 151 181
132 153 181
136 155 181
143 159 181
92 109 99
145 160 181
145 160 181
106 140 220
118 147 220
8 10 53
133 154 181
114 117 143
113 144 220
134 154 181
142 158 181
134 154 181
140 158 181
133 154 181
135 155 181
131 153 181
133 154 181
150 92 33
129 152 181
141 158 181
133 154 181
145 160 181
128 151 181
74 79 101
135 155 181
0 0 0
147 161 181
133 154 181
124 150 140
120 120 143
128 151 181
133 154 181
138 156 181
143 159 181
132 153 181
120 120 143
134 154 181
137 156 181
141 158 181
141 158 181
134 154 181
135 155 181
131 153 181
3 27 38
129 152 181
147 161 181
132 153 181
134 154 181
134 154 181
128 151 181
138 156 181
136 155 181
135 155 181
144 159 181
29 3 17
75 80 101
130 152 181
145 160 181
149 162 181
85 65 164
129 152 181
128 151 181
137 156 181
134 154 181
129 152 181
151 163 181
129 152 181
52 69 110
132 153 181
106 113 143
150 163 181
145 160 181
137 156 181
149 162 181
137 156 181
130 152 181
132 153 181
129 152 181
134 154 181
60 155 160
130 152 181
132 153 181
82 83 101
135 155 181
135 155 181
131 153 181
74 60 164
71 42 65
134 154 181
74 80 101
140 158 181
129 152 181
132 153 181
77 81 101
140 157 181
140 157 181
134 154 181
138 156 181
130 152 181
132 153 181
121 92 232
30 17 105
130 152 181
74 52 92
112 88 232
112 88 232
118 90 232
81 63 164
112 88 232
116 89 232
116 90 232
120 91 232
73 60 164
110 88 232
85 64 164
24 9 136
118 90 232
111 88 232
118 90 232
122 92 232
79 62 164
119 91 232
1 0 39
49 26 149
45 35 162
106 86 232
121 92 232
116 90 232
108 87 232
124 93 232
44 24 149
20 5 175
77 61 164
84 64 164
47 22 130
116 90 232
75 61 164
75 61 164
11 23 27
74 60 164
137 156 181
134 154 181
129 152 181
147 161 181
131 153 181
106 113 143
145 160 181
133 154 181
135 155 181
128 151 181
138 156 181
129 152 181
132 153 181
128 151 181
133 154 181
129 152 181
146 161 181
132 153 181
145 160 181
103 91 128
130 152 181
30 58 146
151 164 181
86 105 99
132 153 181
132 153 181
132 155 140
130 152 181
135 155 181
139 157 181
131 153 181
132 153 181
137 156 181
129 152 181
130 152 181
137 156 181
146 161 181
152 164 181
137 156 181
151 163 181
131 153 181
132 153 181
136 155 181
138 157 181
138 158 140
128 151 181
131 153 181
148 162 181
145 160 181
136 155 181
144 159 181
52 42 116
142 158 181
136 155 181
102 114 99
136 155 181
53 60 126
139 157 181
49 55 55
60 75 54
5 38 7
150 163 181
139 157 181
105 139 220
113 145 220
103 138 220
105 140 220
114 145 220
110 143 220
62 157 160
28 50 89
131 153 181
57 151 160
139 157 181
119 120 101
141 158 181
134 154 181
31 77 90
135 155 181
130 152 181
130 152 181
137 156 181
128 151 181
132 153 181
137 156 181
145 160 181
134 154 181
132 153 181
152 164 181
137 156 181
145 160 181
131 153 181
131 153 181
132 153 181
149 162 181
139 157 181
130 152 181
137 156 181
145 160 181
151 164 181
146 161 181
73 79 101
129 151 181
143 159 181
135 155 181
138 156 181
132 153 181
130 152 181
132 153 181
140 157 181
28 23 22
54 71 110
129 152 181
137 156 181
153 165 181
130 152 181
131 152 181
131 153 181
128 151 181
149 163 181
131 153 181
130 152 181
131 153 181
134 154 181
130 152 181
134 154 181
67 110 136
132 153 181
137 156 181
130 152 181
129 152 181
37 19 54
136 155 181
133 154 181
137 156 181
133 154 181
85 85 101
128 151 181
82 63 164
140 158 181
130 152 181
131 152 181
143 159 181
144 160 181
133 154 181
132 153 181
130 152 181
116 102 25
132 153 181
139 157 181
151 163 181
145 160 181
145 160 181
133 154 181
58 45 116
128 151 181
152 164 181
136 155 181
139 157 181
130 152 181
135 155 181
74 79 101
144 160 181
116 90 232
82 63 164
118 91 232
50 24 74
74 60 164
107 86 232
45 35 162
84 64 164
103 85 232
73 60 164
0 0 0
28 23 114
2 0 120
116 89 232
0 0 62
77 61 164
0 0 0
120 91 232
105 86 232
45 24 149
106 86 232
119 91 232
114 89 232
114 89 232
116 90 232
47 58 175
84 64 164
123 92 232
23 18 81
108 87 232
90 19 158
123 92 232
80 63 164
76 61 164
81 63 164
133 154 181
124 93 232
136 155 181
54 43 116
151 164 181
141 158 181
132 153 181
128 151 181
133 154 181
130 152 181
133 154 181
130 152 181
139 157 181
138 156 181
143 159 181
133 154 181
133 154 181
130 152 181
138 157 181
122 149 140
95 137 125
129 152 181
140 157 181
139 157 181
131 153 181
130 152 181
133 154 181
129 152 181
156 166 181
104 142 66
112 119 127
132 153 181
129 152 181
132 153 181
145 160 181
129 152 181
129 152 181
140 157 181
129 151 181
134 154 181
30 69 41
132 153 181
132 153 181
130 152 181
133 154 181
142 159 181
133 154 181
131 153 181
140 158 181
84 104 99
94 110 99
142 158 181
129 152 181
129 152 181
136 155 181
86 105 99
129 152 181
152 164 181
134 154 181
131 153 181
142 159 181
145 160 181
128 151 181
92 108 99
128 151 181
0 0 0
113 144 220
103 138 220
109 142 220
116 146 220
0 0 14
136 155 181
137 156 181
142 158 181
130 152 181
130 152 181
131 153 181
140 158 181
134 154 181
150 163 181
150 163 181
132 153 181
140 157 181
149 163 181
88 86 72
131 153 181
128 151 181
138 156 181
143 159 181
141 158 181
139 157 181
53 70 110
61 46 116
133 154 181
151 164 181
128 151 181
137 156 181
135 155 181
128 151 181
137 156 181
132 153 181
152 164 181
129 152 181
135 155 181
131 153 181
130 152 181
137 156 181
136 155 181
131 153 181
131 153 181
0 0 5
129 152 181
147 161 181
135 155 181
137 156 181
133 154 181
57 44 116
142 158 181
150 163 181
141 158 181
136 156 181
131 153 181
132 153 181
146 161 181
128 151 181
153 164 181
133 154 181
133 154 181
140 157 181
143 159 181
81 63 164
148 162 181
55 48 28
149 162 181
137 156 181
144 160 181
130 152 181
132 153 181
130 152 181
132 153 181
131 153 181
130 152 181
133 154 181
136 155 181
47 68 106
155 166 181
131 153 181
143 159 181
151 163 181
142 159 181
128 151 181
133 154 181
142 159 181
131 152 181
152 164 181
150 163 181
136 155 181
153 165 181
83 104 155
51 42 116
136 155 181
132 153 181
132 153 181
130 152 181
128 151 181
52 61 175
26 55 178
118 90 232
112 88 232
118 90 232
111 88 232
21 50 174
117 90 232
83 64 164
118 90 232
0 0 15
0 0 19
0 0 0
36 23 53
110 87 232
118 90 232
0 0 6
73 60 164
121 91 232
76 61 164
122 92 232
89 66 165
87 65 164
121 92 232
77 61 164
125 93 232
80 62 164
20 16 81
117 90 232
83 64 164
83 64 164
74 60 164
78 62 164
109 87 232
78 62 164
133 154 181
80 62 164
92 109 99
146 161 181
54 43 116
144 160 181
3 8 41
66 123 128
148 162 181
142 158 181
133 154 181
133 154 181
142 159 181
132 153 181
129 152 181
137 156 181
129 152 181
73 60 164
135 155 181
151 164 181
21 12 74
150 163 181
131 153 181
131 153 181
130 152 181
137 156 181
134 154 181
148 162 181
130 152 181
125 126 127
138 156 181
130 152 181
55 62 126
128 151 181
136 156 181
139 157 181
0 0 0
132 153 181
140 158 181
145 160 181
133 154 181
132 153 181
133 154 181
145 160 181
88 79 114
130 152 181
58 45 116
130 152 181
139 157 181
134 154 181
129 152 181
128 151 181
132 153 181
86 86 89
138 156 181
136 155 181
144 160 181
146 161 181
50 59 98
142 158 181
87 106 99
57 73 54
140 158 181
64 77 54
96 111 99
110 142 220
112 143 220
103 138 220
104 139 220
119 148 220
110 142 220
120 149 220
136 155 181
129 152 181
131 153 181
132 153 181
131 153 181
0 0 0
132 153 181
152 164 181
137 156 181
135 155 181
128 151 181
149 163 181
128 151 181
136 155 181
136 155 181
141 158 181
80 82 101
52 48 45
152 164 181
137 156 181
133 154 181
22 82 82
130 152 181
140 158 181
78 62 164
131 153 181
134 154 181
139 157 181
57 72 110
144 159 181
141 158 181
150 163 181
150 163 181
145 160 181
135 155 181
133 154 181
138 156 181
130 152 181
138 156 181
0 0 0
135 155 181
129 152 181
132 153 181
142 159 181
136 155 181
129 152 181
140 158 181
74 79 101
147 161 181
125 110 98
133 154 181
144 159 181
130 152 181
148 162 181
138 156 181
146 161 181
138 156 181
148 162 181
137 156 181
133 154 181
137 156 181
137 156 181
143 159 181
82 84 101
132 153 181
144 159 181
37 20 36
131 153 181
132 153 181
80 82 101
132 153 181
134 154 181
130 152 181
80 82 101
55 44 116
138 156 181
109 65 127
132 153 181
135 155 181
131 153 181
135 155 181
129 152 181
133 154 181
131 153 181
132 153 181
130 152 181
129 152 181
135 155 181
137 156 181
134 154 181
140 157 181
56 44 116
79 62 164
78 62 164
80 62 164
116 89 232
117 90 232
75 61 164
17 7 78
2 8 32
80 63 164
109 87 232
119 91 232
73 60 164
116 89 232
111 88 232
120 91 232
116 89 232
81 63 164
28 23 114
3 2 5
80 63 164
72 60 164
122 92 232
17 38 123
119 91 232
81 63 164
75 61 164
119 91 232
112 88 232
76 61 164
28 23 114
74 60 164
15 5 95
114 89 232
115 89 232
75 61 164
114 89 232
89 107 99
151 164 181
128 151 181
131 153 181
134 154 181
109 118 127
146 161 181
138 156 181
131 153 181
129 152 181
140 157 181
130 152 181
131 153 181
137 156 181
135 155 181
131 153 181
80 154 136
128 151 181
53 43 116
30 103 73
147 161 181
148 162 181
148 162 181
128 151 181
128 151 181
149 163 181
133 154 181
150 163 181
141 158 181
135 155 181
133 154 181
147 161 181
133 154 181
78 101 155
146 161 181
142 159 181
76 86 178
137 156 181
129 152 181
61 46 116
140 158 181
139 157 181
112 120 127
139 157 181
129 152 181
131 153 181
127 127 127
35 61 92
31 17 105
152 164 181
156 166 181
133 154 181
130 152 181
146 161 181
143 159 181
130 152 181
155 166 181
146 161 181
156 166 181
91 108 99
129 152 181
141 158 181
131 153 181
140 158 181
139 157 181
